; LightBurn 1.4.00
; GRBL device profile, absolute coords
; Bounds: X10 Y10 to X280 Y198.17
G00 G17 G40 G21 G54
G90
M4
; Cut @ 1999.998 mm/min, 100% power
M8
G0 X10Y10.01
M3
G0 Z0
M3
G1 F100 S1000
G4 P0.25
G1 S0
G0
M3
; Layer C00
G1 X33.503Y33.472S1000F2000
G1 X10Y10.01
M3
G1 F100 S1000
G4 P0.2
G1 S0
G0
M3
G0 X10Y10.014
M3
G1 F100 S1000
G4 P0.25
G1 S0
G0
M3
G1 X10.029Y33.533S1000F2000
G1 X10Y10.014
M3
G1 F100 S1000
G4 P0.2
G1 S0
G0
M3
G0 X10Y10.014
M3
G1 F100 S1000
G4 P0.25
G1 S0
G0
M3
G1 X33.519S1000F2000
M3
G1 F100 S1000
G4 P0.2
G1 S0
G0
M3
G0 X33.537Y10.012
M3
G1 F100 S1000
G4 P0.25
G1 S0
G0
M3
G1 Y11.423S1000F2000
M3
G1 F100 S1000
G4 P0.2
G1 S0
G0
M3
G0 X33.099Y10.718
M3
G1 F100 S1000
G4 P0.25
G1 S0
G0
M3
G1 Y10.012S1000F2000
M3
G1 F100 S1000
G4 P0.2
G1 S0
G0
M3
G0 X32.621Y10.012
M3
G1 F100 S1000
G4 P0.25
G1 S0
G0
M3
G1 Y10.718S1000F2000
M3
G1 F100 S1000
G4 P0.2
G1 S0
G0
M3
G0 X32.143Y10.718
M3
G1 F100 S1000
G4 P0.25
G1 S0
G0
M3
G1 Y10.012S1000F2000
M3
G1 F100 S1000
G4 P0.2
G1 S0
G0
M3
G0 X31.665Y10.012
M3
G1 F100 S1000
G4 P0.25
G1 S0
G0
M3
G1 Y10.718S1000F2000
M3
G1 F100 S1000
G4 P0.2
G1 S0
G0
M3
G0 X30.749Y10.718
M3
G1 F100 S1000
G4 P0.25
G1 S0
G0
M3
G1 Y10.012S1000F2000
M3
G1 F100 S1000
G4 P0.2
G1 S0
G0
M3
G0 X30.271Y10.012
M3
G1 F100 S1000
G4 P0.25
G1 S0
G0
M3
G1 Y10.718S1000F2000
M3
G1 F100 S1000
G4 P0.2
G1 S0
G0
M3
G0 X29.793Y10.718
M3
G1 F100 S1000
G4 P0.25
G1 S0
G0
M3
G1 Y10.012S1000F2000
M3
G1 F100 S1000
G4 P0.2
G1 S0
G0
M3
G0 X29.315Y10.012
M3
G1 F100 S1000
G4 P0.25
G1 S0
G0
M3
G1 Y10.718S1000F2000
M3
G1 F100 S1000
G4 P0.2
G1 S0
G0
M3
G0 X28.399Y10.718
M3
G1 F100 S1000
G4 P0.25
G1 S0
G0
M3
G1 Y10.012S1000F2000
M3
G1 F100 S1000
G4 P0.2
G1 S0
G0
M3
G0 X27.921Y10.012
M3
G1 F100 S1000
G4 P0.25
G1 S0
G0
M3
G1 Y10.718S1000F2000
M3
G1 F100 S1000
G4 P0.2
G1 S0
G0
M3
G0 X27.444Y10.718
M3
G1 F100 S1000
G4 P0.25
G1 S0
G0
M3
G1 Y10.012S1000F2000
M3
G1 F100 S1000
G4 P0.2
G1 S0
G0
M3
G0 X26.966Y10.012
M3
G1 F100 S1000
G4 P0.25
G1 S0
G0
M3
G1 Y10.718S1000F2000
M3
G1 F100 S1000
G4 P0.2
G1 S0
G0
M3
G0 X26.05Y10.718
M3
G1 F100 S1000
G4 P0.25
G1 S0
G0
M3
G1 Y10.012S1000F2000
M3
G1 F100 S1000
G4 P0.2
G1 S0
G0
M3
G0 X25.572Y10.012
M3
G1 F100 S1000
G4 P0.25
G1 S0
G0
M3
G1 Y10.718S1000F2000
M3
G1 F100 S1000
G4 P0.2
G1 S0
G0
M3
G0 X25.094Y10.718
M3
G1 F100 S1000
G4 P0.25
G1 S0
G0
M3
G1 Y10.012S1000F2000
M3
G1 F100 S1000
G4 P0.2
G1 S0
G0
M3
G0 X24.616Y10.012
M3
G1 F100 S1000
G4 P0.25
G1 S0
G0
M3
G1 Y10.718S1000F2000
M3
G1 F100 S1000
G4 P0.2
G1 S0
G0
M3
G0 X23.7Y10.718
M3
G1 F100 S1000
G4 P0.25
G1 S0
G0
M3
G1 Y10.012S1000F2000
M3
G1 F100 S1000
G4 P0.2
G1 S0
G0
M3
G0 X23.7Y10.012
M3
G1 F100 S1000
G4 P0.25
G1 S0
G0
M3
G1 Y10.718S1000F2000
M3
G1 F100 S1000
G4 P0.2
G1 S0
G0
M3
G0 X23.222Y10.718
M3
G1 F100 S1000
G4 P0.25
G1 S0
G0
M3
G1 Y10.012S1000F2000
M3
G1 F100 S1000
G4 P0.2
G1 S0
G0
M3
G0 X23.222Y10.012
M3
G1 F100 S1000
G4 P0.25
G1 S0
G0
M3
G1 Y10.718S1000F2000
M3
G1 F100 S1000
G4 P0.2
G1 S0
G0
M3
G0 X22.744Y10.718
M3
G1 F100 S1000
G4 P0.25
G1 S0
G0
M3
G1 Y10.012S1000F2000
M3
G1 F100 S1000
G4 P0.2
G1 S0
G0
M3
G0 X22.744Y10.012
M3
G1 F100 S1000
G4 P0.25
G1 S0
G0
M3
G1 Y10.718S1000F2000
M3
G1 F100 S1000
G4 P0.2
G1 S0
G0
M3
G0 X22.266Y10.718
M3
G1 F100 S1000
G4 P0.25
G1 S0
G0
M3
G1 Y10.012S1000F2000
M3
G1 F100 S1000
G4 P0.2
G1 S0
G0
M3
G0 X22.266Y10.012
M3
G1 F100 S1000
G4 P0.25
G1 S0
G0
M3
G1 Y10.718S1000F2000
M3
G1 F100 S1000
G4 P0.2
G1 S0
G0
M3
G0 X21.35Y10.718
M3
G1 F100 S1000
G4 P0.25
G1 S0
G0
M3
G1 Y10.012S1000F2000
M3
G1 F100 S1000
G4 P0.2
G1 S0
G0
M3
G0 X20.872Y10.012
M3
G1 F100 S1000
G4 P0.25
G1 S0
G0
M3
G1 Y10.718S1000F2000
M3
G1 F100 S1000
G4 P0.2
G1 S0
G0
M3
G0 X20.394Y10.718
M3
G1 F100 S1000
G4 P0.25
G1 S0
G0
M3
G1 Y10.012S1000F2000
M3
G1 F100 S1000
G4 P0.2
G1 S0
G0
M3
G0 X19.917Y10.012
M3
G1 F100 S1000
G4 P0.25
G1 S0
G0
M3
G1 Y10.718S1000F2000
M3
G1 F100 S1000
G4 P0.2
G1 S0
G0
M3
G0 X19.001Y10.718
M3
G1 F100 S1000
G4 P0.25
G1 S0
G0
M3
G1 Y10.012S1000F2000
M3
G1 F100 S1000
G4 P0.2
G1 S0
G0
M3
G0 X18.523Y10.012
M3
G1 F100 S1000
G4 P0.25
G1 S0
G0
M3
G1 Y10.718S1000F2000
M3
G1 F100 S1000
G4 P0.2
G1 S0
G0
M3
G0 X18.045Y10.718
M3
G1 F100 S1000
G4 P0.25
G1 S0
G0
M3
G1 Y10.012S1000F2000
M3
G1 F100 S1000
G4 P0.2
G1 S0
G0
M3
G0 X17.567Y10.012
M3
G1 F100 S1000
G4 P0.25
G1 S0
G0
M3
G1 Y10.718S1000F2000
M3
G1 F100 S1000
G4 P0.2
G1 S0
G0
M3
G0 X16.651Y10.718
M3
G1 F100 S1000
G4 P0.25
G1 S0
G0
M3
G1 Y10.012S1000F2000
M3
G1 F100 S1000
G4 P0.2
G1 S0
G0
M3
G0 X16.173Y10.012
M3
G1 F100 S1000
G4 P0.25
G1 S0
G0
M3
G1 Y10.718S1000F2000
M3
G1 F100 S1000
G4 P0.2
G1 S0
G0
M3
G0 X15.695Y10.718
M3
G1 F100 S1000
G4 P0.25
G1 S0
G0
M3
G1 Y10.012S1000F2000
M3
G1 F100 S1000
G4 P0.2
G1 S0
G0
M3
G0 X15.217Y10.012
M3
G1 F100 S1000
G4 P0.25
G1 S0
G0
M3
G1 Y10.718S1000F2000
M3
G1 F100 S1000
G4 P0.2
G1 S0
G0
M3
G0 X14.301Y10.718
M3
G1 F100 S1000
G4 P0.25
G1 S0
G0
M3
G1 Y10.012S1000F2000
M3
G1 F100 S1000
G4 P0.2
G1 S0
G0
M3
G0 X13.823Y10.012
M3
G1 F100 S1000
G4 P0.25
G1 S0
G0
M3
G1 Y10.718S1000F2000
M3
G1 F100 S1000
G4 P0.2
G1 S0
G0
M3
G0 X13.345Y10.718
M3
G1 F100 S1000
G4 P0.25
G1 S0
G0
M3
G1 Y10.012S1000F2000
M3
G1 F100 S1000
G4 P0.2
G1 S0
G0
M3
G0 X12.867Y10.012
M3
G1 F100 S1000
G4 P0.25
G1 S0
G0
M3
G1 Y10.718S1000F2000
M3
G1 F100 S1000
G4 P0.2
G1 S0
G0
M3
G0 X11.912Y10.718
M3
G1 F100 S1000
G4 P0.25
G1 S0
G0
M3
G1 Y10.012S1000F2000
M3
G1 F100 S1000
G4 P0.2
G1 S0
G0
M3
G0 X11.434Y10.012
M3
G1 F100 S1000
G4 P0.25
G1 S0
G0
M3
G1 Y10.718S1000F2000
M3
G1 F100 S1000
G4 P0.2
G1 S0
G0
M3
G0 X11.361Y10.854
M3
G1 F100 S1000
G4 P0.25
G1 S0
G0
M3
G1 X10.862Y11.353S1000F2000
M3
G1 F100 S1000
G4 P0.2
G1 S0
G0
M3
G0 X10.706Y11.446
M3
G1 F100 S1000
G4 P0.25
G1 S0
G0
M3
G1 X10S1000F2000
M3
G1 F100 S1000
G4 P0.2
G1 S0
G0
M3
G0 X10Y10.968
M3
G1 F100 S1000
G4 P0.25
G1 S0
G0
M3
G1 X10.706S1000F2000
M3
G1 F100 S1000
G4 P0.2
G1 S0
G0
M3
G0 X10.478Y10.718
M3
G1 F100 S1000
G4 P0.25
G1 S0
G0
M3
G1 Y10.012S1000F2000
M3
G1 F100 S1000
G4 P0.2
G1 S0
G0
M3
G0 X10.956Y10.012
M3
G1 F100 S1000
G4 P0.25
G1 S0
G0
M3
G1 Y10.718S1000F2000
M3
G1 F100 S1000
G4 P0.2
G1 S0
G0
M3
G0 X10.706Y10.49
M3
G1 F100 S1000
G4 P0.25
G1 S0
G0
M3
G1 X10S1000F2000
M3
G1 F100 S1000
G4 P0.2
G1 S0
G0
M3
G0 X11.699Y11.192
M3
G1 F100 S1000
G4 P0.25
G1 S0
G0
M3
G1 X11.2Y11.691S1000F2000
M3
G1 F100 S1000
G4 P0.2
G1 S0
G0
M3
G0 X10.706Y11.924
M3
G1 F100 S1000
G4 P0.25
G1 S0
G0
M3
G1 X10S1000F2000
M3
G1 F100 S1000
G4 P0.2
G1 S0
G0
M3
G0 X10Y12.362
M3
G1 F100 S1000
G4 P0.25
G1 S0
G0
M3
G1 X11.411S1000F2000
M3
G1 F100 S1000
G4 P0.2
G1 S0
G0
M3
G0 X11.876Y12.366
M3
G1 F100 S1000
G4 P0.25
G1 S0
G0
M3
G1 X12.375Y11.868S1000F2000
M3
G1 F100 S1000
G4 P0.2
G1 S0
G0
M3
G0 X12.952Y11.967
M3
G1 F100 S1000
G4 P0.25
G1 S0
G0
M3
G1 X11.954Y12.964S1000F2000
M3
G1 F100 S1000
G4 P0.2
G1 S0
G0
M3
G0 X12.552Y13.042
M3
G1 F100 S1000
G4 P0.25
G1 S0
G0
M3
G1 X13.051Y12.543S1000F2000
M3
G1 F100 S1000
G4 P0.2
G1 S0
G0
M3
G0 X13.389Y12.882
M3
G1 F100 S1000
G4 P0.25
G1 S0
G0
M3
G1 X12.89Y13.38S1000F2000
M3
G1 F100 S1000
G4 P0.2
G1 S0
G0
M3
G0 X13.228Y13.718
M3
G1 F100 S1000
G4 P0.25
G1 S0
G0
M3
G1 X13.727Y13.219S1000F2000
M3
G1 F100 S1000
G4 P0.2
G1 S0
G0
M3
G0 X14.065Y13.557
M3
G1 F100 S1000
G4 P0.25
G1 S0
G0
M3
G1 X13.566Y14.056S1000F2000
M3
G1 F100 S1000
G4 P0.2
G1 S0
G0
M3
G0 X13.644Y14.654
M3
G1 F100 S1000
G4 P0.25
G1 S0
G0
M3
G1 X14.642Y13.656S1000F2000
M3
G1 F100 S1000
G4 P0.2
G1 S0
G0
M3
G0 X14.712Y14.205
M3
G1 F100 S1000
G4 P0.25
G1 S0
G0
M3
G1 X14.213Y14.704S1000F2000
M3
G1 F100 S1000
G4 P0.2
G1 S0
G0
M3
G0 X14.551Y15.042
M3
G1 F100 S1000
G4 P0.25
G1 S0
G0
M3
G1 X15.05Y14.543S1000F2000
M3
G1 F100 S1000
G4 P0.2
G1 S0
G0
M3
G0 X15.388Y14.881
M3
G1 F100 S1000
G4 P0.25
G1 S0
G0
M3
G1 X14.889Y15.38S1000F2000
M3
G1 F100 S1000
G4 P0.2
G1 S0
G0
M3
G0 X15.227Y15.718
M3
G1 F100 S1000
G4 P0.25
G1 S0
G0
M3
G1 X15.726Y15.219S1000F2000
M3
G1 F100 S1000
G4 P0.2
G1 S0
G0
M3
G0 X16.303Y15.318
M3
G1 F100 S1000
G4 P0.25
G1 S0
G0
M3
G1 X15.305Y16.316S1000F2000
M3
G1 F100 S1000
G4 P0.2
G1 S0
G0
M3
G0 X15.875Y16.365
M3
G1 F100 S1000
G4 P0.25
G1 S0
G0
M3
G1 X16.374Y15.866S1000F2000
M3
G1 F100 S1000
G4 P0.2
G1 S0
G0
M3
G0 X16.712Y16.205
M3
G1 F100 S1000
G4 P0.25
G1 S0
G0
M3
G1 X16.213Y16.703S1000F2000
M3
G1 F100 S1000
G4 P0.2
G1 S0
G0
M3
G0 X16.551Y17.041
M3
G1 F100 S1000
G4 P0.25
G1 S0
G0
M3
G1 X17.05Y16.542S1000F2000
M3
G1 F100 S1000
G4 P0.2
G1 S0
G0
M3
G0 X17.388Y16.88
M3
G1 F100 S1000
G4 P0.25
G1 S0
G0
M3
G1 X16.889Y17.379S1000F2000
M3
G1 F100 S1000
G4 P0.2
G1 S0
G0
M3
G0 X16.967Y17.977
M3
G1 F100 S1000
G4 P0.25
G1 S0
G0
M3
G1 X17.965Y16.979S1000F2000
M3
G1 F100 S1000
G4 P0.2
G1 S0
G0
M3
G0 X18.035Y17.528
M3
G1 F100 S1000
G4 P0.25
G1 S0
G0
M3
G1 X17.536Y18.027S1000F2000
M3
G1 F100 S1000
G4 P0.2
G1 S0
G0
M3
G0 X17.874Y18.365
M3
G1 F100 S1000
G4 P0.25
G1 S0
G0
M3
G1 X18.373Y17.866S1000F2000
M3
G1 F100 S1000
G4 P0.2
G1 S0
G0
M3
G0 X18.711Y18.204
M3
G1 F100 S1000
G4 P0.25
G1 S0
G0
M3
G1 X18.212Y18.703S1000F2000
M3
G1 F100 S1000
G4 P0.2
G1 S0
G0
M3
G0 X18.55Y19.041
M3
G1 F100 S1000
G4 P0.25
G1 S0
G0
M3
G1 X19.049Y18.542S1000F2000
M3
G1 F100 S1000
G4 P0.2
G1 S0
G0
M3
G0 X19.626Y18.641
M3
G1 F100 S1000
G4 P0.25
G1 S0
G0
M3
G1 X18.628Y19.639S1000F2000
M3
G1 F100 S1000
G4 P0.2
G1 S0
G0
M3
G0 X19.198Y19.688
M3
G1 F100 S1000
G4 P0.25
G1 S0
G0
M3
G1 X19.697Y19.189S1000F2000
M3
G1 F100 S1000
G4 P0.2
G1 S0
G0
M3
G0 X19.697Y19.189
M3
G1 F100 S1000
G4 P0.25
G1 S0
G0
M3
G1 X19.198Y19.688S1000F2000
M3
G1 F100 S1000
G4 P0.2
G1 S0
G0
M3
G0 X19.536Y20.026
M3
G1 F100 S1000
G4 P0.25
G1 S0
G0
M3
G1 X20.035Y19.528S1000F2000
M3
G1 F100 S1000
G4 P0.2
G1 S0
G0
M3
G0 X20.035Y19.528
M3
G1 F100 S1000
G4 P0.25
G1 S0
G0
M3
G1 X19.536Y20.026S1000F2000
M3
G1 F100 S1000
G4 P0.2
G1 S0
G0
M3
G0 X19.874Y20.364
M3
G1 F100 S1000
G4 P0.25
G1 S0
G0
M3
G1 X20.373Y19.865S1000F2000
M3
G1 F100 S1000
G4 P0.2
G1 S0
G0
M3
G0 X20.373Y19.865
M3
G1 F100 S1000
G4 P0.25
G1 S0
G0
M3
G1 X19.874Y20.364S1000F2000
M3
G1 F100 S1000
G4 P0.2
G1 S0
G0
M3
G0 X20.212Y20.702
M3
G1 F100 S1000
G4 P0.25
G1 S0
G0
M3
G1 X20.711Y20.203S1000F2000
M3
G1 F100 S1000
G4 P0.2
G1 S0
G0
M3
G0 X20.711Y20.203
M3
G1 F100 S1000
G4 P0.25
G1 S0
G0
M3
G1 X20.212Y20.702S1000F2000
M3
G1 F100 S1000
G4 P0.2
G1 S0
G0
M3
G0 X20.29Y21.3
M3
G1 F100 S1000
G4 P0.25
G1 S0
G0
M3
G1 X21.287Y20.302S1000F2000
M3
G1 F100 S1000
G4 P0.2
G1 S0
G0
M3
G0 X21.358Y20.851
M3
G1 F100 S1000
G4 P0.25
G1 S0
G0
M3
G1 X20.859Y21.35S1000F2000
M3
G1 F100 S1000
G4 P0.2
G1 S0
G0
M3
G0 X21.197Y21.688
M3
G1 F100 S1000
G4 P0.25
G1 S0
G0
M3
G1 X21.696Y21.189S1000F2000
M3
G1 F100 S1000
G4 P0.2
G1 S0
G0
M3
G0 X22.034Y21.527
M3
G1 F100 S1000
G4 P0.25
G1 S0
G0
M3
G1 X21.535Y22.026S1000F2000
M3
G1 F100 S1000
G4 P0.2
G1 S0
G0
M3
G0 X21.873Y22.364
M3
G1 F100 S1000
G4 P0.25
G1 S0
G0
M3
G1 X22.372Y21.865S1000F2000
M3
G1 F100 S1000
G4 P0.2
G1 S0
G0
M3
G0 X22.949Y21.964
M3
G1 F100 S1000
G4 P0.25
G1 S0
G0
M3
G1 X21.951Y22.962S1000F2000
M3
G1 F100 S1000
G4 P0.2
G1 S0
G0
M3
G0 X22.521Y23.011
M3
G1 F100 S1000
G4 P0.25
G1 S0
G0
M3
G1 X23.02Y22.512S1000F2000
M3
G1 F100 S1000
G4 P0.2
G1 S0
G0
M3
G0 X23.358Y22.851
M3
G1 F100 S1000
G4 P0.25
G1 S0
G0
M3
G1 X22.859Y23.35S1000F2000
M3
G1 F100 S1000
G4 P0.2
G1 S0
G0
M3
G0 X23.197Y23.687
M3
G1 F100 S1000
G4 P0.25
G1 S0
G0
M3
G1 X23.696Y23.188S1000F2000
M3
G1 F100 S1000
G4 P0.2
G1 S0
G0
M3
G0 X24.034Y23.526
M3
G1 F100 S1000
G4 P0.25
G1 S0
G0
M3
G1 X23.535Y24.025S1000F2000
M3
G1 F100 S1000
G4 P0.2
G1 S0
G0
M3
G0 X23.613Y24.623
M3
G1 F100 S1000
G4 P0.25
G1 S0
G0
M3
G1 X24.61Y23.625S1000F2000
M3
G1 F100 S1000
G4 P0.2
G1 S0
G0
M3
G0 X24.681Y24.174
M3
G1 F100 S1000
G4 P0.25
G1 S0
G0
M3
G1 X24.182Y24.673S1000F2000
M3
G1 F100 S1000
G4 P0.2
G1 S0
G0
M3
G0 X24.52Y25.011
M3
G1 F100 S1000
G4 P0.25
G1 S0
G0
M3
G1 X25.019Y24.512S1000F2000
M3
G1 F100 S1000
G4 P0.2
G1 S0
G0
M3
G0 X25.357Y24.85
M3
G1 F100 S1000
G4 P0.25
G1 S0
G0
M3
G1 X24.858Y25.349S1000F2000
M3
G1 F100 S1000
G4 P0.2
G1 S0
G0
M3
G0 X25.196Y25.687
M3
G1 F100 S1000
G4 P0.25
G1 S0
G0
M3
G1 X25.695Y25.188S1000F2000
M3
G1 F100 S1000
G4 P0.2
G1 S0
G0
M3
G0 X26.272Y25.287
M3
G1 F100 S1000
G4 P0.25
G1 S0
G0
M3
G1 X25.274Y26.284S1000F2000
M3
G1 F100 S1000
G4 P0.2
G1 S0
G0
M3
G0 X25.844Y26.334
M3
G1 F100 S1000
G4 P0.25
G1 S0
G0
M3
G1 X26.343Y25.836S1000F2000
M3
G1 F100 S1000
G4 P0.2
G1 S0
G0
M3
G0 X26.681Y26.173
M3
G1 F100 S1000
G4 P0.25
G1 S0
G0
M3
G1 X26.182Y26.672S1000F2000
M3
G1 F100 S1000
G4 P0.2
G1 S0
G0
M3
G0 X26.52Y27.01
M3
G1 F100 S1000
G4 P0.25
G1 S0
G0
M3
G1 X27.019Y26.511S1000F2000
M3
G1 F100 S1000
G4 P0.2
G1 S0
G0
M3
G0 X27.357Y26.849
M3
G1 F100 S1000
G4 P0.25
G1 S0
G0
M3
G1 X26.858Y27.348S1000F2000
M3
G1 F100 S1000
G4 P0.2
G1 S0
G0
M3
G0 X26.907Y27.918
M3
G1 F100 S1000
G4 P0.25
G1 S0
G0
M3
G1 X27.905Y26.92S1000F2000
M3
G1 F100 S1000
G4 P0.2
G1 S0
G0
M3
G0 X27.998Y27.491
M3
G1 F100 S1000
G4 P0.25
G1 S0
G0
M3
G1 X27.499Y27.99S1000F2000
M3
G1 F100 S1000
G4 P0.2
G1 S0
G0
M3
G0 X27.837Y28.328
M3
G1 F100 S1000
G4 P0.25
G1 S0
G0
M3
G1 X28.336Y27.829S1000F2000
M3
G1 F100 S1000
G4 P0.2
G1 S0
G0
M3
G0 X28.674Y28.166
M3
G1 F100 S1000
G4 P0.25
G1 S0
G0
M3
G1 X28.175Y28.665S1000F2000
M3
G1 F100 S1000
G4 P0.2
G1 S0
G0
M3
G0 X28.513Y29.004
M3
G1 F100 S1000
G4 P0.25
G1 S0
G0
M3
G1 X29.012Y28.505S1000F2000
M3
G1 F100 S1000
G4 P0.2
G1 S0
G0
M3
G0 X29.589Y28.603
M3
G1 F100 S1000
G4 P0.25
G1 S0
G0
M3
G1 X28.591Y29.601S1000F2000
M3
G1 F100 S1000
G4 P0.2
G1 S0
G0
M3
G0 X29.161Y29.651
M3
G1 F100 S1000
G4 P0.25
G1 S0
G0
M3
G1 X29.659Y29.152S1000F2000
M3
G1 F100 S1000
G4 P0.2
G1 S0
G0
M3
G0 X29.997Y29.49
M3
G1 F100 S1000
G4 P0.25
G1 S0
G0
M3
G1 X29.498Y29.989S1000F2000
M3
G1 F100 S1000
G4 P0.2
G1 S0
G0
M3
G0 X29.836Y30.327
M3
G1 F100 S1000
G4 P0.25
G1 S0
G0
M3
G1 X30.335Y29.828S1000F2000
M3
G1 F100 S1000
G4 P0.2
G1 S0
G0
M3
G0 X30.673Y30.166
M3
G1 F100 S1000
G4 P0.25
G1 S0
G0
M3
G1 X30.174Y30.665S1000F2000
M3
G1 F100 S1000
G4 P0.2
G1 S0
G0
M3
G0 X30.252Y31.263
M3
G1 F100 S1000
G4 P0.25
G1 S0
G0
M3
G1 X31.25Y30.265S1000F2000
M3
G1 F100 S1000
G4 P0.2
G1 S0
G0
M3
G0 X31.321Y30.814
M3
G1 F100 S1000
G4 P0.25
G1 S0
G0
M3
G1 X30.822Y31.313S1000F2000
M3
G1 F100 S1000
G4 P0.2
G1 S0
G0
M3
G0 X31.16Y31.65
M3
G1 F100 S1000
G4 P0.25
G1 S0
G0
M3
G1 X31.659Y31.151S1000F2000
M3
G1 F100 S1000
G4 P0.2
G1 S0
G0
M3
G0 X31.997Y31.49
M3
G1 F100 S1000
G4 P0.25
G1 S0
G0
M3
G1 X31.498Y31.988S1000F2000
M3
G1 F100 S1000
G4 P0.2
G1 S0
G0
M3
G0 X31.836Y32.326
M3
G1 F100 S1000
G4 P0.25
G1 S0
G0
M3
G1 X32.335Y31.827S1000F2000
M3
G1 F100 S1000
G4 P0.2
G1 S0
G0
M3
G0 X32.883Y31.898
M3
G1 F100 S1000
G4 P0.25
G1 S0
G0
M3
G1 X31.886Y32.896S1000F2000
M3
G1 F100 S1000
G4 P0.2
G1 S0
G0
M3
G0 X32.474Y32.965
M3
G1 F100 S1000
G4 P0.25
G1 S0
G0
M3
G1 X32.973Y32.466S1000F2000
M3
G1 F100 S1000
G4 P0.2
G1 S0
G0
M3
G0 X33.311Y32.804
M3
G1 F100 S1000
G4 P0.25
G1 S0
G0
M3
G1 X32.812Y33.303S1000F2000
M3
G1 F100 S1000
G4 P0.2
G1 S0
G0
M3
G0 X33.15Y33.64
M3
G1 F100 S1000
G4 P0.25
G1 S0
G0
M3
G1 X33.649Y33.141S1000F2000
M3
G1 F100 S1000
G4 P0.2
G1 S0
G0
M3
G0 X11.411Y33.549
M3
G1 F100 S1000
G4 P0.25
G1 S0
G0
M3
G1 X10S1000F2000
M3
G1 F100 S1000
G4 P0.2
G1 S0
G0
M3
G0 X10Y33.111
M3
G1 F100 S1000
G4 P0.25
G1 S0
G0
M3
G1 X10.706S1000F2000
M3
G1 F100 S1000
G4 P0.2
G1 S0
G0
M3
G0 X10.706Y32.633
M3
G1 F100 S1000
G4 P0.25
G1 S0
G0
M3
G1 X10S1000F2000
M3
G1 F100 S1000
G4 P0.2
G1 S0
G0
M3
G0 X10Y32.155
M3
G1 F100 S1000
G4 P0.25
G1 S0
G0
M3
G1 X10.706S1000F2000
M3
G1 F100 S1000
G4 P0.2
G1 S0
G0
M3
G0 X10.706Y31.677
M3
G1 F100 S1000
G4 P0.25
G1 S0
G0
M3
G1 X10S1000F2000
M3
G1 F100 S1000
G4 P0.2
G1 S0
G0
M3
G0 X10Y31.199
M3
G1 F100 S1000
G4 P0.25
G1 S0
G0
M3
G1 X11.411S1000F2000
M3
G1 F100 S1000
G4 P0.2
G1 S0
G0
M3
G0 X10.706Y30.721
M3
G1 F100 S1000
G4 P0.25
G1 S0
G0
M3
G1 X10S1000F2000
M3
G1 F100 S1000
G4 P0.2
G1 S0
G0
M3
G0 X10Y30.244
M3
G1 F100 S1000
G4 P0.25
G1 S0
G0
M3
G1 X10.706S1000F2000
M3
G1 F100 S1000
G4 P0.2
G1 S0
G0
M3
G0 X10.706Y29.766
M3
G1 F100 S1000
G4 P0.25
G1 S0
G0
M3
G1 X10S1000F2000
M3
G1 F100 S1000
G4 P0.2
G1 S0
G0
M3
G0 X10Y29.288
M3
G1 F100 S1000
G4 P0.25
G1 S0
G0
M3
G1 X10.706S1000F2000
M3
G1 F100 S1000
G4 P0.2
G1 S0
G0
M3
G0 X10Y28.81
M3
G1 F100 S1000
G4 P0.25
G1 S0
G0
M3
G1 X11.411S1000F2000
M3
G1 F100 S1000
G4 P0.2
G1 S0
G0
M3
G0 X10.706Y28.372
M3
G1 F100 S1000
G4 P0.25
G1 S0
G0
M3
G1 X10S1000F2000
M3
G1 F100 S1000
G4 P0.2
G1 S0
G0
M3
G0 X10Y27.894
M3
G1 F100 S1000
G4 P0.25
G1 S0
G0
M3
G1 X10.706S1000F2000
M3
G1 F100 S1000
G4 P0.2
G1 S0
G0
M3
G0 X10.706Y27.416
M3
G1 F100 S1000
G4 P0.25
G1 S0
G0
M3
G1 X10S1000F2000
M3
G1 F100 S1000
G4 P0.2
G1 S0
G0
M3
G0 X10Y26.938
M3
G1 F100 S1000
G4 P0.25
G1 S0
G0
M3
G1 X10.706S1000F2000
M3
G1 F100 S1000
G4 P0.2
G1 S0
G0
M3
G0 X10Y26.46
M3
G1 F100 S1000
G4 P0.25
G1 S0
G0
M3
G1 X11.411S1000F2000
M3
G1 F100 S1000
G4 P0.2
G1 S0
G0
M3
G0 X10.706Y26.022
M3
G1 F100 S1000
G4 P0.25
G1 S0
G0
M3
G1 X10S1000F2000
M3
G1 F100 S1000
G4 P0.2
G1 S0
G0
M3
G0 X10Y25.544
M3
G1 F100 S1000
G4 P0.25
G1 S0
G0
M3
G1 X10.706S1000F2000
M3
G1 F100 S1000
G4 P0.2
G1 S0
G0
M3
G0 X10.706Y25.066
M3
G1 F100 S1000
G4 P0.25
G1 S0
G0
M3
G1 X10S1000F2000
M3
G1 F100 S1000
G4 P0.2
G1 S0
G0
M3
G0 X10Y24.588
M3
G1 F100 S1000
G4 P0.25
G1 S0
G0
M3
G1 X10.706S1000F2000
M3
G1 F100 S1000
G4 P0.2
G1 S0
G0
M3
G0 X10Y24.11
M3
G1 F100 S1000
G4 P0.25
G1 S0
G0
M3
G1 X11.411S1000F2000
M3
G1 F100 S1000
G4 P0.2
G1 S0
G0
M3
G0 X10.706Y23.672
M3
G1 F100 S1000
G4 P0.25
G1 S0
G0
M3
G1 X10S1000F2000
M3
G1 F100 S1000
G4 P0.2
G1 S0
G0
M3
G0 X10Y23.194
M3
G1 F100 S1000
G4 P0.25
G1 S0
G0
M3
G1 X10.706S1000F2000
M3
G1 F100 S1000
G4 P0.2
G1 S0
G0
M3
G0 X10.706Y22.717
M3
G1 F100 S1000
G4 P0.25
G1 S0
G0
M3
G1 X10S1000F2000
M3
G1 F100 S1000
G4 P0.2
G1 S0
G0
M3
G0 X10Y22.239
M3
G1 F100 S1000
G4 P0.25
G1 S0
G0
M3
G1 X10.706S1000F2000
M3
G1 F100 S1000
G4 P0.2
G1 S0
G0
M3
G0 X10Y21.761
M3
G1 F100 S1000
G4 P0.25
G1 S0
G0
M3
G1 X11.411S1000F2000
M3
G1 F100 S1000
G4 P0.2
G1 S0
G0
M3
G0 X10.706Y21.323
M3
G1 F100 S1000
G4 P0.25
G1 S0
G0
M3
G1 X10S1000F2000
M3
G1 F100 S1000
G4 P0.2
G1 S0
G0
M3
G0 X10Y21.323
M3
G1 F100 S1000
G4 P0.25
G1 S0
G0
M3
G1 X10.706S1000F2000
M3
G1 F100 S1000
G4 P0.2
G1 S0
G0
M3
G0 X10.706Y20.845
M3
G1 F100 S1000
G4 P0.25
G1 S0
G0
M3
G1 X10S1000F2000
M3
G1 F100 S1000
G4 P0.2
G1 S0
G0
M3
G0 X10Y20.845
M3
G1 F100 S1000
G4 P0.25
G1 S0
G0
M3
G1 X10.706S1000F2000
M3
G1 F100 S1000
G4 P0.2
G1 S0
G0
M3
G0 X10.706Y20.367
M3
G1 F100 S1000
G4 P0.25
G1 S0
G0
M3
G1 X10S1000F2000
M3
G1 F100 S1000
G4 P0.2
G1 S0
G0
M3
G0 X10Y20.367
M3
G1 F100 S1000
G4 P0.25
G1 S0
G0
M3
G1 X10.706S1000F2000
M3
G1 F100 S1000
G4 P0.2
G1 S0
G0
M3
G0 X10.706Y19.889
M3
G1 F100 S1000
G4 P0.25
G1 S0
G0
M3
G1 X10S1000F2000
M3
G1 F100 S1000
G4 P0.2
G1 S0
G0
M3
G0 X10Y19.889
M3
G1 F100 S1000
G4 P0.25
G1 S0
G0
M3
G1 X10.706S1000F2000
M3
G1 F100 S1000
G4 P0.2
G1 S0
G0
M3
G0 X10Y19.411
M3
G1 F100 S1000
G4 P0.25
G1 S0
G0
M3
G1 X11.411S1000F2000
M3
G1 F100 S1000
G4 P0.2
G1 S0
G0
M3
G0 X10.706Y18.973
M3
G1 F100 S1000
G4 P0.25
G1 S0
G0
M3
G1 X10S1000F2000
M3
G1 F100 S1000
G4 P0.2
G1 S0
G0
M3
G0 X10Y18.495
M3
G1 F100 S1000
G4 P0.25
G1 S0
G0
M3
G1 X10.706S1000F2000
M3
G1 F100 S1000
G4 P0.2
G1 S0
G0
M3
G0 X10.706Y18.017
M3
G1 F100 S1000
G4 P0.25
G1 S0
G0
M3
G1 X10S1000F2000
M3
G1 F100 S1000
G4 P0.2
G1 S0
G0
M3
G0 X10Y17.539
M3
G1 F100 S1000
G4 P0.25
G1 S0
G0
M3
G1 X10.706S1000F2000
M3
G1 F100 S1000
G4 P0.2
G1 S0
G0
M3
G0 X10Y17.061
M3
G1 F100 S1000
G4 P0.25
G1 S0
G0
M3
G1 X11.411S1000F2000
M3
G1 F100 S1000
G4 P0.2
G1 S0
G0
M3
G0 X10.706Y16.623
M3
G1 F100 S1000
G4 P0.25
G1 S0
G0
M3
G1 X10S1000F2000
M3
G1 F100 S1000
G4 P0.2
G1 S0
G0
M3
G0 X10Y16.145
M3
G1 F100 S1000
G4 P0.25
G1 S0
G0
M3
G1 X10.706S1000F2000
M3
G1 F100 S1000
G4 P0.2
G1 S0
G0
M3
G0 X10.706Y15.667
M3
G1 F100 S1000
G4 P0.25
G1 S0
G0
M3
G1 X10S1000F2000
M3
G1 F100 S1000
G4 P0.2
G1 S0
G0
M3
G0 X10Y15.189
M3
G1 F100 S1000
G4 P0.25
G1 S0
G0
M3
G1 X10.706S1000F2000
M3
G1 F100 S1000
G4 P0.2
G1 S0
G0
M3
G0 X10Y14.712
M3
G1 F100 S1000
G4 P0.25
G1 S0
G0
M3
G1 X11.411S1000F2000
M3
G1 F100 S1000
G4 P0.2
G1 S0
G0
M3
G0 X10.706Y14.274
M3
G1 F100 S1000
G4 P0.25
G1 S0
G0
M3
G1 X10S1000F2000
M3
G1 F100 S1000
G4 P0.2
G1 S0
G0
M3
G0 X10Y13.796
M3
G1 F100 S1000
G4 P0.25
G1 S0
G0
M3
G1 X10.706S1000F2000
M3
G1 F100 S1000
G4 P0.2
G1 S0
G0
M3
G0 X10.706Y13.318
M3
G1 F100 S1000
G4 P0.25
G1 S0
G0
M3
G1 X10S1000F2000
M3
G1 F100 S1000
G4 P0.2
G1 S0
G0
M3
G0 X10Y12.84
M3
G1 F100 S1000
G4 P0.25
G1 S0
G0
M3
G1 X10.706S1000F2000
M3
G1 F100 S1000
G4 P0.2
G1 S0
G0
M3
G0 X11.538Y12.029
M3
G1 F100 S1000
G4 P0.25
G1 S0
G0
M3
G1 X12.037Y11.53S1000F2000
M3
G1 F100 S1000
G4 P0.2
G1 S0
G0
M3
G0 X12.39Y11.423
M3
G1 F100 S1000
G4 P0.25
G1 S0
G0
M3
G1 Y10.012S1000F2000
M3
G1 F100 S1000
G4 P0.2
G1 S0
G0
M3
G0 X14.779Y10.012
M3
G1 F100 S1000
G4 P0.25
G1 S0
G0
M3
G1 Y11.423S1000F2000
M3
G1 F100 S1000
G4 P0.2
G1 S0
G0
M3
G0 X17.129Y11.423
M3
G1 F100 S1000
G4 P0.25
G1 S0
G0
M3
G1 Y10.012S1000F2000
M3
G1 F100 S1000
G4 P0.2
G1 S0
G0
M3
G0 X19.478Y10.012
M3
G1 F100 S1000
G4 P0.25
G1 S0
G0
M3
G1 Y11.423S1000F2000
M3
G1 F100 S1000
G4 P0.2
G1 S0
G0
M3
G0 X21.828Y11.423
M3
G1 F100 S1000
G4 P0.25
G1 S0
G0
M3
G1 Y10.012S1000F2000
M3
G1 F100 S1000
G4 P0.2
G1 S0
G0
M3
G0 X24.178Y10.012
M3
G1 F100 S1000
G4 P0.25
G1 S0
G0
M3
G1 Y11.423S1000F2000
M3
G1 F100 S1000
G4 P0.2
G1 S0
G0
M3
G0 X26.528Y11.423
M3
G1 F100 S1000
G4 P0.25
G1 S0
G0
M3
G1 Y10.012S1000F2000
M3
G1 F100 S1000
G4 P0.2
G1 S0
G0
M3
G0 X28.877Y10.012
M3
G1 F100 S1000
G4 P0.25
G1 S0
G0
M3
G1 Y11.423S1000F2000
M3
G1 F100 S1000
G4 P0.2
G1 S0
G0
M3
G0 X31.227Y11.423
M3
G1 F100 S1000
G4 P0.25
G1 S0
G0
M3
G1 Y10.012S1000F2000
M3
G1 F100 S1000
G4 P0.2
G1 S0
G0
M3
G0 X29.249Y48.292
M3
G1 F100 S1000
G4 P0.25
G1 S0
G0
M3
G1 X28.889S1000F2000
G1 X28.925Y48.663
G1 X29.021Y49.104
G1 X29.175Y49.572
G1 X29.384Y50.023
G1 X29.628Y50.431
G1 X29.887Y50.769
G1 X28.49
G1 Y51.105
G1 X30.336
G1 Y50.833
G1 X30.065Y50.496
G1 X29.796Y50.063
G1 X29.559Y49.576
G1 X29.383Y49.075
G1 X29.297Y48.7
G1 X29.249Y48.292
M3
G1 F100 S1000
G4 P0.2
G1 S0
G0
M3
G0 X27.656Y48.807
M3
G1 F100 S1000
G4 P0.25
G1 S0
G0
M3
G1 X27.706Y48.921S1000F2000
G1 X27.736Y49.05
G1 Y49.196
G1 Y49.336
G1 X27.707Y49.46
G1 X27.657Y49.569
G1 X27.588Y49.662
G1 X27.505Y49.736
G1 X27.41Y49.789
G1 X27.306Y49.821
G1 X27.192Y49.832
G1 X27.078Y49.821
G1 X26.972Y49.789
G1 X26.876Y49.736
G1 X26.789Y49.662
G1 X26.717Y49.57
G1 X26.665Y49.465
G1 X26.634Y49.347
G1 X26.624Y49.215
G1 X26.643Y49.038
G1 X26.701Y48.869
G1 X26.793Y48.724
G1 X26.916Y48.617
G1 X27.057Y48.552
G1 X27.205Y48.531
G1 X27.312Y48.542
G1 X27.411Y48.576
G1 X27.503Y48.631
G1 X27.586Y48.71
G1 X27.656Y48.807
M3
G1 F100 S1000
G4 P0.2
G1 S0
G0
M3
G0 X27.988Y48.718
M3
G1 F100 S1000
G4 P0.25
G1 S0
G0
M3
G1 X27.851Y48.515S1000F2000
G1 X27.67Y48.366
G1 X27.454Y48.274
G1 X27.211Y48.243
G1 X27.002Y48.263
G1 X26.814Y48.323
G1 X26.646Y48.424
G1 X26.498Y48.565
G1 X26.377Y48.752
G1 X26.29Y48.991
G1 X26.239Y49.282
G1 X26.221Y49.626
G1 X26.24Y50.011
G1 X26.298Y50.339
G1 X26.393Y50.612
G1 X26.527Y50.827
G1 X26.671Y50.97
G1 X26.839Y51.072
G1 X27.03Y51.134
G1 X27.244Y51.154
G1 X27.405Y51.142
G1 X27.55Y51.107
G1 X27.68Y51.048
G1 X27.796Y50.965
G1 X27.892Y50.862
G1 X27.967Y50.741
G1 X28.021Y50.602
G1 X28.053Y50.444
G1 X27.705Y50.417
G1 X27.649Y50.595
G1 X27.573Y50.717
G1 X27.498Y50.782
G1 X27.414Y50.829
G1 X27.323Y50.857
G1 X27.223
G1 X27.066Y50.843
G1 X26.929Y50.773
G1 X26.781Y50.625
G1 X26.669Y50.421
G1 X26.627Y50.293
G1 X26.596Y50.14
G1 X26.577Y49.963
G1 Y49.762
G1 X26.71Y49.929
G1 X26.879Y50.048
G1 X27.066Y50.118
G1 X27.262Y50.141
G1 X27.43Y50.125
G1 X27.586Y50.077
G1 X27.728Y49.996
G1 X27.858Y49.883
G1 X27.965Y49.745
G1 X28.042Y49.588
G1 X28.088Y49.412
G1 X28.104Y49.217
G1 X28.075Y48.958
G1 X27.988Y48.718
M3
G1 F100 S1000
G4 P0.2
G1 S0
G0
M3
G0 X25.84Y48.897
M3
G1 F100 S1000
G4 P0.25
G1 S0
G0
M3
G1 X25.77Y48.737S1000F2000
G1 X25.671Y48.589
G1 X25.522Y48.438
G1 X25.347Y48.33
G1 X25.147Y48.265
G1 X24.923Y48.243
G1 X24.737Y48.257
G1 X24.569Y48.297
G1 X24.42Y48.366
G1 X24.288Y48.461
G1 X24.178Y48.579
G1 X24.094Y48.714
G1 X24.037Y48.867
G1 X24.007Y49.038
G1 X24.374Y49.069
G1 X24.401Y48.944
G1 X24.442Y48.834
G1 X24.496Y48.742
G1 X24.564Y48.666
G1 X24.728Y48.565
G1 X24.923Y48.531
G1 X25.044Y48.543
G1 X25.156Y48.578
G1 X25.258Y48.638
G1 X25.35Y48.721
G1 X25.427Y48.824
G1 X25.482Y48.943
G1 X25.515Y49.077
G1 X25.525Y49.227
G1 X25.515Y49.369
G1 X25.483Y49.495
G1 X25.431Y49.605
G1 X25.357Y49.7
G1 X25.267Y49.775
G1 X25.163Y49.829
G1 X25.046Y49.862
G1 X24.917Y49.873
G1 X24.756Y49.853
G1 X24.611Y49.796
G1 X24.49Y49.708
G1 X24.398Y49.596
G1 X24.069Y49.639
G1 X24.345Y51.104
G1 X25.763
G1 Y50.769
G1 X24.625
G1 X24.471Y50.003
G1 X24.601Y50.081
G1 X24.734Y50.137
G1 X24.871Y50.171
G1 X25.01Y50.182
G1 X25.19Y50.166
G1 X25.354Y50.117
G1 X25.505Y50.036
G1 X25.64Y49.923
G1 X25.752Y49.785
G1 X25.833Y49.628
G1 X25.881Y49.452
G1 X25.897Y49.258
G1 X25.883Y49.071
G1 X25.84Y48.897
M3
G1 F100 S1000
G4 P0.2
G1 S0
G0
M3
G0 X22.899Y49.295
M3
G1 F100 S1000
G4 P0.25
G1 S0
G0
M3
G1 Y50.58S1000F2000
G1 X22.006Y49.295
G1 X22.899
M3
G1 F100 S1000
G4 P0.2
G1 S0
G0
M3
G0 X23.249Y49.295
M3
G1 F100 S1000
G4 P0.25
G1 S0
G0
M3
G1 X23.634S1000F2000
G1 Y48.974
G1 X23.249
G1 Y48.292
G1 X22.899
G1 Y48.974
G1 X21.662
G1 Y49.295
G1 X22.963Y51.142
G1 X23.249
G1 Y49.295
M3
G1 F100 S1000
G4 P0.2
G1 S0
G0
M3
G0 X21.406Y49.266
M3
G1 F100 S1000
G4 P0.25
G1 S0
G0
M3
G1 Y49.134S1000F2000
G1 Y48.954
G1 X21.347Y48.789
G1 X21.262Y48.638
G1 X21.143Y48.501
G1 X20.998Y48.387
G1 X20.835Y48.306
G1 X20.653Y48.257
G1 X20.454Y48.241
G1 X20.275Y48.255
G1 X20.111Y48.297
G1 X19.963Y48.367
G1 X19.831Y48.465
G1 X19.72Y48.585
G1 X19.636Y48.721
G1 X19.579Y48.875
G1 X19.548Y49.044
G1 X19.898Y49.091
G1 X19.98Y48.835
G1 X20.103Y48.662
G1 X20.264Y48.564
G1 X20.456Y48.531
G1 X20.575Y48.542
G1 X20.684Y48.574
G1 X20.784Y48.627
G1 X20.873Y48.702
G1 X20.948Y48.793
G1 X21.001Y48.893
G1 X21.033Y49.005
G1 X21.044Y49.126
G1 X21.034Y49.241
G1 X21.004Y49.346
G1 X20.955Y49.44
G1 X20.886Y49.524
G1 X20.802Y49.592
G1 X20.707Y49.641
G1 X20.602Y49.67
G1 X20.486Y49.68
G1 X20.374
G1 X20.239Y49.641
G1 X20.277Y49.948
G1 X20.334
G1 X20.546Y49.974
G1 X20.736Y50.061
G1 X20.815Y50.127
G1 X20.871Y50.209
G1 X20.904Y50.307
G1 X20.915Y50.421
G1 X20.883Y50.597
G1 X20.785Y50.74
G1 X20.636Y50.835
G1 X20.449Y50.866
G1 X20.261Y50.834
G1 X20.108Y50.738
G1 X19.996Y50.577
G1 X19.933Y50.353
G1 X19.583Y50.415
G1 X19.626Y50.581
G1 X19.688Y50.727
G1 X19.771Y50.854
G1 X19.875Y50.961
G1 X19.996Y51.045
G1 X20.13Y51.106
G1 X20.279Y51.142
G1 X20.441Y51.154
G1 X20.665Y51.129
G1 X20.871Y51.054
G1 X21.044Y50.936
G1 X21.171Y50.781
G1 X21.249Y50.602
G1 X21.275Y50.413
G1 X21.25Y50.237
G1 X21.176Y50.077
G1 X21.053Y49.941
G1 X20.882Y49.836
G1 X21.002Y49.799
G1 X21.107Y49.746
G1 X21.198Y49.678
G1 X21.275Y49.594
G1 X21.336Y49.496
G1 X21.38Y49.387
G1 X21.406Y49.266
M3
G1 F100 S1000
G4 P0.2
G1 S0
G0
M3
G0 X20.505Y52.653
M3
G1 F100 S1000
G4 P0.25
G1 S0
G0
M3
G1 X20.674Y52.72S1000F2000
G1 X20.811Y52.824
G1 X20.906Y52.962
G1 X20.948Y53.109
G1 X20.962Y53.312
G1 Y53.44
G1 X20.724Y53.368
G1 X20.206Y53.275
G1 X20.085Y53.238
G1 X20.006Y53.19
G1 X19.947Y53.124
G1 X19.91Y53.045
G1 X19.898Y52.958
G1 X19.925Y52.83
G1 X20.004Y52.725
G1 X20.135Y52.655
G1 X20.314Y52.631
G1 X20.505Y52.653
M3
G1 F100 S1000
G4 P0.2
G1 S0
G0
M3
G0 X20.8Y52.517
M3
G1 F100 S1000
G4 P0.25
G1 S0
G0
M3
G1 X20.617Y52.425S1000F2000
G1 X20.43Y52.374
G1 X20.231Y52.357
G1 X20.07Y52.367
G1 X19.93Y52.399
G1 X19.809Y52.451
G1 X19.708Y52.523
G1 X19.628Y52.612
G1 X19.571Y52.713
G1 X19.536Y52.825
G1 X19.525Y52.948
G1 X19.542Y53.093
G1 X19.594Y53.225
G1 X19.674Y53.338
G1 X19.775Y53.427
G1 X19.894Y53.493
G1 X20.027Y53.541
G1 X20.156Y53.568
G1 X20.536Y53.62
G1 X20.706Y53.649
G1 X20.848Y53.681
G1 X20.962Y53.714
G1 Y53.806
G1 X20.939Y53.988
G1 X20.865Y54.107
G1 X20.789Y54.159
G1 X20.698Y54.196
G1 X20.59Y54.218
G1 X20.466
G1 X20.251Y54.204
G1 X20.101Y54.139
G1 X19.999Y54.019
G1 X19.927Y53.833
G1 X19.585Y53.88
G1 X19.647Y54.078
G1 X19.739Y54.235
G1 X19.87Y54.354
G1 X20.048Y54.443
G1 X20.266Y54.497
G1 X20.517Y54.516
G1 X20.756Y54.5
G1 X20.946Y54.453
G1 X21.09Y54.383
G1 X21.189Y54.297
G1 X21.256Y54.19
G1 X21.298Y54.059
G1 X21.311Y53.933
G1 Y53.736
G1 Y53.047
G1 X21.321Y52.871
G1 Y52.739
G1 X21.338Y52.652
G1 X21.372Y52.525
G1 X21.427Y52.404
G1 X21.061
G1 X21.016Y52.522
G1 X20.991Y52.658
G1 X20.8Y52.517
M3
G1 F100 S1000
G4 P0.2
G1 S0
G0
M3
G0 X22.294Y52.915
M3
G1 F100 S1000
G4 P0.25
G1 S0
G0
M3
G1 X22.384Y52.797S1000F2000
G1 X22.488Y52.712
G1 X22.607Y52.662
G1 X22.741Y52.645
G1 X22.852Y52.657
G1 X22.955Y52.695
G1 X23.05Y52.757
G1 X23.138Y52.844
G1 X23.211Y52.956
G1 X23.263Y53.092
G1 X23.294Y53.253
G1 X23.305Y53.438
G1 X23.295Y53.627
G1 X23.265Y53.79
G1 X23.215Y53.926
G1 X23.145Y54.035
G1 X23.06Y54.119
G1 X22.967Y54.18
G1 X22.866Y54.216
G1 X22.757Y54.228
G1 X22.646Y54.215
G1 X22.543Y54.178
G1 X22.447Y54.116
G1 X22.36Y54.028
G1 X22.287Y53.918
G1 X22.234Y53.785
G1 X22.203Y53.629
G1 X22.193Y53.452
G1 Y53.279
G1 X22.218Y53.132
G1 X22.25Y53.011
G1 X22.294Y52.915
M3
G1 F100 S1000
G4 P0.2
G1 S0
G0
M3
G0 X22.197Y52.662
M3
G1 F100 S1000
G4 P0.25
G1 S0
G0
M3
G1 Y52.404S1000F2000
G1 X21.872
G1 Y55.254
G1 X22.222
G1 Y54.237
G1 X22.34Y54.359
G1 X22.474Y54.446
G1 X22.623Y54.498
G1 X22.788Y54.516
G1 X22.973Y54.496
G1 X23.148Y54.439
G1 X23.303Y54.346
G1 X23.428Y54.223
G1 X23.526Y54.069
G1 X23.601Y53.887
G1 X23.647Y53.684
G1 X23.663Y53.467
G1 X23.646Y53.217
G1 X23.597Y52.997
G1 X23.515Y52.807
G1 X23.4Y52.647
G1 X23.262Y52.52
G1 X23.111Y52.429
G1 X22.947Y52.375
G1 X22.77Y52.357
G1 X22.597Y52.376
G1 X22.444Y52.433
G1 X22.31Y52.529
G1 X22.197Y52.662
M3
G1 F100 S1000
G4 P0.2
G1 S0
G0
M3
G0 X24.061Y52.971
M3
G1 F100 S1000
G4 P0.25
G1 S0
G0
M3
G1 X24.013Y53.185S1000F2000
G1 X23.997Y53.429
G1 X24.025Y53.742
G1 X24.108Y54.014
G1 X24.17Y54.131
G1 X24.248Y54.233
G1 X24.339Y54.32
G1 X24.445Y54.39
G1 X24.682Y54.484
G1 X24.938Y54.516
G1 X25.099Y54.505
G1 X25.244Y54.473
G1 X25.374Y54.42
G1 X25.488Y54.345
G1 X25.586Y54.251
G1 X25.664Y54.14
G1 X25.723Y54.01
G1 X25.763Y53.862
G1 X25.422Y53.81
G1 X25.355Y53.992
G1 X25.25Y54.123
G1 X25.114Y54.201
G1 X24.952Y54.228
G1 X24.826Y54.216
G1 X24.712Y54.18
G1 X24.611Y54.121
G1 X24.522Y54.038
G1 X24.45Y53.93
G1 X24.398Y53.793
G1 X24.367Y53.63
G1 X24.357Y53.438
G1 Y53.244
G1 X24.397Y53.079
G1 X24.446Y52.942
G1 X24.516Y52.833
G1 X24.602Y52.751
G1 X24.7Y52.692
G1 X24.81Y52.657
G1 X24.932Y52.645
G1 X25.121Y52.676
G1 X25.277Y52.771
G1 X25.389Y52.932
G1 X25.452Y53.16
G1 X25.796Y53.115
G1 X25.757Y52.947
G1 X25.695Y52.798
G1 X25.612Y52.669
G1 X25.507Y52.558
G1 X25.384Y52.47
G1 X25.248Y52.407
G1 X25.099Y52.37
G1 X24.936Y52.357
G1 X24.735Y52.374
G1 X24.554Y52.426
G1 X24.394Y52.513
G1 X24.255Y52.634
G1 X24.142Y52.788
G1 X24.061Y52.971
M3
G1 F100 S1000
G4 P0.2
G1 S0
G0
M3
G0 X26.339Y53.249
M3
G1 F100 S1000
G4 P0.25
G1 S0
G0
M3
G1 X26.37Y53.088S1000F2000
G1 X26.423Y52.952
G1 X26.496Y52.841
G1 X26.583Y52.755
G1 X26.678Y52.694
G1 X26.781Y52.657
G1 X26.891Y52.645
G1 X27.001Y52.657
G1 X27.103Y52.692
G1 X27.196Y52.75
G1 X27.28Y52.832
G1 X27.351Y52.939
G1 X27.401Y53.069
G1 X27.431Y53.225
G1 Y53.405
G1 Y53.603
G1 X27.4Y53.773
G1 X27.349Y53.914
G1 X27.278Y54.027
G1 X27.191Y54.114
G1 X27.095Y54.176
G1 X26.99Y54.213
G1 X26.875Y54.226
G1 X26.763Y54.214
G1 X26.661Y54.178
G1 X26.568Y54.119
G1 X26.485Y54.035
G1 X26.417Y53.926
G1 X26.368Y53.79
G1 X26.338Y53.626
G1 Y53.434
G1 Y53.249
M3
G1 F100 S1000
G4 P0.2
G1 S0
G0
M3
G0 X25.997Y53.136
M3
G1 F100 S1000
G4 P0.25
G1 S0
G0
M3
G1 X25.969Y53.434S1000F2000
G1 X25.995Y53.729
G1 X26.072Y53.995
G1 X26.13Y54.114
G1 X26.201Y54.218
G1 X26.284Y54.307
G1 X26.381Y54.381
G1 X26.599Y54.482
G1 X26.842Y54.516
G1 X27.018Y54.496
G1 X27.174Y54.437
G1 X27.307Y54.346
G1 X27.412Y54.232
G1 Y55.254
G1 X27.76
G1 Y52.404
G1 X27.435
G1 Y52.664
G1 X27.325Y52.53
G1 X27.192Y52.434
G1 X27.037Y52.376
G1 X26.857Y52.357
G1 X26.62Y52.391
G1 X26.403Y52.493
G1 X26.22Y52.656
G1 X26.083Y52.873
G1 X25.997Y53.136
M3
G1 F100 S1000
G4 P0.2
G1 S0
G0
M3
G0 X28.59Y53.635
M3
G1 F100 S1000
G4 P0.25
G1 S0
G0
M3
G1 X29.743S1000F2000
G1 X29.698Y53.863
G1 X29.611Y54.025
G1 X29.521Y54.114
G1 X29.419Y54.177
G1 X29.304Y54.215
G1 X29.177Y54.228
G1 X29.061Y54.218
G1 X28.955Y54.187
G1 X28.859Y54.137
G1 X28.772Y54.066
G1 X28.699Y53.979
G1 X28.644Y53.878
G1 X28.608Y53.763
G1 X28.59Y53.635
M3
G1 F100 S1000
G4 P0.2
G1 S0
G0
M3
G0 X28.226Y53.665
M3
G1 F100 S1000
G4 P0.25
G1 S0
G0
M3
G1 X28.276Y53.882S1000F2000
G1 X28.36Y54.069
G1 X28.477Y54.228
G1 X28.621Y54.354
G1 X28.785Y54.444
G1 X28.969Y54.498
G1 X29.173Y54.516
G1 X29.371Y54.498
G1 X29.55Y54.445
G1 X29.709Y54.357
G1 X29.85Y54.234
G1 X29.965Y54.078
G1 X30.047Y53.894
G1 X30.096Y53.682
G1 X30.113Y53.44
G1 Y53.347
G1 X28.57
G1 X28.59Y53.187
G1 X28.628Y53.046
G1 X28.686Y52.926
G1 X28.763Y52.826
G1 X28.855Y52.747
G1 X28.957Y52.69
G1 X29.071Y52.656
G1 X29.195Y52.645
G1 X29.373Y52.67
G1 X29.523Y52.746
G1 X29.645Y52.877
G1 X29.739Y53.069
G1 X30.101Y53.024
G1 X30.049Y52.874
G1 X29.979Y52.743
G1 X29.89Y52.628
G1 X29.784Y52.532
G1 X29.66Y52.455
G1 X29.52Y52.401
G1 X29.365Y52.368
G1 X29.193Y52.357
G1 X28.978Y52.374
G1 X28.787Y52.427
G1 X28.619Y52.514
G1 X28.474Y52.636
G1 X28.358Y52.79
G1 X28.275Y52.971
G1 X28.225Y53.181
G1 X28.209Y53.419
G1 X28.226Y53.665
M3
G1 F100 S1000
G4 P0.2
G1 S0
G0
M3
G0 X30.33Y54.197
M3
G1 F100 S1000
G4 P0.25
G1 S0
G0
M3
G1 Y54.469S1000F2000
G1 X30.639
G1 Y54.689
G1 Y54.87
G1 X30.676Y54.998
G1 X30.746Y55.121
G1 X30.854Y55.219
G1 X31.007Y55.282
G1 X31.211Y55.303
G1 X31.367
G1 X31.538Y55.268
G1 X31.485Y54.963
G1 X31.379Y54.977
G1 X31.279
G1 X31.143Y54.965
G1 X31.053Y54.914
G1 X31.004Y54.816
G1 X30.987Y54.659
G1 Y54.469
G1 X31.39
G1 Y54.197
G1 X30.987
G1 Y52.404
G1 X30.639
G1 Y54.197
G1 X30.33
M3
G1 F100 S1000
G4 P0.2
G1 S0
G0
M3
G0 X32.028Y53.93
M3
G1 F100 S1000
G4 P0.25
G1 S0
G0
M3
G1 X31.977Y53.801S1000F2000
G1 X31.946Y53.648
G1 Y53.473
G1 Y53.284
G1 X31.977Y53.122
G1 X32.027Y52.987
G1 X32.098Y52.88
G1 X32.183Y52.798
G1 X32.279Y52.74
G1 X32.386Y52.705
G1 X32.502Y52.693
G1 X32.618Y52.705
G1 X32.724Y52.74
G1 X32.82Y52.798
G1 X32.907Y52.879
G1 X32.978Y52.985
G1 X33.029Y53.118
G1 X33.06Y53.276
G1 Y53.462
G1 Y53.639
G1 X33.028Y53.794
G1 X32.975Y53.925
G1 X32.902Y54.033
G1 X32.813Y54.118
G1 X32.716Y54.178
G1 X32.611Y54.214
G1 X32.496Y54.226
G1 X32.384Y54.214
G1 X32.28Y54.178
G1 X32.186Y54.119
G1 X32.1Y54.036
G1 X32.028Y53.93
M3
G1 F100 S1000
G4 P0.2
G1 S0
G0
M3
G0 X31.683Y53.993
M3
G1 F100 S1000
G4 P0.25
G1 S0
G0
M3
G1 X31.814Y54.215S1000F2000
G1 X31.994Y54.379
G1 X32.1Y54.439
G1 X32.214Y54.482
G1 X32.338Y54.507
G1 X32.471
G1 X32.646
G1 X32.804Y54.442
G1 X32.947Y54.349
G1 X33.074Y54.22
G1 Y54.469
G1 X33.397
G1 Y52.684
G1 Y52.46
G1 X33.372Y52.272
G1 X33.341Y52.118
G1 X33.298Y52
G1 X33.171Y51.82
G1 X32.987Y51.682
G1 X32.75Y51.595
G1 X32.463Y51.566
G1 X32.287
G1 X32.129Y51.607
G1 X31.989Y51.659
G1 X31.866Y51.732
G1 X31.767Y51.825
G1 X31.697Y51.94
G1 X31.657Y52.076
G1 X31.646Y52.233
G1 X31.987Y52.182
G1 X32.027Y52.046
G1 X32.105Y51.953
G1 X32.259Y51.88
G1 X32.461Y51.855
G1 X32.677Y51.88
G1 X32.837Y51.953
G1 X32.947Y52.069
G1 X33.015Y52.225
G1 X33.027Y52.293
G1 Y52.391
G1 X33.04Y52.518
G1 Y52.674
G1 X32.919Y52.556
G1 X32.783Y52.471
G1 X32.633Y52.421
G1 X32.469Y52.404
G1 X32.268Y52.423
G1 X32.091Y52.481
G1 X31.938Y52.577
G1 X31.81Y52.711
G1 X31.708Y52.872
G1 X31.635Y53.049
G1 X31.591Y53.241
G1 X31.576Y53.448
G1 X31.603Y53.732
G1 X31.683Y53.993
M3
G1 F100 S1000
G4 P0.2
G1 S0
G0
M3
G0 X34.251Y54.232
M3
G1 F100 S1000
G4 P0.25
G1 S0
G0
M3
G1 X34.382Y54.356S1000F2000
G1 X34.528Y54.445
G1 X34.691Y54.498
G1 X34.869Y54.516
G1 X35.084Y54.493
G1 X35.268Y54.425
G1 X35.413Y54.317
G1 X35.51Y54.175
G1 X35.565Y53.98
G1 X35.583Y53.712
G1 Y52.404
G1 X35.233
G1 Y53.712
G1 X35.205Y53.939
G1 X35.119Y54.095
G1 X34.982Y54.184
G1 X34.797Y54.214
G1 X34.646Y54.194
G1 X34.505Y54.133
G1 X34.387Y54.038
G1 X34.309Y53.915
G1 X34.266Y53.75
G1 X34.251Y53.534
G1 Y52.404
G1 X33.901
G1 Y55.254
G1 X34.251
G1 Y54.232
M3
G1 F100 S1000
G4 P0.2
G1 S0
G0
M3
G0 X36.133Y54.469
M3
G1 F100 S1000
G4 P0.25
G1 S0
G0
M3
G1 X36.483S1000F2000
G1 Y52.404
G1 X36.133
G1 Y54.469
M3
G1 F100 S1000
G4 P0.2
G1 S0
G0
M3
G0 X36.133Y54.852
M3
G1 F100 S1000
G4 P0.25
G1 S0
G0
M3
G1 Y55.254S1000F2000
G1 X36.483
G1 Y54.852
G1 X36.133
M3
G1 F100 S1000
G4 P0.2
G1 S0
G0
M3
G0 X37.059Y54.848
M3
G1 F100 S1000
G4 P0.25
G1 S0
G0
M3
G1 Y55.254S1000F2000
G1 X37.409
G1 Y54.848
G1 X37.059
M3
G1 F100 S1000
G4 P0.2
G1 S0
G0
M3
G0 X37.059Y54.469
M3
G1 F100 S1000
G4 P0.25
G1 S0
G0
M3
G1 X37.409S1000F2000
G1 Y52.291
G1 Y52.115
G1 X37.384Y51.968
G1 X37.353Y51.849
G1 X37.31Y51.76
G1 X37.236Y51.675
G1 X37.141Y51.614
G1 X37.026Y51.578
G1 X36.89Y51.566
G1 X36.75
G1 X36.615Y51.603
G1 X36.682Y51.9
G1 X36.775Y51.88
G1 X36.847
G1 X36.94Y51.891
G1 X37.006Y51.944
G1 X37.029Y51.993
G1 X37.046Y52.068
G1 Y52.17
G1 X37.059Y52.299
G1 Y54.469
M3
G1 F100 S1000
G4 P0.2
G1 S0
G0
M3
G0 X37.885Y55.254
M3
G1 F100 S1000
G4 P0.25
G1 S0
G0
M3
G1 X38.236S1000F2000
G1 Y53.629
G1 X39.064Y54.469
G1 X39.517
G1 X38.727Y53.703
G1 X39.597Y52.404
G1 X39.165
G1 X38.482Y53.46
G1 X38.236Y53.222
G1 Y52.404
G1 X37.885
G1 Y55.254
M3
G1 F100 S1000
G4 P0.2
G1 S0
G0
M3
G0 X39.867Y55.254
M3
G1 F100 S1000
G4 P0.25
G1 S0
G0
M3
G1 X40.217S1000F2000
G1 Y52.404
G1 X39.867
G1 Y55.254
M3
G1 F100 S1000
G4 P0.2
G1 S0
G0
M3
G0 X40.751Y54.469
M3
G1 F100 S1000
G4 P0.25
G1 S0
G0
M3
G1 X41.064S1000F2000
G1 Y54.179
G1 X41.177Y54.316
G1 X41.323Y54.423
G1 X41.495Y54.492
G1 X41.69Y54.516
G1 X41.899Y54.492
G1 X42.066Y54.42
G1 X42.192Y54.306
G1 X42.274Y54.154
G1 X42.405Y54.312
G1 X42.556Y54.425
G1 X42.724Y54.493
G1 X42.911Y54.516
G1 X43.056Y54.505
G1 X43.183Y54.473
G1 X43.292Y54.42
G1 X43.384Y54.345
G1 X43.456Y54.249
G1 X43.508Y54.129
G1 X43.539Y53.987
G1 X43.549Y53.821
G1 Y52.404
G1 X43.201
G1 Y53.705
G1 Y53.885
G1 X43.167Y54.007
G1 X43.119Y54.09
G1 X43.044Y54.156
G1 X42.946Y54.198
G1 X42.834Y54.212
G1 X42.729
G1 X42.634Y54.176
G1 X42.549Y54.131
G1 X42.472Y54.067
G1 X42.409Y53.984
G1 X42.364Y53.879
G1 X42.337Y53.752
G1 Y53.604
G1 Y52.404
G1 X41.978
G1 Y53.745
G1 X41.957Y53.95
G1 X41.892Y54.096
G1 X41.78Y54.183
G1 X41.612Y54.212
G1 X41.47Y54.193
G1 X41.339Y54.134
G1 X41.231Y54.039
G1 X41.157Y53.907
G1 X41.115Y53.724
G1 X41.101Y53.475
G1 Y52.404
G1 X40.751
G1 Y54.469
M3
G1 F100 S1000
G4 P0.2
G1 S0
G0
M3
G0 X44.096Y54.469
M3
G1 F100 S1000
G4 P0.25
G1 S0
G0
M3
G1 X44.411S1000F2000
G1 Y54.175
G1 X44.538Y54.324
G1 X44.689Y54.43
G1 X44.866Y54.494
G1 X45.069Y54.516
G1 X45.248Y54.499
G1 X45.412Y54.448
G1 X45.549Y54.371
G1 X45.646Y54.272
G1 X45.712Y54.153
G1 X45.755Y54.014
G1 X45.77Y53.88
G1 Y53.674
G1 Y52.404
G1 X45.424
G1 Y53.66
G1 Y53.847
G1 X45.384Y53.98
G1 X45.327Y54.075
G1 X45.239Y54.149
G1 X45.126Y54.196
G1 X44.995Y54.212
G1 X44.887
G1 X44.786Y54.177
G1 X44.694Y54.132
G1 X44.609Y54.07
G1 X44.538Y53.983
G1 X44.487Y53.865
G1 X44.456Y53.714
G1 Y53.532
G1 Y52.404
G1 X44.096
G1 Y54.469
M3
G1 F100 S1000
G4 P0.2
G1 S0
G0
M3
G0 X46.653Y53.919
M3
G1 F100 S1000
G4 P0.25
G1 S0
G0
M3
G1 X46.599Y53.783S1000F2000
G1 X46.567Y53.622
G1 X46.556Y53.436
G1 X46.567Y53.25
G1 X46.599Y53.089
G1 X46.653Y52.953
G1 X46.729Y52.842
G1 X46.821Y52.756
G1 X46.924Y52.694
G1 X47.039Y52.657
G1 X47.165Y52.645
G1 X47.289Y52.657
G1 X47.403Y52.694
G1 X47.506Y52.756
G1 X47.598Y52.843
G1 X47.674Y52.955
G1 X47.728Y53.094
G1 X47.761Y53.258
G1 X47.771Y53.448
G1 X47.76Y53.628
G1 X47.728Y53.785
G1 X47.673Y53.918
G1 X47.597Y54.028
G1 X47.505Y54.115
G1 X47.402Y54.176
G1 X47.289Y54.213
G1 X47.165Y54.226
G1 X47.039Y54.214
G1 X46.924Y54.177
G1 X46.821Y54.115
G1 X46.729Y54.029
G1 X46.653Y53.919
M3
G1 F100 S1000
G4 P0.2
G1 S0
G0
M3
G0 X46.276Y53.936
M3
G1 F100 S1000
G4 P0.25
G1 S0
G0
M3
G1 X46.376Y54.129S1000F2000
G1 X46.515Y54.286
G1 X46.656Y54.386
G1 X46.811Y54.458
G1 X46.98Y54.501
G1 X47.165Y54.516
G1 X47.368Y54.498
G1 X47.552Y54.446
G1 X47.716Y54.359
G1 X47.861Y54.236
G1 X47.979Y54.084
G1 X48.064Y53.904
G1 X48.114Y53.698
G1 X48.131Y53.465
G1 Y53.277
G1 X48.101Y53.109
G1 X48.064Y52.963
G1 X48.012Y52.838
G1 X47.865Y52.635
G1 X47.663Y52.483
G1 X47.424Y52.389
G1 X47.165Y52.357
G1 X46.958Y52.374
G1 X46.773Y52.427
G1 X46.608Y52.513
G1 X46.464Y52.635
G1 X46.347Y52.789
G1 X46.263Y52.974
G1 X46.213Y53.19
G1 X46.196Y53.436
G1 X46.216Y53.705
G1 X46.276Y53.936
M3
G1 F100 S1000
G4 P0.2
G1 S0
G0
M3
G0 X48.917Y53.776
M3
G1 F100 S1000
G4 P0.25
G1 S0
G0
M3
G1 X48.884Y53.612S1000F2000
G1 X48.874Y53.425
G1 Y53.238
G1 X48.914Y53.078
G1 X48.964Y52.944
G1 X49.035Y52.835
G1 X49.12Y52.752
G1 X49.214Y52.692
G1 X49.315Y52.657
G1 X49.426Y52.645
G1 X49.538Y52.657
G1 X49.643Y52.694
G1 X49.738Y52.756
G1 X49.826Y52.842
G1 X49.898Y52.954
G1 X49.95Y53.094
G1 X49.981Y53.26
G1 X49.992Y53.454
G1 X49.982Y53.639
G1 X49.951Y53.799
G1 X49.901Y53.934
G1 X49.829Y54.045
G1 X49.744Y54.131
G1 X49.651Y54.192
G1 X49.55Y54.229
G1 X49.442Y54.241
G1 X49.333Y54.228
G1 X49.231Y54.189
G1 X49.135Y54.124
G1 X49.046Y54.032
G1 X48.971Y53.916
G1 X48.917Y53.776
M3
G1 F100 S1000
G4 P0.2
G1 S0
G0
M3
G0 X48.876Y54.201
M3
G1 F100 S1000
G4 P0.25
G1 S0
G0
M3
G1 X48.996Y54.338S1000F2000
G1 X49.13Y54.437
G1 X49.287Y54.496
G1 X49.475Y54.516
G1 X49.723Y54.482
G1 X49.941Y54.379
G1 X50.119Y54.215
G1 X50.247Y53.995
G1 X50.324Y53.736
G1 X50.35Y53.452
G1 X50.321Y53.151
G1 X50.236Y52.881
G1 X50.173Y52.762
G1 X50.096Y52.657
G1 X50.007Y52.567
G1 X49.905Y52.492
G1 X49.683Y52.391
G1 X49.449Y52.357
G1 X49.283Y52.376
G1 X49.135Y52.431
G1 X49.009Y52.515
G1 X48.907Y52.618
G1 Y51.612
G1 X48.557
G1 Y54.469
G1 X48.876
G1 Y54.201
M3
G1 F100 S1000
G4 P0.2
G1 S0
G0
M3
G0 X51.064Y53.798
M3
G1 F100 S1000
G4 P0.25
G1 S0
G0
M3
G1 X51.034Y53.634S1000F2000
G1 Y53.442
G1 Y53.255
G1 X51.066Y53.093
G1 X51.118Y52.956
G1 X51.191Y52.844
G1 X51.279Y52.757
G1 X51.375Y52.695
G1 X51.479Y52.657
G1 X51.592Y52.645
G1 X51.7Y52.657
G1 X51.8Y52.692
G1 X51.892Y52.751
G1 X51.977Y52.834
G1 X52.048Y52.942
G1 X52.098Y53.073
G1 X52.128Y53.23
G1 X52.138Y53.411
G1 X52.128Y53.604
G1 X52.096Y53.772
G1 X52.043Y53.915
G1 X51.968Y54.031
G1 X51.88Y54.122
G1 X51.783Y54.187
G1 X51.68Y54.226
G1 X51.569Y54.239
G1 X51.459Y54.227
G1 X51.358Y54.191
G1 X51.266Y54.131
G1 X51.183Y54.046
G1 X51.113Y53.936
G1 X51.064Y53.798
M3
G1 F100 S1000
G4 P0.2
G1 S0
G0
M3
G0 X50.691Y53.751
M3
G1 F100 S1000
G4 P0.25
G1 S0
G0
M3
G1 X50.772Y54.014S1000F2000
G1 X50.832Y54.13
G1 X50.905Y54.231
G1 X50.989Y54.317
G1 X51.085Y54.388
G1 X51.301Y54.484
G1 X51.536Y54.516
G1 X51.717Y54.495
G1 X51.878Y54.435
G1 X52.018Y54.334
G1 X52.138Y54.193
G1 Y54.469
G1 X52.453
G1 Y51.612
G1 X52.103
G1 Y52.623
G1 X52.005Y52.518
G1 X51.875Y52.433
G1 X51.724Y52.376
G1 X51.563Y52.357
G1 X51.385Y52.375
G1 X51.221Y52.43
G1 X51.069Y52.522
G1 X50.93Y52.651
G1 X50.814Y52.811
G1 X50.731Y52.999
G1 X50.681Y53.214
G1 X50.664Y53.456
G1 X50.691Y53.751
M3
G1 F100 S1000
G4 P0.2
G1 S0
G0
M3
G0 X52.973Y54.469
M3
G1 F100 S1000
G4 P0.25
G1 S0
G0
M3
G1 X53.288S1000F2000
G1 Y54.156
G1 X53.404Y54.338
G1 X53.511Y54.446
G1 X53.618Y54.498
G1 X53.736Y54.516
G1 X53.914Y54.487
G1 X54.095Y54.403
G1 X53.975Y54.078
G1 X53.847Y54.135
G1 X53.718Y54.154
G1 X53.609Y54.137
G1 X53.512Y54.085
G1 X53.434Y54.002
G1 X53.382Y53.893
G1 X53.338Y53.698
G1 X53.323Y53.485
G1 Y52.404
G1 X52.973
G1 Y54.469
M3
G1 F100 S1000
G4 P0.2
G1 S0
G0
M3
G0 X54.273Y54.176
M3
G1 F100 S1000
G4 P0.25
G1 S0
G0
M3
G1 X54.348Y54.284S1000F2000
G1 X54.445Y54.372
G1 X54.542Y54.427
G1 X54.668Y54.474
G1 X54.814Y54.505
G1 X54.97Y54.516
G1 X55.199Y54.498
G1 X55.397Y54.446
G1 X55.557Y54.363
G1 X55.668Y54.256
G1 X55.742Y54.116
G1 X55.789Y53.936
G1 X55.447Y53.889
G1 X55.401Y54.031
G1 X55.312Y54.138
G1 X55.177Y54.205
G1 X54.996Y54.228
G1 X54.789Y54.208
G1 X54.651Y54.148
G1 X54.574Y54.061
G1 X54.548Y53.961
G1 X54.559Y53.897
G1 X54.591Y53.839
G1 X54.646Y53.787
G1 X54.725Y53.745
G1 X54.829Y53.713
G1 X55.206Y53.609
G1 X55.35Y53.566
G1 X55.465Y53.527
G1 X55.553Y53.494
G1 X55.684Y53.416
G1 X55.783Y53.31
G1 X55.846Y53.175
G1 X55.867Y53.01
G1 X55.841Y52.841
G1 X55.765Y52.681
G1 X55.64Y52.544
G1 X55.47Y52.442
G1 X55.265Y52.378
G1 X55.034Y52.357
G1 X54.845Y52.367
G1 X54.68Y52.399
G1 X54.538Y52.451
G1 X54.421Y52.524
G1 X54.325Y52.618
G1 X54.248Y52.732
G1 X54.19Y52.866
G1 X54.152Y53.02
G1 X54.498Y53.075
G1 X54.553Y52.891
G1 X54.66Y52.756
G1 X54.82Y52.673
G1 X55.032Y52.645
G1 X55.243Y52.669
G1 X55.39Y52.743
G1 X55.478Y52.85
G1 X55.507Y52.973
G1 X55.481Y53.079
G1 X55.404Y53.16
G1 X55.355Y53.185
G1 X55.278Y53.213
G1 X55.176Y53.244
G1 X54.868Y53.326
G1 X54.72Y53.369
G1 X54.601Y53.41
G1 X54.512Y53.447
G1 X54.382Y53.532
G1 X54.287Y53.643
G1 X54.229Y53.775
G1 X54.21Y53.92
G1 X54.226Y54.053
G1 X54.273Y54.176
M3
G1 F100 S1000
G4 P0.2
G1 S0
G0
M3
G0 X56.09Y54.197
M3
G1 F100 S1000
G4 P0.25
G1 S0
G0
M3
G1 Y54.469S1000F2000
G1 X56.347
G1 Y54.98
G1 X56.695Y55.19
G1 Y54.469
G1 X57.047
G1 Y54.197
G1 X56.695
G1 Y52.989
G1 Y52.866
G1 X56.714Y52.797
G1 X56.738Y52.758
G1 X56.774Y52.728
G1 X56.825Y52.709
G1 X56.893
G1 X56.961
G1 X57.047
G1 X57.098Y52.408
G1 X56.958Y52.384
G1 X56.833
G1 X56.664
G1 X56.538Y52.437
G1 X56.448Y52.507
G1 X56.39Y52.595
G1 X56.371Y52.658
G1 X56.358Y52.748
G1 Y52.865
G1 X56.347Y53.008
G1 Y54.197
G1 X56.09
M3
G1 F100 S1000
G4 P0.2
G1 S0
G0
M3
G0 X57.39Y54.469
M3
G1 F100 S1000
G4 P0.25
G1 S0
G0
M3
G1 X57.74S1000F2000
G1 Y53.323
G1 Y53.094
G1 X57.762Y52.954
G1 X57.813Y52.831
G1 X57.902Y52.737
G1 X58.021Y52.678
G1 X58.166Y52.658
G1 X58.319Y52.679
G1 X58.462Y52.739
G1 X58.58Y52.834
G1 X58.657Y52.959
G1 X58.7Y53.129
G1 X58.714Y53.362
G1 Y54.469
G1 X59.064
G1 Y52.404
G1 X58.751
G1 Y52.707
G1 X58.62Y52.554
G1 X58.467Y52.445
G1 X58.292Y52.379
G1 X58.096Y52.357
G1 X57.919Y52.375
G1 X57.755Y52.427
G1 X57.617Y52.506
G1 X57.52Y52.603
G1 X57.454Y52.721
G1 X57.412Y52.863
G1 X57.396Y52.996
G1 Y53.189
G1 Y54.469
M3
G1 F100 S1000
G4 P0.2
G1 S0
G0
M3
G0 X59.416Y54.469
M3
G1 F100 S1000
G4 P0.25
G1 S0
G0
M3
G1 X59.786S1000F2000
G1 X60.229Y53.232
G1 X60.298Y53.028
G1 X60.361Y52.816
G1 X60.417Y52.996
G1 X60.492Y53.209
G1 X60.951Y54.469
G1 X61.31
G1 X60.529Y52.404
G1 X60.202
G1 X59.416Y54.469
M3
G1 F100 S1000
G4 P0.2
G1 S0
G0
M3
G0 X61.329Y54.469
M3
G1 F100 S1000
G4 P0.25
G1 S0
G0
M3
G1 X61.69S1000F2000
G1 X62.142Y52.833
G1 X62.249Y53.259
G1 X62.577Y54.469
G1 X62.937
G1 X63.349Y52.876
G1 X63.822Y54.469
G1 X64.162
G1 X63.516Y52.404
G1 X63.153
G1 X62.824Y53.64
G1 X62.744Y53.992
G1 X62.326Y52.404
G1 X61.961
G1 X61.329Y54.469
M3
G1 F100 S1000
G4 P0.2
G1 S0
G0
M3
G0 X64.23Y54.469
M3
G1 F100 S1000
G4 P0.25
G1 S0
G0
M3
G1 X64.668S1000F2000
G1 X64.985Y53.985
G1 X65.065Y53.858
G1 X65.129Y53.753
G1 X65.211Y53.874
G1 X65.634Y54.469
G1 X66.052
G1 X65.339Y53.497
G1 X66.107Y52.404
G1 X65.677
G1 X65.253Y53.045
G1 X65.14Y53.218
G1 X64.598Y52.404
G1 X64.174
G1 X64.928Y53.477
G1 X64.23Y54.469
M3
G1 F100 S1000
G4 P0.2
G1 S0
G0
M3
G0 X66.16Y54.469
M3
G1 F100 S1000
G4 P0.25
G1 S0
G0
M3
G1 X66.538S1000F2000
G1 X66.967Y53.273
G1 X67.047Y53.04
G1 X67.117Y52.795
G1 X67.183Y53.033
G1 X67.261Y53.265
G1 X67.702Y54.469
G1 X68.052
G1 X67.207Y52.212
G1 X67.155Y52.081
G1 X67.109Y51.977
G1 X67.07Y51.9
G1 X66.97Y51.75
G1 X66.857Y51.646
G1 X66.724Y51.586
G1 X66.569Y51.566
G1 X66.462Y51.576
G1 X66.343Y51.608
G1 X66.304Y51.937
G1 X66.412Y51.914
G1 X66.505
G1 X66.61
G1 X66.691Y51.945
G1 X66.755Y51.991
G1 X66.806Y52.054
G1 X66.849Y52.145
G1 X66.944Y52.4
G1 X66.16Y54.469
M3
G1 F100 S1000
G4 P0.2
G1 S0
G0
M3
G0 X68.203Y54.469
M3
G1 F100 S1000
G4 P0.25
G1 S0
G0
M3
G1 X69.891S1000F2000
G1 Y54.237
G1 X68.773Y52.927
G1 X68.557Y52.688
G1 X68.785Y52.701
G1 X68.999
G1 X69.953
G1 Y52.404
G1 X68.125
G1 Y52.688
G1 X69.44Y54.197
G1 X69.229
G1 X69.045Y54.185
G1 X68.203
G1 Y54.469
M3
G1 F100 S1000
G4 P0.2
G1 S0
G0
M3
G0 X70.433Y54.551
M3
G1 F100 S1000
G4 P0.25
G1 S0
G0
M3
G1 X70.708Y54.703S1000F2000
G1 X70.946Y54.885
G1 X71.134Y55.078
G1 X71.257Y55.266
G1 X71.483
G1 Y52.404
G1 X71.133
G1 Y54.634
G1 X70.987Y54.514
G1 X70.801Y54.393
G1 X70.607Y54.288
G1 X70.433Y54.212
G1 Y54.551
M3
G1 F100 S1000
G4 P0.2
G1 S0
G0
M3
G0 X72.416Y54.442
M3
G1 F100 S1000
G4 P0.25
G1 S0
G0
M3
G1 X72.447Y54.631S1000F2000
G1 X72.504Y54.796
G1 X72.586Y54.938
G1 X72.694Y55.055
G1 X72.825Y55.147
G1 X72.976Y55.213
G1 X73.149Y55.253
G1 X73.342Y55.266
G1 X73.536Y55.252
G1 X73.709Y55.209
G1 X73.861Y55.138
G1 X73.991Y55.039
G1 X74.096Y54.918
G1 X74.17Y54.784
G1 X74.215Y54.636
G1 X74.23Y54.475
G1 X74.213Y54.305
G1 X74.16Y54.138
G1 X74.067Y53.969
G1 X73.928Y53.79
G1 X73.833Y53.69
G1 X73.712Y53.573
G1 X73.563Y53.439
G1 X73.245Y53.167
G1 X73.13Y53.067
G1 X73.043Y52.988
G1 X72.984Y52.93
G1 X72.902Y52.835
G1 X72.836Y52.74
G1 X74.234
G1 Y52.404
G1 X72.35
G1 Y52.528
G1 X72.391Y52.647
G1 X72.484Y52.838
G1 X72.621Y53.026
G1 X72.815Y53.227
G1 X73.079Y53.458
G1 X73.293Y53.638
G1 X73.468Y53.799
G1 X73.607Y53.94
G1 X73.707Y54.061
G1 X73.83Y54.278
G1 X73.871Y54.482
G1 Y54.582
G1 X73.833Y54.674
G1 X73.787Y54.758
G1 X73.722Y54.833
G1 X73.642Y54.896
G1 X73.55Y54.941
G1 X73.448Y54.967
G1 X73.334
G1 X73.214
G1 X73.106Y54.938
G1 X73.011Y54.891
G1 X72.929Y54.825
G1 X72.863Y54.742
G1 X72.815Y54.644
G1 X72.786Y54.532
G1 X72.776Y54.405
G1 X72.416Y54.442
M3
G1 F100 S1000
G4 P0.2
G1 S0
G0
M3
G0 X72.093Y51.191
M3
G1 F100 S1000
G4 P0.25
G1 S0
G0
M3
G1 X72.292Y51.177S1000F2000
G1 X72.469Y51.134
G1 X72.625Y51.063
G1 X72.76Y50.964
G1 X72.869Y50.844
G1 X72.947Y50.712
G1 X72.994Y50.569
G1 X73.009Y50.413
G1 X72.987Y50.234
G1 X72.922Y50.069
G1 X72.792Y49.894
G1 X72.58Y49.686
G1 X72.438Y49.554
G1 X72.356Y49.462
G1 X72.31Y49.385
G1 X72.278Y49.297
G1 X72.258Y49.174
G1 Y48.994
G1 X71.913
G1 Y49.099
G1 X71.925Y49.291
G1 X71.969Y49.454
G1 X72.025Y49.568
G1 X72.107Y49.682
G1 X72.205Y49.785
G1 X72.359Y49.926
G1 X72.509Y50.07
G1 X72.595Y50.182
G1 X72.636Y50.281
G1 X72.65Y50.39
G1 X72.64Y50.489
G1 X72.61Y50.582
G1 X72.56Y50.668
G1 X72.49Y50.749
G1 X72.406Y50.816
G1 X72.313Y50.865
G1 X72.21Y50.894
G1 X72.099
G1 X71.992
G1 X71.894Y50.868
G1 X71.805Y50.824
G1 X71.726Y50.763
G1 X71.657Y50.683
G1 X71.602Y50.584
G1 X71.559Y50.465
G1 X71.529Y50.326
G1 X71.17Y50.368
G1 X71.206Y50.556
G1 X71.266Y50.72
G1 X71.35Y50.861
G1 X71.458Y50.979
G1 X71.588Y51.072
G1 X71.737Y51.138
G1 X71.906Y51.178
G1 X72.093Y51.191
M3
G1 F100 S1000
G4 P0.2
G1 S0
G0
M3
G0 X73.443Y50.662
M3
G1 F100 S1000
G4 P0.25
G1 S0
G0
M3
G1 X75.331Y49.865S1000F2000
G1 Y49.538
G1 X73.443Y48.731
G1 Y49.079
G1 X74.938Y49.7
G1 X73.443Y50.314
G1 Y50.662
M3
G1 F100 S1000
G4 P0.2
G1 S0
G0
M3
G0 X70.638Y50.357
M3
G1 F100 S1000
G4 P0.25
G1 S0
G0
M3
G1 Y49.958S1000F2000
G1 X70.239
G1 Y50.357
G1 X70.638
M3
G1 F100 S1000
G4 P0.2
G1 S0
G0
M3
G0 X70.638Y48.69
M3
G1 F100 S1000
G4 P0.25
G1 S0
G0
M3
G1 Y48.292S1000F2000
G1 X70.239
G1 Y48.69
G1 X70.638
M3
G1 F100 S1000
G4 P0.2
G1 S0
G0
M3
G0 X71.891Y48.69
M3
G1 F100 S1000
G4 P0.25
G1 S0
G0
M3
G1 X72.29S1000F2000
G1 Y48.292
G1 X71.891
G1 Y48.69
M3
G1 F100 S1000
G4 P0.2
G1 S0
G0
M3
G0 X68.19Y49.158
M3
G1 F100 S1000
G4 P0.25
G1 S0
G0
M3
G1 X68.242Y49.356S1000F2000
G1 X68.26Y49.554
G1 Y49.678
G1 X68.227Y49.788
G1 X68.186Y49.884
G1 X68.129Y49.964
G1 X68.059Y50.028
G1 X67.983Y50.073
G1 X67.899Y50.101
G1 X67.809
G1 X67.688
G1 X67.574Y50.047
G1 X67.466Y49.964
G1 X67.361Y49.843
G1 X67.269Y49.688
G1 X67.196Y49.503
G1 X67.149Y49.311
G1 X67.134Y49.136
G1 Y49.01
G1 X67.165Y48.899
G1 X67.205Y48.803
G1 X67.26Y48.721
G1 X67.396Y48.611
G1 X67.55Y48.574
G1 X67.662Y48.59
G1 X67.779Y48.639
G1 X67.897Y48.72
G1 X68.01Y48.832
G1 X68.11Y48.978
G1 X68.19Y49.158
M3
G1 F100 S1000
G4 P0.2
G1 S0
G0
M3
G0 X68.479Y48.917
M3
G1 F100 S1000
G4 P0.25
G1 S0
G0
M3
G1 X68.45Y48.767S1000F2000
G1 Y48.737
G1 Y48.688
G1 X68.486Y48.647
G1 X68.53Y48.618
G1 X68.583
G1 X68.702Y48.638
G1 X68.853Y48.727
G1 X69.051Y48.909
G1 X69.204Y49.144
G1 X69.301Y49.41
G1 X69.333Y49.684
G1 X69.323Y49.844
G1 X69.292Y49.998
G1 X69.24Y50.147
G1 X69.167Y50.291
G1 X69.074Y50.425
G1 X68.96Y50.544
G1 X68.826Y50.65
G1 X68.671Y50.742
G1 X68.502Y50.816
G1 X68.324Y50.869
G1 X68.138Y50.9
G1 X67.943Y50.911
G1 X67.72Y50.898
G1 X67.507Y50.858
G1 X67.305Y50.791
G1 X67.112Y50.698
G1 X66.934Y50.58
G1 X66.778Y50.439
G1 X66.642Y50.275
G1 X66.528Y50.087
G1 X66.438Y49.885
G1 X66.373Y49.675
G1 X66.334Y49.459
G1 X66.321Y49.235
G1 X66.334Y49.005
G1 X66.373Y48.791
G1 X66.438Y48.594
G1 X66.528Y48.414
G1 X66.643Y48.253
G1 X66.781Y48.115
G1 X66.943Y47.999
G1 X67.127Y47.906
G1 X67.328Y47.834
G1 X67.54Y47.782
G1 X67.762Y47.752
G1 X67.995Y47.741
G1 X68.24Y47.752
G1 X68.464Y47.784
G1 X68.667Y47.838
G1 X68.849Y47.912
G1 X69.01Y48.003
G1 X69.15Y48.102
G1 X69.268Y48.211
G1 X69.364Y48.329
G1 X69.716
G1 X69.582Y48.122
G1 X69.376Y47.912
G1 X69.112Y47.723
G1 X68.802Y47.577
G1 X68.436Y47.484
G1 X68.001Y47.454
G1 X67.586Y47.481
G1 X67.205Y47.564
G1 X66.867Y47.703
G1 X66.584Y47.898
G1 X66.358Y48.137
G1 X66.197Y48.41
G1 X66.125Y48.598
G1 X66.074Y48.792
G1 X66.043Y48.994
G1 Y49.204
G1 Y49.438
G1 X66.082Y49.667
G1 X66.143Y49.89
G1 X66.228Y50.108
G1 X66.359Y50.356
G1 X66.515Y50.573
G1 X66.696Y50.759
G1 X66.902Y50.915
G1 X67.131Y51.037
G1 X67.384Y51.125
G1 X67.661Y51.177
G1 X67.96Y51.195
G1 X68.195Y51.183
G1 X68.418Y51.146
G1 X68.628Y51.084
G1 X68.827Y50.998
G1 X69.009Y50.887
G1 X69.17Y50.752
G1 X69.311Y50.593
G1 X69.432Y50.409
G1 X69.515Y50.237
G1 X69.574Y50.058
G1 X69.609Y49.872
G1 X69.621Y49.678
G1 X69.596Y49.404
G1 X69.522Y49.146
G1 X69.398Y48.903
G1 X69.224Y48.677
G1 X69.043Y48.505
G1 X68.854Y48.382
G1 X68.656Y48.308
G1 X68.45Y48.284
G1 X68.329Y48.294
G1 X68.234Y48.325
G1 X68.162Y48.374
G1 X68.112Y48.441
G1 X68.09Y48.507
G1 X68.075Y48.609
G1 X67.941Y48.477
G1 X67.792Y48.374
G1 X67.635Y48.308
G1 X67.478Y48.286
G1 X67.307Y48.311
G1 X67.142Y48.387
G1 X66.994Y48.515
G1 X66.876Y48.698
G1 X66.8Y48.918
G1 X66.774Y49.159
G1 X66.784Y49.314
G1 X66.814Y49.468
G1 X66.863Y49.623
G1 X66.933Y49.778
G1 X67.017Y49.924
G1 X67.11Y50.05
G1 X67.214Y50.157
G1 X67.326Y50.244
G1 X67.558Y50.361
G1 X67.783Y50.4
G1 X67.949Y50.377
G1 X68.106Y50.311
G1 X68.249Y50.2
G1 X68.371Y50.042
G1 X68.437Y50.343
G1 X68.785
G1 X68.479Y48.917
M3
G1 F100 S1000
G4 P0.2
G1 S0
G0
M3
G0 X65.666Y49.6
M3
G1 F100 S1000
G4 P0.25
G1 S0
G0
M3
G1 X65.541Y49.5S1000F2000
G1 X65.414Y49.431
G1 X65.279Y49.392
G1 X65.127Y49.379
G1 X65.013
G1 X64.905Y49.406
G1 X64.768Y49.452
G1 X64.568Y49.536
G1 X64.357Y49.613
G1 X64.184Y49.639
G1 X64.063Y49.626
G1 X63.95Y49.586
G1 X63.827Y49.506
G1 X63.677Y49.375
G1 Y49.773
G1 X63.788Y49.876
G1 X63.915Y49.948
G1 X64.058Y49.992
G1 X64.217Y50.007
G1 X64.337
G1 X64.462Y49.973
G1 X64.618Y49.922
G1 X64.945Y49.791
G1 X65.029Y49.764
G1 X65.096Y49.751
G1 X65.164
G1 X65.293Y49.765
G1 X65.426Y49.822
G1 X65.553Y49.908
G1 X65.666Y50.013
G1 Y49.6
M3
G1 F100 S1000
G4 P0.2
G1 S0
G0
M3
G0 X63.014Y49.843
M3
G1 F100 S1000
G4 P0.25
G1 S0
G0
M3
G1 X62.966Y49.659S1000F2000
G1 X62.894Y49.523
G1 X62.786Y49.416
G1 X62.629Y49.322
G1 X62.813Y49.209
G1 X62.939Y49.049
G1 X62.981Y48.943
G1 X63.011Y48.807
G1 X63.029Y48.642
G1 Y48.447
G1 Y48.277
G1 X63.04Y48.051
G1 Y47.996
G1 X63.071Y47.884
G1 X63.122Y47.811
G1 X63.215Y47.772
G1 X63.37Y47.759
G1 X63.43
G1 Y47.454
G1 X63.321
G1 X63.157
G1 X63.045Y47.485
G1 X62.931Y47.543
G1 X62.839Y47.629
G1 X62.772Y47.743
G1 X62.733Y47.883
G1 X62.714Y48.086
G1 X62.704Y48.548
G1 Y48.683
G1 X62.687Y48.791
G1 X62.674Y48.871
G1 X62.627Y48.991
G1 X62.548Y49.083
G1 X62.44Y49.142
G1 X62.304Y49.165
G1 Y49.482
G1 X62.44Y49.504
G1 X62.548Y49.562
G1 X62.627Y49.654
G1 X62.674Y49.773
G1 X62.697Y49.955
G1 Y50.232
G1 X62.708Y50.381
G1 Y50.595
G1 X62.718Y50.66
G1 X62.743Y50.807
G1 X62.783Y50.923
G1 X62.837Y51.012
G1 X62.901Y51.081
G1 X62.981Y51.133
G1 X63.08Y51.172
G1 X63.177Y51.186
G1 X63.321
G1 X63.43
G1 Y50.886
G1 X63.37
G1 X63.202Y50.867
G1 X63.101Y50.813
G1 X63.052Y50.695
G1 X63.035Y50.487
G1 Y50.256
G1 Y50.071
G1 X63.023Y49.934
G1 Y49.843
M3
G1 F100 S1000
G4 P0.2
G1 S0
G0
M3
G0 X62.096Y49.482
M3
G1 F100 S1000
G4 P0.25
G1 S0
G0
M3
G1 Y49.165S1000F2000
G1 X61.96Y49.142
G1 X61.852Y49.083
G1 X61.774Y48.991
G1 X61.727Y48.872
G1 X61.703Y48.691
G1 Y48.414
G1 X61.692Y48.266
G1 Y48.052
G1 Y47.986
G1 X61.657Y47.838
G1 X61.617Y47.723
G1 X61.564Y47.634
G1 X61.499Y47.565
G1 X61.42Y47.513
G1 X61.32Y47.475
G1 X61.223Y47.459
G1 X61.079
G1 X60.97
G1 Y47.759
G1 X61.031
G1 X61.199Y47.777
G1 X61.299Y47.832
G1 X61.349Y47.95
G1 X61.365Y48.159
G1 Y48.38
G1 Y48.557
G1 X61.375Y48.688
G1 Y48.776
G1 X61.429Y48.97
G1 X61.507Y49.121
G1 X61.62Y49.236
G1 X61.772Y49.322
G1 X61.581Y49.446
G1 X61.457Y49.605
G1 X61.417Y49.708
G1 X61.388Y49.842
G1 X61.371Y50.005
G1 Y50.199
G1 Y50.502
G1 X61.36Y50.596
G1 Y50.652
G1 X61.329Y50.763
G1 X61.279Y50.834
G1 X61.185Y50.873
G1 X61.031Y50.886
G1 X60.97
G1 Y51.191
G1 X61.079
G1 X61.244
G1 X61.355Y51.16
G1 X61.469Y51.103
G1 X61.562Y51.016
G1 X61.629Y50.902
G1 X61.668Y50.761
G1 X61.686Y50.559
G1 X61.697Y50.096
G1 Y49.962
G1 X61.713Y49.855
G1 X61.727Y49.774
G1 X61.774Y49.655
G1 X61.852Y49.563
G1 X61.96Y49.504
G1 X62.096Y49.482
M3
G1 F100 S1000
G4 P0.2
G1 S0
G0
M3
G0 X60.673Y49.534
M3
G1 F100 S1000
G4 P0.25
G1 S0
G0
M3
G1 X59.897S1000F2000
G1 Y48.752
G1 X59.567
G1 Y49.534
G1 X58.791
G1 Y49.861
G1 X59.567
G1 Y50.637
G1 X59.897
G1 Y49.861
G1 X60.673
G1 Y49.534
M3
G1 F100 S1000
G4 P0.2
G1 S0
G0
M3
G0 X58.599Y47.753
M3
G1 F100 S1000
G4 P0.25
G1 S0
G0
M3
G1 Y47.5S1000F2000
G1 X56.279
G1 Y47.753
G1 X58.599
M3
G1 F100 S1000
G4 P0.2
G1 S0
G0
M3
G0 X56.006Y48.309
M3
G1 F100 S1000
G4 P0.25
G1 S0
G0
M3
G1 X55.783Y47.85S1000F2000
G1 X55.517Y47.454
G1 X55.266
G1 X55.52Y47.92
G1 X55.702Y48.387
G1 X55.811Y48.855
G1 X55.847Y49.322
G1 X55.826Y49.686
G1 X55.764Y50.048
G1 X55.684Y50.333
G1 X55.579Y50.608
G1 X55.531Y50.71
G1 X55.463Y50.841
G1 X55.374Y51.001
G1 X55.266Y51.191
G1 X55.517
G1 X55.688Y50.947
G1 X55.835Y50.702
G1 X55.958Y50.457
G1 X56.057Y50.211
G1 X56.123Y49.997
G1 X56.17Y49.777
G1 X56.198Y49.553
G1 Y49.324
G1 Y49.064
G1 X56.157Y48.808
G1 X56.094Y48.556
G1 X56.006Y48.309
M3
G1 F100 S1000
G4 P0.2
G1 S0
G0
M3
G0 X54.638Y47.92
M3
G1 F100 S1000
G4 P0.25
G1 S0
G0
M3
G1 X54.893Y47.454S1000F2000
G1 X54.642
G1 X54.375Y47.85
G1 X54.152Y48.309
G1 X54.064Y48.556
G1 X54.002Y48.808
G1 X53.964Y49.064
G1 X53.952Y49.324
G1 Y49.553
G1 X53.989Y49.777
G1 X54.036Y49.997
G1 X54.101Y50.211
G1 X54.201Y50.457
G1 X54.324Y50.702
G1 X54.471Y50.947
G1 X54.642Y51.191
G1 X54.893
G1 X54.785Y51.003
G1 X54.697Y50.844
G1 X54.63Y50.714
G1 X54.582Y50.613
G1 X54.476Y50.339
G1 X54.395Y50.053
G1 X54.332Y49.689
G1 X54.311Y49.322
G1 X54.348Y48.855
G1 X54.457Y48.387
G1 X54.638Y47.92
M3
G1 F100 S1000
G4 P0.2
G1 S0
G0
M3
G0 X53.184Y49.978
M3
G1 F100 S1000
G4 P0.25
G1 S0
G0
M3
G1 X53.061Y50.159S1000F2000
G1 X52.918Y50.396
G1 X52.782Y50.154
G1 X52.665Y49.978
G1 X52.435Y50.143
G1 X52.54Y50.27
G1 X52.629Y50.374
G1 X52.702Y50.454
G1 X52.758Y50.51
G1 X52.514Y50.562
G1 X52.282Y50.619
G1 X52.371Y50.895
G1 X52.638Y50.794
G1 X52.82Y50.707
G1 X52.792Y51.004
G1 Y51.111
G1 X52.781Y51.191
G1 X53.063
G1 X53.049Y50.974
G1 X53.019Y50.709
G1 X53.234Y50.806
G1 X53.478Y50.895
G1 X53.567Y50.619
G1 X53.323Y50.551
G1 X53.083Y50.51
G1 X53.226Y50.367
G1 X53.417Y50.143
G1 X53.184Y49.978
M3
G1 F100 S1000
G4 P0.2
G1 S0
G0
M3
G0 X51.014Y50.455
M3
G1 F100 S1000
G4 P0.25
G1 S0
G0
M3
G1 X51.031Y50.573S1000F2000
G1 X51.008Y50.705
G1 X50.939Y50.811
G1 X50.835Y50.88
G1 X50.708Y50.903
G1 X50.578Y50.88
G1 X50.472Y50.812
G1 X50.401Y50.71
G1 X50.378Y50.588
G1 Y50.52
G1 X50.412Y50.449
G1 X50.454Y50.374
G1 X50.514Y50.295
G1 X50.669Y50.114
G1 X50.857Y50.24
G1 X50.964Y50.349
G1 X51.014Y50.455
M3
G1 F100 S1000
G4 P0.2
G1 S0
G0
M3
G0 X50.52Y49.7
M3
G1 F100 S1000
G4 P0.25
G1 S0
G0
M3
G1 X50.282Y49.536S1000F2000
G1 X50.137Y49.385
G1 X50.062Y49.241
G1 X50.037Y49.099
G1 X50.072Y48.922
G1 X50.175Y48.739
G1 X50.252Y48.657
G1 X50.342Y48.599
G1 X50.447Y48.564
G1 X50.566Y48.552
G1 X50.726Y48.577
G1 X50.892Y48.65
G1 X51.043Y48.763
G1 X51.161Y48.904
G1 X50.52Y49.7
M3
G1 F100 S1000
G4 P0.2
G1 S0
G0
M3
G0 X50.339Y49.929
M3
G1 F100 S1000
G4 P0.25
G1 S0
G0
M3
G1 X50.178Y50.13S1000F2000
G1 X50.082Y50.289
G1 X50.034Y50.424
G1 X50.018Y50.555
G1 X50.03Y50.679
G1 X50.068Y50.795
G1 X50.131Y50.902
G1 X50.219Y51.001
G1 X50.326Y51.084
G1 X50.446Y51.144
G1 X50.58Y51.179
G1 X50.726Y51.191
G1 X50.865Y51.18
G1 X50.991Y51.146
G1 X51.104Y51.09
G1 X51.203Y51.012
G1 X51.284Y50.918
G1 X51.342Y50.815
G1 X51.377Y50.703
G1 X51.389Y50.582
G1 X51.355Y50.387
G1 X51.254Y50.206
G1 X51.086Y50.039
G1 X50.85Y49.888
G1 X51.362Y49.237
G1 X51.439Y49.421
G1 X51.498Y49.633
G1 X51.861Y49.556
G1 X51.752Y49.215
G1 X51.609Y48.941
G1 X51.818Y48.701
G1 X52.054Y48.504
G1 X51.819Y48.226
G1 X51.603Y48.394
G1 X51.381Y48.628
G1 X51.2Y48.46
G1 X51.004Y48.339
G1 X50.791Y48.267
G1 X50.562Y48.243
G1 X50.355Y48.261
G1 X50.17Y48.317
G1 X50.008Y48.409
G1 X49.868Y48.539
G1 X49.777Y48.663
G1 X49.712Y48.794
G1 X49.673Y48.932
G1 X49.66Y49.077
G1 X49.671Y49.206
G1 X49.703Y49.329
G1 X49.756Y49.445
G1 X49.83Y49.555
G1 X50.042Y49.755
G1 X50.339Y49.929
M3
G1 F100 S1000
G4 P0.2
G1 S0
G0
M3
G0 X49.54Y49.633
M3
G1 F100 S1000
G4 P0.25
G1 S0
G0
M3
G1 X49.188S1000F2000
G1 X48.708Y50.794
G1 X48.241Y49.633
G1 X47.881
G1 X48.568Y51.191
G1 X48.85
G1 X49.54Y49.633
M3
G1 F100 S1000
G4 P0.2
G1 S0
G0
M3
G0 X47.201Y49.188
M3
G1 F100 S1000
G4 P0.25
G1 S0
G0
M3
G1 X47.135Y49.341S1000F2000
G1 X47.037Y49.425
G1 X46.918Y49.453
G1 X46.797Y49.424
G1 X46.699Y49.34
G1 X46.661Y49.272
G1 X46.634Y49.18
G1 X46.618Y49.064
G1 Y48.926
G1 X46.634Y48.693
G1 X46.7Y48.541
G1 X46.797Y48.456
G1 X46.916Y48.428
G1 X47.038Y48.456
G1 X47.136Y48.541
G1 X47.174Y48.609
G1 X47.201Y48.7
G1 X47.217Y48.815
G1 Y48.953
G1 X47.201Y49.188
M3
G1 F100 S1000
G4 P0.2
G1 S0
G0
M3
G0 X47.484Y49.266
M3
G1 F100 S1000
G4 P0.25
G1 S0
G0
M3
G1 X47.517Y49.114S1000F2000
G1 X47.528Y48.939
G1 X47.517Y48.769
G1 X47.484Y48.619
G1 X47.428Y48.49
G1 X47.35Y48.382
G1 X47.256Y48.297
G1 X47.151Y48.235
G1 X47.036Y48.199
G1 X46.91Y48.187
G1 X46.786Y48.199
G1 X46.673Y48.235
G1 X46.57Y48.295
G1 X46.479Y48.38
G1 X46.404Y48.489
G1 X46.35Y48.622
G1 X46.318Y48.779
G1 X46.307Y48.961
G1 Y49.108
G1 X46.345Y49.244
G1 X46.393Y49.368
G1 X46.461Y49.481
G1 X46.546Y49.574
G1 X46.649Y49.64
G1 X46.77Y49.68
G1 X46.908Y49.694
G1 X47.036Y49.682
G1 X47.153Y49.646
G1 X47.258Y49.586
G1 X47.352Y49.502
G1 X47.429Y49.395
G1 X47.484Y49.266
M3
G1 F100 S1000
G4 P0.2
G1 S0
G0
M3
G0 X45.291Y50.038
M3
G1 F100 S1000
G4 P0.25
G1 S0
G0
M3
G1 X45.329Y50.106S1000F2000
G1 X45.356Y50.197
G1 X45.372Y50.312
G1 Y50.45
G1 X45.356Y50.685
G1 X45.29Y50.838
G1 X45.192Y50.922
G1 X45.072Y50.95
G1 X44.953Y50.922
G1 X44.855Y50.837
G1 X44.817Y50.769
G1 X44.79Y50.677
G1 X44.774Y50.562
G1 Y50.423
G1 X44.791Y50.189
G1 X44.856Y50.037
G1 X44.954Y49.953
G1 X45.072Y49.925
G1 X45.193Y49.953
G1 X45.291Y50.038
M3
G1 F100 S1000
G4 P0.2
G1 S0
G0
M3
G0 X45.583Y49.987
M3
G1 F100 S1000
G4 P0.25
G1 S0
G0
M3
G1 X45.505Y49.879S1000F2000
G1 X45.411Y49.794
G1 X45.306Y49.733
G1 X45.191Y49.696
G1 X45.066Y49.684
G1 X44.942Y49.696
G1 X44.829Y49.732
G1 X44.727Y49.792
G1 X44.636Y49.876
G1 X44.56Y49.985
G1 X44.506Y50.118
G1 X44.474Y50.276
G1 X44.463Y50.458
G1 X44.473Y50.605
G1 X44.502Y50.74
G1 X44.55Y50.864
G1 X44.617Y50.977
G1 X44.702Y51.071
G1 X44.805Y51.138
G1 X44.925Y51.178
G1 X45.062Y51.191
G1 X45.191Y51.179
G1 X45.308Y51.143
G1 X45.413Y51.083
G1 X45.507Y50.999
G1 X45.584Y50.892
G1 X45.639Y50.763
G1 X45.672Y50.611
G1 X45.683Y50.437
G1 X45.672Y50.266
G1 X45.638Y50.116
G1 X45.583Y49.987
M3
G1 F100 S1000
G4 P0.2
G1 S0
G0
M3
G0 X46.634Y51.191
M3
G1 F100 S1000
G4 P0.25
G1 S0
G0
M3
G1 X46.918S1000F2000
G1 X45.364Y48.187
G1 X45.074
G1 X46.634Y51.191
M3
G1 F100 S1000
G4 P0.2
G1 S0
G0
M3
G0 X42.994Y50.946
M3
G1 F100 S1000
G4 P0.25
G1 S0
G0
M3
G1 X42.811Y50.89S1000F2000
G1 X42.672Y50.783
G1 X42.583Y50.638
G1 X42.554Y50.47
G1 X42.579Y50.305
G1 X42.654Y50.17
G1 X42.789Y50.062
G1 X42.994Y49.978
G1 Y50.946
M3
G1 F100 S1000
G4 P0.2
G1 S0
G0
M3
G0 X41.705Y50.765
M3
G1 F100 S1000
G4 P0.25
G1 S0
G0
M3
G1 X41.764Y50.619S1000F2000
G1 X41.802Y50.454
G1 X41.454Y50.402
G1 X41.396Y50.61
G1 X41.28Y50.769
G1 X41.12Y50.87
G1 X40.933Y50.903
G1 X40.829
G1 X40.735Y50.868
G1 X40.65Y50.825
G1 X40.574Y50.764
G1 X40.511Y50.691
G1 X40.467Y50.611
G1 X40.44Y50.523
G1 Y50.429
G1 X40.459Y50.18
G1 X40.542Y49.865
G1 X41.154
G1 Y49.577
G1 X40.602
G1 X40.63Y49.491
G1 Y49.406
G1 X40.619Y49.232
G1 X40.558Y49.048
G1 X40.451Y48.858
G1 X40.293Y48.663
G1 X40.44Y48.695
G1 X40.573Y48.706
G1 X40.744Y48.694
G1 X40.936Y48.657
G1 X41.09Y48.622
G1 X41.217Y48.597
G1 X41.317Y48.582
G1 X41.389
G1 X41.555Y48.605
G1 X41.763Y48.686
G1 X41.876Y48.366
G1 X41.717Y48.303
G1 X41.599Y48.266
G1 X41.501Y48.249
G1 X41.403
G1 X41.321
G1 X41.238
G1 X41.149Y48.281
G1 X40.822Y48.378
G1 X40.728Y48.402
G1 X40.637Y48.414
G1 X40.546
G1 X40.401
G1 X40.247Y48.369
G1 X40.096Y48.312
G1 X39.958Y48.237
G1 X39.824Y48.574
G1 X39.997Y48.699
G1 X40.141Y48.868
G1 X40.239Y49.081
G1 X40.271Y49.336
G1 Y49.455
G1 X40.238Y49.577
G1 X39.857
G1 Y49.865
G1 X40.157
G1 X40.104Y50.053
G1 X40.075Y50.183
G1 X40.062Y50.282
G1 Y50.378
G1 X40.076Y50.569
G1 X40.132Y50.738
G1 X40.226Y50.885
G1 X40.357Y51.01
G1 X40.484Y51.089
G1 X40.623Y51.146
G1 X40.775Y51.18
G1 X40.94Y51.191
G1 X41.109Y51.179
G1 X41.261Y51.143
G1 X41.399Y51.082
G1 X41.521Y50.998
G1 X41.624Y50.891
G1 X41.705Y50.765
M3
G1 F100 S1000
G4 P0.2
G1 S0
G0
M3
G0 X39.565Y50.676
M3
G1 F100 S1000
G4 P0.25
G1 S0
G0
M3
G1 X39.472Y50.133S1000F2000
G1 X39.262
G1 X39.166Y50.676
G1 Y51.142
G1 X39.565
G1 Y50.676
M3
G1 F100 S1000
G4 P0.2
G1 S0
G0
M3
G0 X38.919Y50.676
M3
G1 F100 S1000
G4 P0.25
G1 S0
G0
M3
G1 X38.832Y50.133S1000F2000
G1 X38.618
G1 X38.521Y50.676
G1 Y51.142
G1 X38.919
G1 Y50.676
M3
G1 F100 S1000
G4 P0.2
G1 S0
G0
M3
G0 X37.999Y50.51
M3
G1 F100 S1000
G4 P0.25
G1 S0
G0
M3
G1 X37.898Y48.999S1000F2000
G1 X37.672
G1 X37.565Y50.51
G1 Y51.142
G1 X37.999
G1 Y50.51
M3
G1 F100 S1000
G4 P0.2
G1 S0
G0
M3
G0 X36.616Y50.283
M3
G1 F100 S1000
G4 P0.25
G1 S0
G0
M3
G1 X36.565Y50.488S1000F2000
G1 X36.493Y50.633
G1 X36.406Y50.734
G1 X36.308Y50.806
G1 X36.201Y50.85
G1 X36.083Y50.864
G1 X35.969Y50.852
G1 X35.867Y50.813
G1 X35.776Y50.749
G1 X35.698Y50.66
G1 X35.619Y50.502
G1 X35.563Y50.289
G1 X35.529Y50.021
G1 X35.518Y49.698
G1 Y49.376
G1 X35.559Y49.113
G1 X35.61Y48.909
G1 X35.682Y48.763
G1 X35.769Y48.662
G1 X35.865Y48.589
G1 X35.972Y48.545
G1 X36.087Y48.531
G1 X36.203Y48.545
G1 X36.309Y48.589
G1 X36.406Y48.662
G1 X36.493Y48.764
G1 X36.565Y48.91
G1 X36.616Y49.114
G1 X36.647Y49.377
G1 X36.657Y49.698
G1 X36.647Y50.02
G1 X36.616Y50.283
M3
G1 F100 S1000
G4 P0.2
G1 S0
G0
M3
G0 X36.953Y50.371
M3
G1 F100 S1000
G4 P0.25
G1 S0
G0
M3
G1 X37.001Y50.078S1000F2000
G1 X37.017Y49.698
G1 Y49.459
G1 X36.991Y49.244
G1 X36.959Y49.054
G1 X36.914Y48.888
G1 X36.856Y48.742
G1 X36.785Y48.614
G1 X36.702Y48.504
G1 X36.606Y48.411
G1 X36.496Y48.338
G1 X36.373Y48.285
G1 X36.237Y48.254
G1 X36.087Y48.243
G1 X35.892Y48.261
G1 X35.719Y48.317
G1 X35.568Y48.409
G1 X35.44Y48.539
G1 X35.316Y48.744
G1 X35.228Y49.006
G1 X35.175Y49.324
G1 X35.158Y49.698
G1 Y49.938
G1 X35.184Y50.154
G1 X35.216Y50.345
G1 X35.262Y50.511
G1 X35.32Y50.657
G1 X35.391Y50.784
G1 X35.475Y50.894
G1 X35.571Y50.987
G1 X35.68Y51.06
G1 X35.803Y51.112
G1 X35.938Y51.144
G1 X36.087Y51.154
G1 X36.303Y51.131
G1 X36.49Y51.062
G1 X36.648Y50.949
G1 X36.776Y50.795
G1 X36.876Y50.602
G1 X36.953Y50.371
M3
G1 F100 S1000
G4 P0.2
G1 S0
G0
M3
G0 X34.403Y50.352
M3
G1 F100 S1000
G4 P0.25
G1 S0
G0
M3
G1 X34.373Y50.479S1000F2000
G1 X34.323Y50.591
G1 X34.253Y50.687
G1 X34.169Y50.765
G1 X34.076Y50.82
G1 X33.976Y50.853
G1 X33.867Y50.864
G1 X33.754Y50.852
G1 X33.649Y50.817
G1 X33.551Y50.757
G1 X33.46Y50.674
G1 X33.385Y50.571
G1 X33.331Y50.455
G1 X33.298Y50.324
G1 X33.287Y50.18
G1 X33.298Y50.05
G1 X33.328Y49.933
G1 X33.38Y49.829
G1 X33.452Y49.737
G1 X33.539Y49.663
G1 X33.635Y49.61
G1 X33.741Y49.578
G1 X33.857Y49.567
G1 X33.973Y49.578
G1 X34.079Y49.61
G1 X34.173Y49.663
G1 X34.257Y49.737
G1 X34.325Y49.831
G1 X34.374Y49.94
G1 X34.403Y50.066
G1 X34.413Y50.209
G1 Y50.352
M3
G1 F100 S1000
G4 P0.2
G1 S0
G0
M3
G0 X34.735Y50.423
M3
G1 F100 S1000
G4 P0.25
G1 S0
G0
M3
G1 X34.772Y50.238S1000F2000
G1 X34.795Y50.022
G1 Y49.775
G1 Y49.516
G1 X34.773Y49.285
G1 X34.735Y49.081
G1 X34.684Y48.905
G1 X34.617Y48.753
G1 X34.536Y48.62
G1 X34.441Y48.506
G1 X34.331Y48.412
G1 X34.208Y48.338
G1 X34.076Y48.285
G1 X33.934Y48.254
G1 X33.781Y48.243
G1 X33.622Y48.255
G1 X33.477Y48.289
G1 X33.348Y48.347
G1 X33.235Y48.429
G1 X33.139Y48.531
G1 X33.065Y48.652
G1 X33.012Y48.792
G1 X32.98Y48.951
G1 X33.317Y48.982
G1 X33.379Y48.777
G1 X33.48Y48.638
G1 X33.617Y48.558
G1 X33.789Y48.531
G1 X33.94Y48.549
G1 X34.072Y48.605
G1 X34.183Y48.691
G1 X34.271Y48.802
G1 X34.343Y48.947
G1 X34.402Y49.136
G1 X34.441Y49.348
G1 X34.454Y49.563
G1 Y49.633
G1 X34.328Y49.482
G1 X34.165Y49.362
G1 X33.976Y49.284
G1 X33.772Y49.258
G1 X33.601Y49.274
G1 X33.445Y49.322
G1 X33.302Y49.402
G1 X33.173Y49.515
G1 X33.065Y49.653
G1 X32.989Y49.812
G1 X32.943Y49.992
G1 X32.928Y50.192
G1 X32.944Y50.398
G1 X32.992Y50.583
G1 X33.071Y50.747
G1 X33.183Y50.89
G1 X33.319Y51.005
G1 X33.471Y51.088
G1 X33.64Y51.138
G1 X33.824Y51.154
G1 X33.96
G1 X34.09Y51.117
G1 X34.214Y51.07
G1 X34.333Y51.004
G1 X34.441Y50.922
G1 X34.535Y50.823
G1 X34.616Y50.708
G1 X34.683Y50.578
G1 X34.735Y50.423
M3
G1 F100 S1000
G4 P0.2
G1 S0
G0
M3
G0 X32.096Y50.411
M3
G1 F100 S1000
G4 P0.25
G1 S0
G0
M3
G1 X32.062Y50.588S1000F2000
G1 X31.962Y50.735
G1 X31.813Y50.833
G1 X31.631Y50.866
G1 X31.448Y50.834
G1 X31.298Y50.738
G1 X31.199Y50.597
G1 X31.166Y50.431
G1 X31.199Y50.247
G1 X31.296Y50.1
G1 X31.446Y50.004
G1 X31.635Y49.972
G1 X31.819Y50.004
G1 X31.966Y50.099
G1 X32.063Y50.241
G1 X32.096Y50.411
M3
G1 F100 S1000
G4 P0.2
G1 S0
G0
M3
G0 X31.746Y49.676
M3
G1 F100 S1000
G4 P0.25
G1 S0
G0
M3
G1 X31.625S1000F2000
G1 X31.507
G1 X31.399Y49.645
G1 X31.302Y49.594
G1 X31.216Y49.523
G1 X31.145Y49.436
G1 X31.094Y49.339
G1 X31.063Y49.232
G1 Y49.114
G1 Y48.967
G1 X31.124Y48.824
G1 X31.212Y48.7
G1 X31.335Y48.608
G1 X31.481Y48.55
G1 X31.637Y48.531
G1 X31.757
G1 X31.866Y48.571
G1 X31.964Y48.622
G1 X32.051Y48.692
G1 X32.122Y48.778
G1 X32.173Y48.875
G1 X32.204Y48.984
G1 X32.214Y49.103
G1 X32.204Y49.223
G1 X32.172Y49.333
G1 X32.12Y49.432
G1 X32.046Y49.521
G1 X31.957Y49.593
G1 X31.857Y49.645
G1 X31.746Y49.676
M3
G1 F100 S1000
G4 P0.2
G1 S0
G0
M3
G0 X32.035Y49.838
M3
G1 F100 S1000
G4 P0.25
G1 S0
G0
M3
G1 X32.159Y49.788S1000F2000
G1 X32.266Y49.726
G1 X32.358Y49.65
G1 X32.435Y49.561
G1 X32.495Y49.462
G1 X32.538Y49.352
G1 X32.563Y49.234
G1 Y49.106
G1 Y48.931
G1 X32.507Y48.77
G1 X32.426Y48.624
G1 X32.313Y48.492
G1 X32.174Y48.383
G1 X32.014Y48.305
G1 X31.834Y48.259
G1 X31.633Y48.243
G1 X31.432Y48.259
G1 X31.252Y48.305
G1 X31.092Y48.384
G1 X30.952Y48.493
G1 X30.839Y48.626
G1 X30.758Y48.774
G1 X30.71Y48.937
G1 X30.693Y49.116
G1 Y49.25
G1 X30.729Y49.372
G1 X30.773Y49.482
G1 X30.834Y49.582
G1 X30.912Y49.668
G1 X31.005Y49.74
G1 X31.113Y49.796
G1 X31.236Y49.838
G1 X31.046Y49.934
G1 X30.913Y50.065
G1 X30.834Y50.227
G1 X30.808Y50.419
G1 X30.822Y50.568
G1 X30.864Y50.705
G1 X30.934Y50.83
G1 X31.032Y50.942
G1 X31.153Y51.035
G1 X31.292Y51.101
G1 X31.45Y51.141
G1 X31.627Y51.154
G1 X31.804Y51.141
G1 X31.964Y51.1
G1 X32.105Y51.032
G1 X32.228Y50.937
G1 X32.327Y50.823
G1 X32.398Y50.697
G1 X32.441Y50.559
G1 X32.455Y50.409
G1 X32.429Y50.224
G1 X32.351Y50.064
G1 X32.22Y49.934
G1 X32.035Y49.838
M3
G1 F100 S1000
G4 P0.2
G1 S0
G0
M3
G0 X37.581Y48.69
M3
G1 F100 S1000
G4 P0.25
G1 S0
G0
M3
G1 X37.983S1000F2000
G1 Y48.292
G1 X37.581
G1 Y48.69
M3
G1 F100 S1000
G4 P0.2
G1 S0
G0
M3
G0 X43.2Y48.527
M3
G1 F100 S1000
G4 P0.25
G1 S0
G0
M3
G1 X43.386Y48.584S1000F2000
G1 X43.537Y48.704
G1 X43.637Y48.874
G1 X43.67Y49.079
G1 X43.647Y49.251
G1 X43.576Y49.385
G1 X43.435Y49.495
G1 X43.2Y49.593
G1 Y48.527
M3
G1 F100 S1000
G4 P0.2
G1 S0
G0
M3
G0 X42.994Y48.527
M3
G1 F100 S1000
G4 P0.25
G1 S0
G0
M3
G1 Y49.641S1000F2000
G1 X42.775Y49.703
G1 X42.552Y49.808
G1 X42.404Y49.92
G1 X42.294Y50.067
G1 X42.227Y50.244
G1 X42.204Y50.442
G1 X42.221Y50.62
G1 X42.27Y50.78
G1 X42.353Y50.923
G1 X42.469Y51.047
G1 X42.568Y51.117
G1 X42.688Y51.173
G1 X42.83Y51.213
G1 X42.994Y51.238
G1 Y51.405
G1 X43.2
G1 Y51.238
G1 X43.344Y51.216
G1 X43.473Y51.178
G1 X43.587Y51.126
G1 X43.684Y51.059
G1 X43.787Y50.955
G1 X43.868Y50.833
G1 X43.925Y50.693
G1 X43.96Y50.536
G1 X43.598Y50.481
G1 X43.55Y50.663
G1 X43.469Y50.797
G1 X43.353Y50.888
G1 X43.2Y50.942
G1 Y49.933
G1 X43.419Y49.874
G1 X43.55Y49.83
G1 X43.698Y49.75
G1 X43.816Y49.655
G1 X43.907Y49.542
G1 X43.975Y49.41
G1 X44.016Y49.262
G1 X44.03Y49.103
G1 X44.016Y48.928
G1 X43.972Y48.769
G1 X43.9Y48.625
G1 X43.799Y48.496
G1 X43.674Y48.388
G1 X43.533Y48.309
G1 X43.375Y48.258
G1 X43.2Y48.235
G1 Y47.881
G1 X42.994
G1 Y48.231
G1 X42.756Y48.277
G1 X42.567Y48.349
G1 X42.414Y48.46
G1 X42.283Y48.622
G1 X42.188Y48.832
G1 X42.144Y49.083
G1 X42.496Y49.149
G1 X42.552Y48.905
G1 X42.64Y48.735
G1 X42.717Y48.652
G1 X42.802Y48.59
G1 X42.894Y48.548
G1 X42.994Y48.527
M3
G1 F100 S1000
G4 P0.2
G1 S0
G0
M3
G0 X43.68Y58.459
M3
G1 F100 S1000
G4 P0.25
G1 S0
G0
M3
G1 X43.495Y58.473S1000F2000
G1 X43.327Y58.513
G1 X43.177Y58.582
G1 X43.045Y58.677
G1 X42.936Y58.795
G1 X42.852Y58.93
G1 X42.795Y59.083
G1 X42.764Y59.254
G1 X43.132Y59.285
G1 X43.159Y59.16
G1 X43.2Y59.05
G1 X43.254Y58.958
G1 X43.322Y58.882
G1 X43.486Y58.781
G1 X43.68Y58.747
G1 X43.802Y58.759
G1 X43.914Y58.794
G1 X44.016Y58.854
G1 X44.108Y58.937
G1 X44.185Y59.04
G1 X44.239Y59.159
G1 X44.272Y59.293
G1 X44.283Y59.443
G1 X44.273Y59.585
G1 X44.241Y59.711
G1 X44.189Y59.821
G1 X44.115Y59.916
G1 X44.024Y59.991
G1 X43.921Y60.045
G1 X43.804Y60.078
G1 X43.675Y60.089
G1 X43.514Y60.069
G1 X43.369Y60.012
G1 X43.248Y59.924
G1 X43.155Y59.812
G1 X42.827Y59.855
G1 X43.103Y61.32
G1 X44.52
G1 Y60.985
G1 X43.383
G1 X43.229Y60.219
G1 X43.359Y60.297
G1 X43.492Y60.353
G1 X43.628Y60.387
G1 X43.768Y60.398
G1 X43.947Y60.382
G1 X44.112Y60.333
G1 X44.262Y60.252
G1 X44.398Y60.139
G1 X44.51Y60.001
G1 X44.59Y59.844
G1 X44.639Y59.668
G1 X44.655Y59.474
G1 X44.641Y59.287
G1 X44.598Y59.113
G1 X44.528Y58.953
G1 X44.429Y58.805
G1 X44.279Y58.654
G1 X44.105Y58.546
G1 X43.905Y58.481
G1 X43.68Y58.459
M3
G1 F100 S1000
G4 P0.2
G1 S0
G0
M3
G0 X45.551Y58.94
M3
G1 F100 S1000
G4 P0.25
G1 S0
G0
M3
G1 X45.673Y58.833S1000F2000
G1 X45.815Y58.768
G1 X45.963Y58.747
G1 X46.07Y58.758
G1 X46.169Y58.792
G1 X46.261Y58.847
G1 X46.344Y58.926
G1 X46.414Y59.023
G1 X46.464Y59.137
G1 X46.494Y59.266
G1 Y59.412
G1 Y59.552
G1 X46.464Y59.676
G1 X46.415Y59.785
G1 X46.346Y59.878
G1 X46.262Y59.952
G1 X46.168Y60.005
G1 X46.064Y60.037
G1 X45.949Y60.048
G1 X45.835Y60.037
G1 X45.73Y60.005
G1 X45.634Y59.952
G1 X45.547Y59.878
G1 X45.475Y59.786
G1 X45.423Y59.681
G1 X45.392Y59.563
G1 X45.382Y59.431
G1 X45.401Y59.254
G1 X45.458Y59.085
G1 X45.551Y58.94
M3
G1 F100 S1000
G4 P0.2
G1 S0
G0
M3
G0 X45.255Y58.781
M3
G1 F100 S1000
G4 P0.25
G1 S0
G0
M3
G1 X45.134Y58.968S1000F2000
G1 X45.048Y59.207
G1 X44.996Y59.498
G1 X44.979Y59.842
G1 X44.998Y60.227
G1 X45.055Y60.555
G1 X45.151Y60.828
G1 X45.284Y61.043
G1 X45.429Y61.186
G1 X45.597Y61.288
G1 X45.788Y61.35
G1 X46.002Y61.37
G1 X46.163Y61.358
G1 X46.308Y61.323
G1 X46.438Y61.264
G1 X46.553Y61.181
G1 X46.65Y61.078
G1 X46.725Y60.957
G1 X46.779Y60.818
G1 X46.811Y60.66
G1 X46.463Y60.633
G1 X46.406Y60.811
G1 X46.331Y60.933
G1 X46.256Y60.998
G1 X46.172Y61.045
G1 X46.081Y61.073
G1 X45.981
G1 X45.824Y61.059
G1 X45.687Y60.989
G1 X45.539Y60.841
G1 X45.426Y60.637
G1 X45.384Y60.509
G1 X45.354Y60.356
G1 X45.335Y60.179
G1 Y59.978
G1 X45.468Y60.145
G1 X45.636Y60.264
G1 X45.824Y60.334
G1 X46.02Y60.357
G1 X46.188Y60.341
G1 X46.344Y60.293
G1 X46.486Y60.212
G1 X46.616Y60.099
G1 X46.723Y59.961
G1 X46.8Y59.804
G1 X46.846Y59.628
G1 X46.862Y59.433
G1 X46.833Y59.174
G1 X46.746Y58.934
G1 X46.608Y58.731
G1 X46.428Y58.582
G1 X46.212Y58.49
G1 X45.969Y58.459
G1 X45.76Y58.479
G1 X45.572Y58.539
G1 X45.403Y58.64
G1 X45.255Y58.781
M3
G1 F100 S1000
G4 P0.2
G1 S0
G0
M3
G0 X47.647Y58.508
M3
G1 F100 S1000
G4 P0.25
G1 S0
G0
M3
G1 X47.683Y58.879S1000F2000
G1 X47.779Y59.32
G1 X47.933Y59.788
G1 X48.142Y60.239
G1 X48.386Y60.647
G1 X48.644Y60.985
G1 X47.248
G1 Y61.321
G1 X49.094
G1 Y61.049
G1 X48.823Y60.712
G1 X48.554Y60.279
G1 X48.317Y59.792
G1 X48.141Y59.291
G1 X48.055Y58.916
G1 X48.007Y58.508
G1 X47.647
M3
G1 F100 S1000
G4 P0.2
G1 S0
G0
M3
G0 X49.882Y59.04
M3
G1 F100 S1000
G4 P0.25
G1 S0
G0
M3
G1 X49.97Y58.916S1000F2000
G1 X50.093Y58.824
G1 X50.238Y58.766
G1 X50.394Y58.747
G1 X50.514
G1 X50.623Y58.787
G1 X50.721Y58.838
G1 X50.809Y58.908
G1 X50.88Y58.994
G1 X50.931Y59.092
G1 X50.962Y59.2
G1 Y59.319
G1 Y59.439
G1 X50.93Y59.549
G1 X50.877Y59.649
G1 X50.804Y59.737
G1 X50.714Y59.809
G1 X50.614Y59.861
G1 X50.504Y59.892
G1 X50.383
G1 X50.265
G1 X50.157Y59.861
G1 X50.06Y59.81
G1 X49.973Y59.739
G1 X49.902Y59.652
G1 X49.852Y59.555
G1 X49.821Y59.448
G1 Y59.33
G1 Y59.183
G1 X49.882Y59.04
M3
G1 F100 S1000
G4 P0.2
G1 S0
G0
M3
G0 X50.392Y60.188
M3
G1 F100 S1000
G4 P0.25
G1 S0
G0
M3
G1 X50.576Y60.22S1000F2000
G1 X50.724Y60.315
G1 X50.821Y60.457
G1 X50.853Y60.627
G1 X50.82Y60.804
G1 X50.72Y60.951
G1 X50.571Y61.049
G1 X50.389Y61.082
G1 X50.205Y61.05
G1 X50.056Y60.954
G1 X49.957Y60.813
G1 X49.924Y60.647
G1 X49.956Y60.463
G1 X50.054Y60.316
G1 X50.204Y60.22
G1 X50.392Y60.188
M3
G1 F100 S1000
G4 P0.2
G1 S0
G0
M3
G0 X49.994Y60.054
M3
G1 F100 S1000
G4 P0.25
G1 S0
G0
M3
G1 X49.804Y60.15S1000F2000
G1 X49.671Y60.281
G1 X49.592Y60.443
G1 X49.566Y60.635
G1 X49.58Y60.784
G1 X49.622Y60.921
G1 X49.692Y61.046
G1 X49.79Y61.158
G1 X49.911Y61.251
G1 X50.05Y61.317
G1 X50.208Y61.357
G1 X50.385Y61.37
G1 X50.562Y61.357
G1 X50.722Y61.316
G1 X50.863Y61.248
G1 X50.986Y61.153
G1 X51.085Y61.039
G1 X51.156Y60.913
G1 X51.199Y60.775
G1 X51.213Y60.625
G1 X51.187Y60.44
G1 X51.109Y60.28
G1 X50.978Y60.15
G1 X50.793Y60.054
G1 X50.916Y60.004
G1 X51.024Y59.942
G1 X51.116Y59.866
G1 X51.193Y59.777
G1 X51.253Y59.678
G1 X51.295Y59.568
G1 X51.321Y59.45
G1 Y59.322
G1 Y59.147
G1 X51.265Y58.986
G1 X51.184Y58.84
G1 X51.071Y58.708
G1 X50.932Y58.599
G1 X50.772Y58.521
G1 X50.591Y58.475
G1 X50.39Y58.459
G1 X50.19Y58.475
G1 X50.009Y58.521
G1 X49.849Y58.6
G1 X49.71Y58.709
G1 X49.597Y58.842
G1 X49.516Y58.99
G1 X49.467Y59.153
G1 X49.451Y59.332
G1 Y59.466
G1 X49.486Y59.588
G1 X49.531Y59.698
G1 X49.592Y59.798
G1 X49.67Y59.884
G1 X49.763Y59.956
G1 X49.871Y60.012
G1 X49.994Y60.054
M3
G1 F100 S1000
G4 P0.2
G1 S0
G0
M3
G0 X52.055Y60.266
M3
G1 F100 S1000
G4 P0.25
G1 S0
G0
M3
G1 X52.086Y60.149S1000F2000
G1 X52.138Y60.045
G1 X52.209Y59.953
G1 X52.296Y59.879
G1 X52.393Y59.826
G1 X52.499Y59.794
G1 X52.615Y59.783
G1 X52.731Y59.794
G1 X52.836Y59.826
G1 X52.931Y59.879
G1 X53.014Y59.953
G1 X53.083Y60.047
G1 X53.132Y60.156
G1 X53.161Y60.283
G1 X53.171Y60.425
G1 Y60.568
G1 X53.131Y60.695
G1 X53.081Y60.807
G1 X53.011Y60.903
G1 X52.926Y60.981
G1 X52.834Y61.036
G1 X52.733Y61.069
G1 X52.625Y61.08
G1 X52.512Y61.068
G1 X52.406Y61.033
G1 X52.308Y60.973
G1 X52.218Y60.89
G1 X52.142Y60.787
G1 X52.088Y60.671
G1 X52.056Y60.54
G1 X52.045Y60.396
G1 X52.055Y60.266
M3
G1 F100 S1000
G4 P0.2
G1 S0
G0
M3
G0 X51.701Y60.208
M3
G1 F100 S1000
G4 P0.25
G1 S0
G0
M3
G1 X51.685Y60.408S1000F2000
G1 X51.701Y60.614
G1 X51.749Y60.799
G1 X51.829Y60.963
G1 X51.941Y61.106
G1 X52.077Y61.221
G1 X52.229Y61.304
G1 X52.397Y61.354
G1 X52.582Y61.37
G1 X52.718
G1 X52.848Y61.333
G1 X52.972Y61.286
G1 X53.09Y61.22
G1 X53.199Y61.138
G1 X53.293Y61.039
G1 X53.374Y60.924
G1 X53.44Y60.794
G1 X53.493Y60.639
G1 X53.53Y60.454
G1 X53.552Y60.238
G1 Y59.991
G1 Y59.732
G1 X53.53Y59.501
G1 X53.493Y59.297
G1 X53.441Y59.121
G1 X53.375Y58.969
G1 X53.294Y58.836
G1 X53.198Y58.722
G1 X53.088Y58.628
G1 X52.966Y58.554
G1 X52.834Y58.501
G1 X52.692Y58.47
G1 X52.539Y58.459
G1 X52.379Y58.471
G1 X52.235Y58.505
G1 X52.106Y58.563
G1 X51.993Y58.645
G1 X51.897Y58.747
G1 X51.823Y58.868
G1 X51.77Y59.008
G1 X51.738Y59.167
G1 X52.074Y59.198
G1 X52.137Y58.993
G1 X52.238Y58.854
G1 X52.375Y58.774
G1 X52.547Y58.747
G1 X52.698Y58.765
G1 X52.83Y58.821
G1 X52.94Y58.907
G1 X53.029Y59.018
G1 X53.101Y59.163
G1 X53.159Y59.352
G1 X53.199Y59.564
G1 X53.212Y59.779
G1 Y59.849
G1 X53.086Y59.698
G1 X52.923Y59.578
G1 X52.734Y59.5
G1 X52.529Y59.474
G1 X52.359Y59.49
G1 X52.203Y59.538
G1 X52.06Y59.618
G1 X51.93Y59.731
G1 X51.823Y59.869
G1 X51.747Y60.028
G1 X51.701Y60.208
M3
G1 F100 S1000
G4 P0.2
G1 S0
G0
M3
G0 X54.287Y60.237
M3
G1 F100 S1000
G4 P0.25
G1 S0
G0
M3
G1 X54.275Y59.914S1000F2000
G1 X54.286Y59.592
G1 X54.316Y59.329
G1 X54.368Y59.125
G1 X54.44Y58.979
G1 X54.527Y58.878
G1 X54.623Y58.805
G1 X54.729Y58.761
G1 X54.845Y58.747
G1 X54.961Y58.761
G1 X55.067Y58.805
G1 X55.164Y58.878
G1 X55.251Y58.98
G1 X55.322Y59.126
G1 X55.374Y59.33
G1 X55.405Y59.593
G1 Y59.914
G1 Y60.236
G1 X55.374Y60.499
G1 X55.322Y60.704
G1 X55.251Y60.849
G1 X55.163Y60.95
G1 X55.066Y61.022
G1 X54.959Y61.066
G1 X54.841Y61.08
G1 X54.727Y61.068
G1 X54.624Y61.029
G1 X54.534Y60.965
G1 X54.456Y60.876
G1 X54.377Y60.718
G1 X54.321Y60.505
G1 X54.287Y60.237
M3
G1 F100 S1000
G4 P0.2
G1 S0
G0
M3
G0 X53.922Y60.154
M3
G1 F100 S1000
G4 P0.25
G1 S0
G0
M3
G1 X53.942Y60.37S1000F2000
G1 X53.974Y60.561
G1 X54.02Y60.727
G1 X54.078Y60.873
G1 X54.149Y61
G1 X54.233Y61.11
G1 X54.329Y61.203
G1 X54.438Y61.276
G1 X54.56Y61.328
G1 X54.696Y61.36
G1 X54.845Y61.37
G1 X55.06Y61.347
G1 X55.248Y61.278
G1 X55.406Y61.165
G1 X55.533Y61.011
G1 X55.634Y60.818
G1 X55.71Y60.587
G1 X55.759Y60.294
G1 X55.775Y59.914
G1 Y59.675
G1 X55.749Y59.46
G1 X55.717Y59.27
G1 X55.672Y59.104
G1 X55.614Y58.958
G1 X55.543Y58.83
G1 X55.46Y58.72
G1 X55.363Y58.627
G1 X55.254Y58.554
G1 X55.131Y58.501
G1 X54.995Y58.47
G1 X54.845Y58.459
G1 X54.65Y58.478
G1 X54.477Y58.533
G1 X54.326Y58.625
G1 X54.198Y58.755
G1 X54.074Y58.96
G1 X53.986Y59.222
G1 X53.933Y59.54
G1 X53.916Y59.914
G1 Y60.154
M3
G1 F100 S1000
G4 P0.2
G1 S0
G0
M3
G0 X56.323Y60.726
M3
G1 F100 S1000
G4 P0.25
G1 S0
G0
M3
G1 Y61.358S1000F2000
G1 X56.756
G1 Y60.726
G1 X56.655Y59.215
G1 X56.43
G1 X56.323Y60.726
M3
G1 F100 S1000
G4 P0.2
G1 S0
G0
M3
G0 X57.278Y60.892
M3
G1 F100 S1000
G4 P0.25
G1 S0
G0
M3
G1 Y61.358S1000F2000
G1 X57.677
G1 Y60.892
G1 X57.59Y60.349
G1 X57.376
G1 X57.278Y60.892
M3
G1 F100 S1000
G4 P0.2
G1 S0
G0
M3
G0 X57.924Y60.892
M3
G1 F100 S1000
G4 P0.25
G1 S0
G0
M3
G1 Y61.358S1000F2000
G1 X58.323
G1 Y60.892
G1 X58.229Y60.349
G1 X58.019
G1 X57.924Y60.892
M3
G1 F100 S1000
G4 P0.2
G1 S0
G0
M3
G0 X58.834Y60.785
M3
G1 F100 S1000
G4 P0.25
G1 S0
G0
M3
G1 X58.89Y60.954S1000F2000
G1 X58.984Y61.101
G1 X59.115Y61.226
G1 X59.242Y61.305
G1 X59.381Y61.362
G1 X59.533Y61.396
G1 X59.698Y61.407
G1 X59.866Y61.395
G1 X60.019Y61.359
G1 X60.157Y61.298
G1 X60.279Y61.214
G1 X60.382Y61.107
G1 X60.463Y60.981
G1 X60.522Y60.835
G1 X60.56Y60.67
G1 X60.211Y60.618
G1 X60.153Y60.826
G1 X60.037Y60.985
G1 X59.878Y61.086
G1 X59.69Y61.119
G1 X59.587
G1 X59.493Y61.084
G1 X59.408Y61.041
G1 X59.331Y60.98
G1 X59.269Y60.907
G1 X59.224Y60.827
G1 X59.197Y60.739
G1 Y60.645
G1 X59.216Y60.396
G1 X59.299Y60.081
G1 X59.912
G1 Y59.793
G1 X59.36
G1 X59.387Y59.707
G1 Y59.622
G1 X59.376Y59.448
G1 X59.316Y59.264
G1 X59.209Y59.074
G1 X59.05Y58.879
G1 X59.197Y58.911
G1 X59.331Y58.922
G1 X59.502Y58.91
G1 X59.694Y58.873
G1 X59.848Y58.838
G1 X59.975Y58.813
G1 X60.074Y58.798
G1 X60.147
G1 X60.313Y58.821
G1 X60.521Y58.902
G1 X60.633Y58.582
G1 X60.475Y58.519
G1 X60.356Y58.482
G1 X60.258Y58.465
G1 X60.161
G1 X60.079
G1 X59.996
G1 X59.906Y58.497
G1 X59.58Y58.594
G1 X59.486Y58.618
G1 X59.395Y58.63
G1 X59.303
G1 X59.159
G1 X59.005Y58.585
G1 X58.853Y58.528
G1 X58.716Y58.453
G1 X58.582Y58.79
G1 X58.754Y58.915
G1 X58.899Y59.084
G1 X58.997Y59.297
G1 X59.029Y59.552
G1 Y59.671
G1 X58.996Y59.793
G1 X58.615
G1 Y60.081
G1 X58.914
G1 X58.862Y60.269
G1 X58.833Y60.399
G1 X58.82Y60.498
G1 Y60.594
G1 X58.834Y60.785
M3
G1 F100 S1000
G4 P0.2
G1 S0
G0
M3
G0 X61.312Y60.686
M3
G1 F100 S1000
G4 P0.25
G1 S0
G0
M3
G1 X61.337Y60.521S1000F2000
G1 X61.412Y60.386
G1 X61.547Y60.278
G1 X61.751Y60.194
G1 Y61.162
G1 X61.569Y61.106
G1 X61.429Y60.999
G1 X61.341Y60.854
G1 X61.312Y60.686
M3
G1 F100 S1000
G4 P0.2
G1 S0
G0
M3
G0 X61.957Y59.809
M3
G1 F100 S1000
G4 P0.25
G1 S0
G0
M3
G1 Y58.743S1000F2000
G1 X62.144Y58.8
G1 X62.295Y58.92
G1 X62.395Y59.09
G1 X62.428Y59.295
G1 X62.404Y59.467
G1 X62.334Y59.601
G1 X62.192Y59.711
G1 X61.957Y59.809
M3
G1 F100 S1000
G4 P0.2
G1 S0
G0
M3
G0 X61.751Y59.857
M3
G1 F100 S1000
G4 P0.25
G1 S0
G0
M3
G1 X61.533Y59.919S1000F2000
G1 X61.31Y60.024
G1 X61.162Y60.136
G1 X61.052Y60.283
G1 X60.984Y60.46
G1 X60.962Y60.658
G1 X60.978Y60.836
G1 X61.028Y60.996
G1 X61.111Y61.139
G1 X61.226Y61.263
G1 X61.325Y61.333
G1 X61.446Y61.389
G1 X61.588Y61.429
G1 X61.751Y61.454
G1 Y61.621
G1 X61.957
G1 Y61.454
G1 X62.102Y61.432
G1 X62.231Y61.394
G1 X62.344Y61.342
G1 X62.442Y61.275
G1 X62.545Y61.171
G1 X62.625Y61.049
G1 X62.683Y60.909
G1 X62.718Y60.752
G1 X62.356Y60.697
G1 X62.308Y60.879
G1 X62.227Y61.013
G1 X62.11Y61.104
G1 X61.957Y61.158
G1 Y60.149
G1 X62.177Y60.09
G1 X62.307Y60.046
G1 X62.456Y59.966
G1 X62.574Y59.871
G1 X62.665Y59.758
G1 X62.732Y59.626
G1 X62.774Y59.478
G1 X62.788Y59.319
G1 X62.773Y59.144
G1 X62.73Y58.985
G1 X62.658Y58.841
G1 X62.556Y58.712
G1 X62.432Y58.604
G1 X62.291Y58.525
G1 X62.133Y58.474
G1 X61.957Y58.451
G1 Y58.097
G1 X61.751
G1 Y58.447
G1 X61.513Y58.493
G1 X61.324Y58.565
G1 X61.171Y58.676
G1 X61.041Y58.838
G1 X60.946Y59.048
G1 X60.902Y59.299
G1 X61.253Y59.365
G1 X61.31Y59.121
G1 X61.397Y58.951
G1 X61.475Y58.868
G1 X61.56Y58.806
G1 X61.652Y58.764
G1 X61.751Y58.743
G1 Y59.857
M3
G1 F100 S1000
G4 P0.2
G1 S0
G0
M3
G0 X63.614Y60.253
M3
G1 F100 S1000
G4 P0.25
G1 S0
G0
M3
G1 X63.712Y60.169S1000F2000
G1 X63.83Y60.141
G1 X63.951Y60.169
G1 X64.049Y60.254
G1 X64.086Y60.322
G1 X64.114Y60.413
G1 X64.13Y60.528
G1 Y60.666
G1 X64.113Y60.901
G1 X64.048Y61.054
G1 X63.949Y61.138
G1 X63.83Y61.166
G1 X63.711Y61.138
G1 X63.613Y61.053
G1 X63.575Y60.985
G1 X63.548Y60.893
G1 X63.532Y60.778
G1 Y60.639
G1 X63.548Y60.405
G1 X63.614Y60.253
M3
G1 F100 S1000
G4 P0.2
G1 S0
G0
M3
G0 X63.318Y60.201
M3
G1 F100 S1000
G4 P0.25
G1 S0
G0
M3
G1 X63.264Y60.334S1000F2000
G1 X63.232Y60.492
G1 X63.221Y60.674
G1 Y60.821
G1 X63.26Y60.956
G1 X63.308Y61.08
G1 X63.375Y61.193
G1 X63.46Y61.287
G1 X63.563Y61.354
G1 X63.683Y61.394
G1 X63.82Y61.407
G1 X63.949Y61.395
G1 X64.065Y61.359
G1 X64.171Y61.299
G1 X64.264Y61.215
G1 X64.341Y61.108
G1 X64.396Y60.979
G1 X64.429Y60.827
G1 X64.44Y60.653
G1 X64.429Y60.482
G1 X64.396Y60.332
G1 X64.34Y60.204
G1 X64.263Y60.095
G1 X64.168Y60.01
G1 X64.064Y59.949
G1 X63.949Y59.912
G1 X63.824Y59.9
G1 X63.7Y59.912
G1 X63.587Y59.948
G1 X63.485Y60.008
G1 X63.393Y60.092
G1 X63.318Y60.201
M3
G1 F100 S1000
G4 P0.2
G1 S0
G0
M3
G0 X65.457Y59.556
M3
G1 F100 S1000
G4 P0.25
G1 S0
G0
M3
G1 X65.419Y59.488S1000F2000
G1 X65.392Y59.396
G1 X65.375Y59.281
G1 Y59.142
G1 X65.392Y58.909
G1 X65.457Y58.757
G1 X65.555Y58.672
G1 X65.673Y58.644
G1 X65.796Y58.672
G1 X65.894Y58.757
G1 X65.932Y58.825
G1 X65.959Y58.916
G1 X65.975Y59.031
G1 Y59.169
G1 X65.959Y59.404
G1 X65.893Y59.557
G1 X65.795Y59.641
G1 X65.675Y59.669
G1 X65.554Y59.64
G1 X65.457Y59.556
M3
G1 F100 S1000
G4 P0.2
G1 S0
G0
M3
G0 X65.151Y59.584
M3
G1 F100 S1000
G4 P0.25
G1 S0
G0
M3
G1 X65.218Y59.697S1000F2000
G1 X65.304Y59.79
G1 X65.407Y59.856
G1 X65.527Y59.896
G1 X65.666Y59.91
G1 X65.794Y59.898
G1 X65.911Y59.862
G1 X66.016Y59.802
G1 X66.11Y59.718
G1 X66.187Y59.611
G1 X66.242Y59.482
G1 X66.275Y59.33
G1 X66.286Y59.155
G1 X66.275Y58.985
G1 X66.241Y58.835
G1 X66.186Y58.706
G1 X66.108Y58.598
G1 X66.014Y58.513
G1 X65.909Y58.451
G1 X65.793Y58.415
G1 X65.668Y58.403
G1 X65.544Y58.415
G1 X65.431Y58.451
G1 X65.328Y58.511
G1 X65.237Y58.596
G1 X65.161Y58.705
G1 X65.108Y58.838
G1 X65.075Y58.995
G1 X65.065Y59.177
G1 Y59.324
G1 X65.103Y59.46
G1 X65.151Y59.584
M3
G1 F100 S1000
G4 P0.2
G1 S0
G0
M3
G0 X66.639Y59.849
M3
G1 F100 S1000
G4 P0.25
G1 S0
G0
M3
G1 X67.326Y61.407S1000F2000
G1 X67.608
G1 X68.298Y59.849
G1 X67.946
G1 X67.466Y61.01
G1 X66.999Y59.849
G1 X66.639
M3
G1 F100 S1000
G4 P0.2
G1 S0
G0
M3
G0 X68.82Y59.457
M3
G1 F100 S1000
G4 P0.25
G1 S0
G0
M3
G1 X68.795Y59.315S1000F2000
G1 X68.83Y59.138
G1 X68.933Y58.955
G1 X69.009Y58.873
G1 X69.1Y58.815
G1 X69.205Y58.78
G1 X69.324Y58.768
G1 X69.484Y58.793
G1 X69.65Y58.866
G1 X69.801Y58.979
G1 X69.919Y59.12
G1 X69.277Y59.916
G1 X69.04Y59.752
G1 X68.894Y59.601
G1 X68.82Y59.457
M3
G1 F100 S1000
G4 P0.2
G1 S0
G0
M3
G0 X69.427Y60.33
M3
G1 F100 S1000
G4 P0.25
G1 S0
G0
M3
G1 X69.615Y60.456S1000F2000
G1 X69.722Y60.565
G1 X69.772Y60.672
G1 X69.789Y60.789
G1 X69.766Y60.921
G1 X69.696Y61.027
G1 X69.593Y61.096
G1 X69.466Y61.119
G1 X69.336Y61.096
G1 X69.23Y61.028
G1 X69.159Y60.926
G1 X69.135Y60.804
G1 Y60.736
G1 X69.169Y60.665
G1 X69.212Y60.59
G1 X69.272Y60.511
G1 X69.427Y60.33
M3
G1 F100 S1000
G4 P0.2
G1 S0
G0
M3
G0 X69.608Y60.104
M3
G1 F100 S1000
G4 P0.25
G1 S0
G0
M3
G1 X70.119Y59.453S1000F2000
G1 X70.197Y59.637
G1 X70.256Y59.849
G1 X70.619Y59.772
G1 X70.509Y59.431
G1 X70.366Y59.157
G1 X70.576Y58.917
G1 X70.812Y58.72
G1 X70.576Y58.442
G1 X70.361Y58.61
G1 X70.139Y58.844
G1 X69.958Y58.676
G1 X69.762Y58.555
G1 X69.549Y58.483
G1 X69.32Y58.459
G1 X69.113Y58.478
G1 X68.928Y58.533
G1 X68.766Y58.625
G1 X68.626Y58.755
G1 X68.535Y58.879
G1 X68.47Y59.01
G1 X68.431Y59.148
G1 X68.418Y59.293
G1 X68.428Y59.422
G1 X68.46Y59.545
G1 X68.514Y59.661
G1 X68.588Y59.771
G1 X68.8Y59.971
G1 X69.097Y60.145
G1 X68.936Y60.346
G1 X68.84Y60.505
G1 X68.792Y60.64
G1 X68.776Y60.771
G1 X68.788Y60.895
G1 X68.826Y61.011
G1 X68.889Y61.118
G1 X68.977Y61.217
G1 X69.084Y61.3
G1 X69.204Y61.36
G1 X69.337Y61.395
G1 X69.484Y61.407
G1 X69.623Y61.396
G1 X69.749Y61.362
G1 X69.861Y61.306
G1 X69.961Y61.228
G1 X70.042Y61.134
G1 X70.1Y61.031
G1 X70.135Y60.919
G1 X70.147Y60.798
G1 X70.113Y60.603
G1 X70.012Y60.422
G1 X69.844Y60.255
G1 X69.608Y60.104
M3
G1 F100 S1000
G4 P0.2
G1 S0
G0
M3
G0 X71.193Y60.359
M3
G1 F100 S1000
G4 P0.25
G1 S0
G0
M3
G1 X71.298Y60.486S1000F2000
G1 X71.387Y60.59
G1 X71.459Y60.67
G1 X71.516Y60.726
G1 X71.271Y60.778
G1 X71.039Y60.835
G1 X71.129Y61.111
G1 X71.396Y61.01
G1 X71.578Y60.923
G1 X71.55Y61.22
G1 Y61.327
G1 X71.539Y61.407
G1 X71.821
G1 X71.807Y61.19
G1 X71.776Y60.925
G1 X71.991Y61.022
G1 X72.235Y61.111
G1 X72.325Y60.835
G1 X72.08Y60.767
G1 X71.841Y60.726
G1 X71.984Y60.583
G1 X72.175Y60.359
G1 X71.942Y60.194
G1 X71.819Y60.375
G1 X71.675Y60.612
G1 X71.54Y60.37
G1 X71.423Y60.194
G1 X71.193Y60.359
M3
G1 F100 S1000
G4 P0.2
G1 S0
G0
M3
G0 X72.794Y60.213
M3
G1 F100 S1000
G4 P0.25
G1 S0
G0
M3
G1 X72.859Y60.427S1000F2000
G1 X72.959Y60.673
G1 X73.082Y60.918
G1 X73.229Y61.163
G1 X73.4Y61.407
G1 X73.651
G1 X73.543Y61.219
G1 X73.455Y61.06
G1 X73.387Y60.93
G1 X73.339Y60.829
G1 X73.233Y60.555
G1 X73.153Y60.269
G1 X73.09Y59.905
G1 X73.069Y59.538
G1 X73.105Y59.071
G1 X73.214Y58.603
G1 X73.396Y58.136
G1 X73.651Y57.67
G1 X73.4
G1 X73.132Y58.066
G1 X72.91Y58.525
G1 X72.822Y58.772
G1 X72.759Y59.024
G1 X72.722Y59.28
G1 X72.709Y59.54
G1 Y59.769
G1 X72.747Y59.993
G1 X72.794Y60.213
M3
G1 F100 S1000
G4 P0.2
G1 S0
G0
M3
G0 X74.442Y60.549
M3
G1 F100 S1000
G4 P0.25
G1 S0
G0
M3
G1 X74.337Y60.824S1000F2000
G1 X74.289Y60.926
G1 X74.22Y61.057
G1 X74.132Y61.217
G1 X74.024Y61.407
G1 X74.274
G1 X74.445Y61.163
G1 X74.592Y60.918
G1 X74.716Y60.673
G1 X74.815Y60.427
G1 X74.881Y60.213
G1 X74.927Y59.993
G1 X74.955Y59.769
G1 Y59.54
G1 Y59.28
G1 X74.914Y59.024
G1 X74.852Y58.772
G1 X74.764Y58.525
G1 X74.541Y58.066
G1 X74.274Y57.67
G1 X74.024
G1 X74.278Y58.136
G1 X74.46Y58.603
G1 X74.569Y59.071
G1 X74.605Y59.538
G1 X74.584Y59.902
G1 X74.521Y60.264
G1 X74.442Y60.549
M3
G1 F100 S1000
G4 P0.2
G1 S0
G0
M3
G0 X74.026Y62.582
M3
G1 F100 S1000
G4 P0.25
G1 S0
G0
M3
G1 X73.83Y62.572S1000F2000
G1 X73.638
G1 X73.465Y62.606
G1 X73.311Y62.65
G1 X73.174Y62.71
G1 X73.056Y62.787
G1 X72.956Y62.879
G1 X72.874Y62.987
G1 X72.811Y63.11
G1 X72.763Y63.252
G1 X72.729Y63.419
G1 X72.708Y63.61
G1 Y63.824
G1 Y65.471
G1 X73.079
G1 Y63.826
G1 Y63.653
G1 X73.096Y63.504
G1 X73.118Y63.379
G1 X73.148Y63.279
G1 X73.242Y63.123
G1 X73.385Y63.007
G1 X73.572Y62.936
G1 X73.796Y62.912
G1 X73.99Y62.924
G1 X74.153Y62.959
G1 X74.286Y63.018
G1 X74.39Y63.101
G1 X74.467Y63.217
G1 X74.522Y63.376
G1 X74.555Y63.58
G1 X74.567Y63.826
G1 Y65.471
G1 X74.944
G1 Y63.824
G1 Y63.62
G1 X74.919Y63.439
G1 X74.889Y63.279
G1 X74.847Y63.142
G1 X74.788Y63.021
G1 X74.71Y62.912
G1 X74.613Y62.816
G1 X74.496Y62.73
G1 X74.359Y62.661
G1 X74.202Y62.612
G1 X74.026Y62.582
M3
G1 F100 S1000
G4 P0.2
G1 S0
G0
M3
G0 X71.329Y62.62
M3
G1 F100 S1000
G4 P0.25
G1 S0
G0
M3
G1 X70.952S1000F2000
G1 Y65.135
G1 X70.013
G1 Y65.471
G1 X72.272
G1 Y65.135
G1 X71.329
G1 Y62.62
M3
G1 F100 S1000
G4 P0.2
G1 S0
G0
M3
G0 X69.569Y62.997
M3
G1 F100 S1000
G4 P0.25
G1 S0
G0
M3
G1 X69.41Y62.818S1000F2000
G1 X69.195Y62.684
G1 X68.935Y62.6
G1 X68.645Y62.572
G1 X68.29Y62.6
G1 X67.997Y62.685
G1 X67.873Y62.748
G1 X67.764Y62.826
G1 X67.668Y62.918
G1 X67.587Y63.024
G1 X67.521Y63.141
G1 X67.473Y63.265
G1 X67.443Y63.397
G1 X67.43Y63.536
G1 X67.786Y63.568
G1 X67.828Y63.373
G1 X67.904Y63.217
G1 X68.021Y63.093
G1 X68.19Y62.995
G1 X68.397Y62.931
G1 X68.628Y62.91
G1 X68.831Y62.926
G1 X69.009Y62.974
G1 X69.153Y63.05
G1 X69.255Y63.15
G1 X69.316Y63.267
G1 X69.336Y63.394
G1 X69.316Y63.52
G1 X69.258Y63.629
G1 X69.155Y63.721
G1 X69.001Y63.797
G1 X68.926Y63.822
G1 X68.817Y63.854
G1 X68.673Y63.892
G1 X68.312Y63.983
G1 X68.16Y64.028
G1 X68.037Y64.071
G1 X67.943Y64.114
G1 X67.765Y64.234
G1 X67.639Y64.379
G1 X67.564Y64.547
G1 X67.539Y64.734
G1 X67.57Y64.943
G1 X67.661Y65.138
G1 X67.812Y65.303
G1 X68.019Y65.423
G1 X68.268Y65.496
G1 X68.542Y65.52
G1 X68.841Y65.494
G1 X69.101Y65.418
G1 X69.316Y65.292
G1 X69.474Y65.117
G1 X69.574Y64.906
G1 X69.614Y64.668
G1 X69.252Y64.641
G1 X69.229Y64.768
G1 X69.188Y64.878
G1 X69.13Y64.972
G1 X69.055Y65.049
G1 X68.961Y65.11
G1 X68.846Y65.153
G1 X68.712Y65.179
G1 X68.558
G1 X68.398
G1 X68.262Y65.156
G1 X68.149Y65.117
G1 X68.059Y65.062
G1 X67.991Y64.996
G1 X67.942Y64.924
G1 X67.912Y64.845
G1 Y64.76
G1 X67.93Y64.62
G1 X68.013Y64.507
G1 X68.09Y64.457
G1 X68.21Y64.406
G1 X68.374Y64.355
G1 X68.582Y64.304
G1 X68.794Y64.253
G1 X68.97Y64.206
G1 X69.11Y64.162
G1 X69.213Y64.122
G1 X69.43Y63.992
G1 X69.581Y63.831
G1 X69.67Y63.642
G1 X69.699Y63.426
G1 X69.667Y63.205
G1 X69.569Y62.997
M3
G1 F100 S1000
G4 P0.2
G1 S0
G0
M3
G0 X66.418Y64.336
M3
G1 F100 S1000
G4 P0.25
G1 S0
G0
M3
G1 X66.511Y64.438S1000F2000
G1 X66.568Y64.56
G1 X66.587Y64.693
G1 Y64.79
G1 X66.55Y64.878
G1 X66.504Y64.956
G1 X66.44Y65.026
G1 X66.356Y65.083
G1 X66.251Y65.124
G1 X66.124Y65.148
G1 X65.976
G1 X65.074
G1 Y64.213
G1 X65.885
G1 X66.115Y64.227
G1 X66.289Y64.267
G1 X66.418Y64.336
M3
G1 F100 S1000
G4 P0.2
G1 S0
G0
M3
G0 X66.779Y64.182
M3
G1 F100 S1000
G4 P0.25
G1 S0
G0
M3
G1 X66.668Y64.087S1000F2000
G1 X66.53Y64.012
G1 X66.364Y63.955
G1 X66.173Y63.918
G1 X66.304Y63.846
G1 X66.4Y63.776
G1 X66.561Y63.605
G1 X66.713Y63.396
G1 X67.209Y62.62
G1 X66.735
G1 X66.357Y63.214
G1 X66.207Y63.44
G1 X66.085Y63.606
G1 X65.984Y63.722
G1 X65.894Y63.797
G1 X65.808Y63.843
G1 X65.722Y63.873
G1 X65.637Y63.883
G1 X65.512
G1 X65.074
G1 Y62.62
G1 X64.697
G1 Y65.471
G1 X65.961
G1 X66.296Y65.452
G1 X66.54Y65.394
G1 X66.719Y65.288
G1 X66.857Y65.123
G1 X66.946Y64.919
G1 X66.976Y64.693
G1 X66.964Y64.548
G1 X66.927Y64.414
G1 X66.865Y64.292
G1 X66.779Y64.182
M3
G1 F100 S1000
G4 P0.2
G1 S0
G0
M3
G0 X63.786Y64.048
M3
G1 F100 S1000
G4 P0.25
G1 S0
G0
M3
G1 X63.756Y64.372S1000F2000
G1 X63.668Y64.653
G1 X63.603Y64.775
G1 X63.523Y64.882
G1 X63.43Y64.975
G1 X63.324Y65.054
G1 X63.207Y65.117
G1 X63.084Y65.161
G1 X62.953Y65.188
G1 X62.815
G1 X62.613
G1 X62.429Y65.125
G1 X62.263Y65.035
G1 X62.115Y64.908
G1 X61.994Y64.746
G1 X61.907Y64.548
G1 X61.855Y64.315
G1 X61.837Y64.046
G1 X61.855Y63.784
G1 X61.906Y63.554
G1 X61.992Y63.357
G1 X62.113Y63.192
G1 X62.26Y63.062
G1 X62.426Y62.969
G1 X62.611Y62.913
G1 X62.815Y62.895
G1 X63.012Y62.914
G1 X63.197Y62.971
G1 X63.015Y63.069
G1 X62.823Y63.134
G1 X62.915Y63.408
G1 X63.213Y63.294
G1 X63.453Y63.136
G1 X63.599Y63.307
G1 X63.703Y63.516
G1 X63.765Y63.763
G1 X63.786Y64.048
M3
G1 F100 S1000
G4 P0.2
G1 S0
G0
M3
G0 X64.175Y64.048
M3
G1 F100 S1000
G4 P0.25
G1 S0
G0
M3
G1 X64.148Y63.714S1000F2000
G1 X64.068Y63.415
G1 X63.934Y63.152
G1 X63.745Y62.926
G1 X63.997Y62.769
G1 X64.229Y62.661
G1 X64.118Y62.399
G1 X63.812Y62.542
G1 X63.506Y62.749
G1 X63.343Y62.671
G1 X63.172Y62.616
G1 X62.993Y62.583
G1 X62.806Y62.572
G1 X62.617Y62.584
G1 X62.437Y62.619
G1 X62.266Y62.677
G1 X62.104Y62.759
G1 X61.955Y62.861
G1 X61.825Y62.983
G1 X61.713Y63.124
G1 X61.619Y63.284
G1 X61.544Y63.458
G1 X61.491Y63.643
G1 X61.459Y63.839
G1 X61.448Y64.046
G1 X61.459Y64.252
G1 X61.491Y64.449
G1 X61.545Y64.636
G1 X61.62Y64.814
G1 X61.714Y64.977
G1 X61.827Y65.119
G1 X61.958Y65.24
G1 X62.107Y65.341
G1 X62.269Y65.42
G1 X62.441Y65.477
G1 X62.623Y65.511
G1 X62.814Y65.522
G1 X63.006Y65.51
G1 X63.189Y65.475
G1 X63.362Y65.416
G1 X63.525Y65.334
G1 X63.674Y65.231
G1 X63.805Y65.109
G1 X63.916Y64.968
G1 X64.008Y64.809
G1 X64.081Y64.635
G1 X64.133Y64.45
G1 X64.164Y64.254
G1 X64.175Y64.048
M3
G1 F100 S1000
G4 P0.2
G1 S0
G0
M3
G0 X60.694Y64.519
M3
G1 F100 S1000
G4 P0.25
G1 S0
G0
M3
G1 Y64.635S1000F2000
G1 X60.681Y64.801
G1 X60.613Y64.941
G1 X60.508Y65.047
G1 X60.375Y65.11
G1 X60.239Y65.129
G1 X60.023
G1 X59.293
G1 Y64.116
G1 X60.03
G1 X60.2
G1 X60.343Y64.15
G1 X60.46Y64.192
G1 X60.55Y64.252
G1 X60.617Y64.327
G1 X60.665Y64.416
G1 X60.694Y64.519
M3
G1 F100 S1000
G4 P0.2
G1 S0
G0
M3
G0 X61.078Y64.472
M3
G1 F100 S1000
G4 P0.25
G1 S0
G0
M3
G1 X61.034Y64.311S1000F2000
G1 X60.962Y64.164
G1 X60.861Y64.031
G1 X60.722Y63.921
G1 X60.536Y63.842
G1 X60.304Y63.795
G1 X60.025Y63.779
G1 X59.293
G1 Y62.62
G1 X58.916
G1 Y65.471
G1 X59.992
G1 X60.242
G1 X60.425Y65.444
G1 X60.618Y65.393
G1 X60.777Y65.311
G1 X60.905Y65.193
G1 X61.006Y65.036
G1 X61.071Y64.85
G1 X61.092Y64.647
G1 X61.078Y64.472
M3
G1 F100 S1000
G4 P0.2
G1 S0
G0
M3
G0 X58.003Y64.37
M3
G1 F100 S1000
G4 P0.25
G1 S0
G0
M3
G1 X57.915Y64.652S1000F2000
G1 X57.849Y64.774
G1 X57.77Y64.882
G1 X57.677Y64.975
G1 X57.571Y65.054
G1 X57.454Y65.117
G1 X57.33Y65.161
G1 X57.2Y65.188
G1 X57.062
G1 X56.869
G1 X56.69Y65.128
G1 X56.524Y65.042
G1 X56.373Y64.922
G1 X56.246Y64.761
G1 X56.156Y64.555
G1 X56.102Y64.302
G1 X56.084Y64.003
G1 X56.101Y63.759
G1 X56.153Y63.542
G1 X56.24Y63.353
G1 X56.361Y63.191
G1 X56.509Y63.062
G1 X56.674Y62.969
G1 X56.856Y62.913
G1 X57.056Y62.895
G1 X57.26Y62.913
G1 X57.445Y62.97
G1 X57.61Y63.063
G1 X57.757Y63.194
G1 X57.878Y63.36
G1 X57.964Y63.556
G1 X58.015Y63.784
G1 X58.033Y64.044
G1 X58.003Y64.37
M3
G1 F100 S1000
G4 P0.2
G1 S0
G0
M3
G0 X58.38Y64.447
M3
G1 F100 S1000
G4 P0.25
G1 S0
G0
M3
G1 X58.411Y64.25S1000F2000
G1 X58.421Y64.042
G1 X58.411Y63.831
G1 X58.378Y63.631
G1 X58.323Y63.443
G1 X58.246Y63.266
G1 X58.15Y63.105
G1 X58.035Y62.965
G1 X57.902Y62.846
G1 X57.751Y62.748
G1 X57.587Y62.671
G1 X57.417Y62.616
G1 X57.241Y62.583
G1 X57.058Y62.572
G1 X56.862Y62.584
G1 X56.677Y62.62
G1 X56.503Y62.681
G1 X56.339Y62.766
G1 X56.19Y62.872
G1 X56.06Y62.996
G1 X55.95Y63.138
G1 X55.858Y63.297
G1 X55.787Y63.468
G1 X55.736Y63.643
G1 X55.705Y63.824
G1 Y64.009
G1 X55.719Y64.345
G1 X55.79Y64.642
G1 X55.91Y64.9
G1 X56.076Y65.12
G1 X56.281Y65.296
G1 X56.513Y65.421
G1 X56.773Y65.497
G1 X57.06Y65.522
G1 X57.253Y65.51
G1 X57.436Y65.475
G1 X57.609Y65.416
G1 X57.772Y65.333
G1 X57.921Y65.23
G1 X58.051Y65.107
G1 X58.163Y64.967
G1 X58.255Y64.807
G1 X58.328Y64.633
G1 X58.38Y64.447
M3
G1 F100 S1000
G4 P0.2
G1 S0
G0
M3
G0 X55.185Y65.471
M3
G1 F100 S1000
G4 P0.25
G1 S0
G0
M3
G1 Y62.62S1000F2000
G1 X54.798
G1 X53.3Y64.861
G1 Y62.62
G1 X52.939
G1 Y65.471
G1 X53.326
G1 X54.823Y63.233
G1 Y65.471
G1 X55.185
M3
G1 F100 S1000
G4 P0.2
G1 S0
G0
M3
G0 X52.346Y65.471
M3
G1 F100 S1000
G4 P0.25
G1 S0
G0
M3
G1 Y62.62S1000F2000
G1 X51.982
G1 Y65.007
G1 X51.154Y62.62
G1 X50.813
G1 X49.989Y65.047
G1 Y62.62
G1 X49.625
G1 Y65.471
G1 X50.193
G1 X50.868Y63.453
G1 X50.949Y63.206
G1 X51.004Y63.031
G1 X51.066Y63.223
G1 X51.156Y63.488
G1 X51.838Y65.471
G1 X52.346
M3
G1 F100 S1000
G4 P0.2
G1 S0
G0
M3
G0 X47.768Y65.471
M3
G1 F100 S1000
G4 P0.25
G1 S0
G0
M3
G1 Y62.957S1000F2000
G1 X49.172
G1 Y62.62
G1 X47.391
G1 Y65.471
G1 X47.768
M3
G1 F100 S1000
G4 P0.2
G1 S0
G0
M3
G0 X47.027Y65.471
M3
G1 F100 S1000
G4 P0.25
G1 S0
G0
M3
G1 X45.831Y64.316S1000F2000
G1 X47.08Y62.62
G1 X46.582
G1 X45.567Y64.063
G1 X45.1Y63.608
G1 Y62.62
G1 X44.723
G1 Y65.471
G1 X45.1
G1 Y64.058
G1 X46.516Y65.471
G1 X47.027
M3
G1 F100 S1000
G4 P0.2
G1 S0
G0
M3
G0 X44.246Y65.471
M3
G1 F100 S1000
G4 P0.25
G1 S0
G0
M3
G1 Y63.529S1000F2000
G1 X44.225Y63.211
G1 X44.16Y62.974
G1 X44.048Y62.801
G1 X43.886Y62.675
G1 X43.682Y62.598
G1 X43.445Y62.572
G1 X43.269Y62.585
G1 X43.114Y62.626
G1 X42.981Y62.693
G1 X42.871Y62.788
G1 X42.784Y62.909
G1 X42.723Y63.056
G1 X42.688Y63.23
G1 Y63.429
G1 X43.019Y63.476
G1 X43.032Y63.326
G1 X43.057Y63.201
G1 X43.093Y63.102
G1 X43.142Y63.029
G1 X43.272Y62.938
G1 X43.443Y62.908
G1 X43.575Y62.925
G1 X43.688Y62.973
G1 X43.775Y63.05
G1 X43.83Y63.15
G1 X43.859Y63.296
G1 X43.869Y63.507
G1 Y65.471
G1 X44.246
M3
G1 F100 S1000
G4 P0.2
G1 S0
G0
M3
G0 X42.273Y65.471
M3
G1 F100 S1000
G4 P0.25
G1 S0
G0
M3
G1 Y62.62S1000F2000
G1 X41.895
G1 Y65.471
G1 X42.273
M3
G1 F100 S1000
G4 P0.2
G1 S0
G0
M3
G0 X41.212Y65.471
M3
G1 F100 S1000
G4 P0.25
G1 S0
G0
M3
G1 Y62.62S1000F2000
G1 X40.834
G1 Y63.964
G1 X39.353
G1 Y62.62
G1 X38.975
G1 Y65.471
G1 X39.353
G1 Y64.301
G1 X40.834
G1 Y65.471
G1 X41.212
M3
G1 F100 S1000
G4 P0.2
G1 S0
G0
M3
