; LightBurn 1.4.00
; GRBL device profile, absolute coords
; Bounds: X10 Y10 to X580 Y407.24
G00 G17 G40 G21 G54
G90
M4
; Cut @ 2000 mm/min, 100% power
M8
G0 X10Y10.02
M3
G0 Z0
M3
G1 F100 S1000
G4 P0.25
G1 S0
G0
M3
; Layer C00
G1 X59.617Y59.55S1000F2000
G1 X10Y10.02
M3
G1 F100 S1000
G4 P0.2
G1 S0
G0
M3
G0 X10Y10.028
M3
G1 F100 S1000
G4 P0.25
G1 S0
G0
M3
G1 X10.061Y59.679S1000F2000
G1 X10Y10.028
M3
G1 F100 S1000
G4 P0.2
G1 S0
G0
M3
G0 X10Y10.029
M3
G1 F100 S1000
G4 P0.25
G1 S0
G0
M3
G1 X59.651S1000F2000
M3
G1 F100 S1000
G4 P0.2
G1 S0
G0
M3
G0 X59.689Y10.024
M3
G1 F100 S1000
G4 P0.25
G1 S0
G0
M3
G1 Y13.003S1000F2000
M3
G1 F100 S1000
G4 P0.2
G1 S0
G0
M3
G0 X58.764Y11.513
M3
G1 F100 S1000
G4 P0.25
G1 S0
G0
M3
G1 Y10.024S1000F2000
M3
G1 F100 S1000
G4 P0.2
G1 S0
G0
M3
G0 X57.755Y10.024
M3
G1 F100 S1000
G4 P0.25
G1 S0
G0
M3
G1 Y11.513S1000F2000
M3
G1 F100 S1000
G4 P0.2
G1 S0
G0
M3
G0 X56.746Y11.513
M3
G1 F100 S1000
G4 P0.25
G1 S0
G0
M3
G1 Y10.024S1000F2000
M3
G1 F100 S1000
G4 P0.2
G1 S0
G0
M3
G0 X55.737Y10.024
M3
G1 F100 S1000
G4 P0.25
G1 S0
G0
M3
G1 Y11.513S1000F2000
M3
G1 F100 S1000
G4 P0.2
G1 S0
G0
M3
G0 X53.804Y11.513
M3
G1 F100 S1000
G4 P0.25
G1 S0
G0
M3
G1 Y10.024S1000F2000
M3
G1 F100 S1000
G4 P0.2
G1 S0
G0
M3
G0 X52.795Y10.024
M3
G1 F100 S1000
G4 P0.25
G1 S0
G0
M3
G1 Y11.513S1000F2000
M3
G1 F100 S1000
G4 P0.2
G1 S0
G0
M3
G0 X51.786Y11.513
M3
G1 F100 S1000
G4 P0.25
G1 S0
G0
M3
G1 Y10.024S1000F2000
M3
G1 F100 S1000
G4 P0.2
G1 S0
G0
M3
G0 X50.777Y10.024
M3
G1 F100 S1000
G4 P0.25
G1 S0
G0
M3
G1 Y11.513S1000F2000
M3
G1 F100 S1000
G4 P0.2
G1 S0
G0
M3
G0 X48.843Y11.513
M3
G1 F100 S1000
G4 P0.25
G1 S0
G0
M3
G1 Y10.024S1000F2000
M3
G1 F100 S1000
G4 P0.2
G1 S0
G0
M3
G0 X47.834Y10.024
M3
G1 F100 S1000
G4 P0.25
G1 S0
G0
M3
G1 Y11.513S1000F2000
M3
G1 F100 S1000
G4 P0.2
G1 S0
G0
M3
G0 X46.825Y11.513
M3
G1 F100 S1000
G4 P0.25
G1 S0
G0
M3
G1 Y10.024S1000F2000
M3
G1 F100 S1000
G4 P0.2
G1 S0
G0
M3
G0 X45.816Y10.024
M3
G1 F100 S1000
G4 P0.25
G1 S0
G0
M3
G1 Y11.513S1000F2000
M3
G1 F100 S1000
G4 P0.2
G1 S0
G0
M3
G0 X43.883Y11.513
M3
G1 F100 S1000
G4 P0.25
G1 S0
G0
M3
G1 Y10.024S1000F2000
M3
G1 F100 S1000
G4 P0.2
G1 S0
G0
M3
G0 X42.874Y10.024
M3
G1 F100 S1000
G4 P0.25
G1 S0
G0
M3
G1 Y11.513S1000F2000
M3
G1 F100 S1000
G4 P0.2
G1 S0
G0
M3
G0 X41.865Y11.513
M3
G1 F100 S1000
G4 P0.25
G1 S0
G0
M3
G1 Y10.024S1000F2000
M3
G1 F100 S1000
G4 P0.2
G1 S0
G0
M3
G0 X40.856Y10.024
M3
G1 F100 S1000
G4 P0.25
G1 S0
G0
M3
G1 Y11.513S1000F2000
M3
G1 F100 S1000
G4 P0.2
G1 S0
G0
M3
G0 X38.922Y11.513
M3
G1 F100 S1000
G4 P0.25
G1 S0
G0
M3
G1 Y10.024S1000F2000
M3
G1 F100 S1000
G4 P0.2
G1 S0
G0
M3
G0 X38.922Y10.024
M3
G1 F100 S1000
G4 P0.25
G1 S0
G0
M3
G1 Y11.513S1000F2000
M3
G1 F100 S1000
G4 P0.2
G1 S0
G0
M3
G0 X37.913Y11.513
M3
G1 F100 S1000
G4 P0.25
G1 S0
G0
M3
G1 Y10.024S1000F2000
M3
G1 F100 S1000
G4 P0.2
G1 S0
G0
M3
G0 X37.913Y10.024
M3
G1 F100 S1000
G4 P0.25
G1 S0
G0
M3
G1 Y11.513S1000F2000
M3
G1 F100 S1000
G4 P0.2
G1 S0
G0
M3
G0 X36.904Y11.513
M3
G1 F100 S1000
G4 P0.25
G1 S0
G0
M3
G1 Y10.024S1000F2000
M3
G1 F100 S1000
G4 P0.2
G1 S0
G0
M3
G0 X36.904Y10.024
M3
G1 F100 S1000
G4 P0.25
G1 S0
G0
M3
G1 Y11.513S1000F2000
M3
G1 F100 S1000
G4 P0.2
G1 S0
G0
M3
G0 X35.895Y11.513
M3
G1 F100 S1000
G4 P0.25
G1 S0
G0
M3
G1 Y10.024S1000F2000
M3
G1 F100 S1000
G4 P0.2
G1 S0
G0
M3
G0 X35.895Y10.024
M3
G1 F100 S1000
G4 P0.25
G1 S0
G0
M3
G1 Y11.513S1000F2000
M3
G1 F100 S1000
G4 P0.2
G1 S0
G0
M3
G0 X33.962Y11.513
M3
G1 F100 S1000
G4 P0.25
G1 S0
G0
M3
G1 Y10.024S1000F2000
M3
G1 F100 S1000
G4 P0.2
G1 S0
G0
M3
G0 X32.953Y10.024
M3
G1 F100 S1000
G4 P0.25
G1 S0
G0
M3
G1 Y11.513S1000F2000
M3
G1 F100 S1000
G4 P0.2
G1 S0
G0
M3
G0 X31.944Y11.513
M3
G1 F100 S1000
G4 P0.25
G1 S0
G0
M3
G1 Y10.024S1000F2000
M3
G1 F100 S1000
G4 P0.2
G1 S0
G0
M3
G0 X30.935Y10.024
M3
G1 F100 S1000
G4 P0.25
G1 S0
G0
M3
G1 Y11.513S1000F2000
M3
G1 F100 S1000
G4 P0.2
G1 S0
G0
M3
G0 X29.001Y11.513
M3
G1 F100 S1000
G4 P0.25
G1 S0
G0
M3
G1 Y10.024S1000F2000
M3
G1 F100 S1000
G4 P0.2
G1 S0
G0
M3
G0 X30.01Y10.024
M3
G1 F100 S1000
G4 P0.25
G1 S0
G0
M3
G1 Y13.003S1000F2000
M3
G1 F100 S1000
G4 P0.2
G1 S0
G0
M3
G0 X27.992Y11.513
M3
G1 F100 S1000
G4 P0.25
G1 S0
G0
M3
G1 Y10.024S1000F2000
M3
G1 F100 S1000
G4 P0.2
G1 S0
G0
M3
G0 X26.983Y10.024
M3
G1 F100 S1000
G4 P0.25
G1 S0
G0
M3
G1 Y11.513S1000F2000
M3
G1 F100 S1000
G4 P0.2
G1 S0
G0
M3
G0 X25.974Y11.513
M3
G1 F100 S1000
G4 P0.25
G1 S0
G0
M3
G1 Y10.024S1000F2000
M3
G1 F100 S1000
G4 P0.2
G1 S0
G0
M3
G0 X25.05Y10.024
M3
G1 F100 S1000
G4 P0.25
G1 S0
G0
M3
G1 Y13.003S1000F2000
M3
G1 F100 S1000
G4 P0.2
G1 S0
G0
M3
G0 X24.041Y11.513
M3
G1 F100 S1000
G4 P0.25
G1 S0
G0
M3
G1 Y10.024S1000F2000
M3
G1 F100 S1000
G4 P0.2
G1 S0
G0
M3
G0 X23.032Y10.024
M3
G1 F100 S1000
G4 P0.25
G1 S0
G0
M3
G1 Y11.513S1000F2000
M3
G1 F100 S1000
G4 P0.2
G1 S0
G0
M3
G0 X22.023Y11.513
M3
G1 F100 S1000
G4 P0.25
G1 S0
G0
M3
G1 Y10.024S1000F2000
M3
G1 F100 S1000
G4 P0.2
G1 S0
G0
M3
G0 X21.014Y10.024
M3
G1 F100 S1000
G4 P0.25
G1 S0
G0
M3
G1 Y11.513S1000F2000
M3
G1 F100 S1000
G4 P0.2
G1 S0
G0
M3
G0 X19.08Y11.513
M3
G1 F100 S1000
G4 P0.25
G1 S0
G0
M3
G1 Y10.024S1000F2000
M3
G1 F100 S1000
G4 P0.2
G1 S0
G0
M3
G0 X18.071Y10.024
M3
G1 F100 S1000
G4 P0.25
G1 S0
G0
M3
G1 Y11.513S1000F2000
M3
G1 F100 S1000
G4 P0.2
G1 S0
G0
M3
G0 X17.062Y11.513
M3
G1 F100 S1000
G4 P0.25
G1 S0
G0
M3
G1 Y10.024S1000F2000
M3
G1 F100 S1000
G4 P0.2
G1 S0
G0
M3
G0 X16.054Y10.024
M3
G1 F100 S1000
G4 P0.25
G1 S0
G0
M3
G1 Y11.513S1000F2000
M3
G1 F100 S1000
G4 P0.2
G1 S0
G0
M3
G0 X14.036Y11.513
M3
G1 F100 S1000
G4 P0.25
G1 S0
G0
M3
G1 Y10.024S1000F2000
M3
G1 F100 S1000
G4 P0.2
G1 S0
G0
M3
G0 X15.045Y10.024
M3
G1 F100 S1000
G4 P0.25
G1 S0
G0
M3
G1 Y13.003S1000F2000
M3
G1 F100 S1000
G4 P0.2
G1 S0
G0
M3
G0 X14.3Y13.228
M3
G1 F100 S1000
G4 P0.25
G1 S0
G0
M3
G1 X13.247Y14.281S1000F2000
M3
G1 F100 S1000
G4 P0.2
G1 S0
G0
M3
G0 X12.979Y14.985
M3
G1 F100 S1000
G4 P0.25
G1 S0
G0
M3
G1 X10S1000F2000
M3
G1 F100 S1000
G4 P0.2
G1 S0
G0
M3
G0 X10Y14.06
M3
G1 F100 S1000
G4 P0.25
G1 S0
G0
M3
G1 X11.49S1000F2000
M3
G1 F100 S1000
G4 P0.2
G1 S0
G0
M3
G0 X12.534Y13.567
M3
G1 F100 S1000
G4 P0.25
G1 S0
G0
M3
G1 X13.587Y12.514S1000F2000
M3
G1 F100 S1000
G4 P0.2
G1 S0
G0
M3
G0 X12.874Y11.801
M3
G1 F100 S1000
G4 P0.25
G1 S0
G0
M3
G1 X11.82Y12.854S1000F2000
M3
G1 F100 S1000
G4 P0.2
G1 S0
G0
M3
G0 X11.49Y13.051
M3
G1 F100 S1000
G4 P0.25
G1 S0
G0
M3
G1 X10S1000F2000
M3
G1 F100 S1000
G4 P0.2
G1 S0
G0
M3
G0 X10Y12.042
M3
G1 F100 S1000
G4 P0.25
G1 S0
G0
M3
G1 X11.49S1000F2000
M3
G1 F100 S1000
G4 P0.2
G1 S0
G0
M3
G0 X11.009Y11.513
M3
G1 F100 S1000
G4 P0.25
G1 S0
G0
M3
G1 Y10.024S1000F2000
M3
G1 F100 S1000
G4 P0.2
G1 S0
G0
M3
G0 X12.018Y10.024
M3
G1 F100 S1000
G4 P0.25
G1 S0
G0
M3
G1 Y11.513S1000F2000
M3
G1 F100 S1000
G4 P0.2
G1 S0
G0
M3
G0 X11.49Y11.033
M3
G1 F100 S1000
G4 P0.25
G1 S0
G0
M3
G1 X10S1000F2000
M3
G1 F100 S1000
G4 P0.2
G1 S0
G0
M3
G0 X13.027Y11.513
M3
G1 F100 S1000
G4 P0.25
G1 S0
G0
M3
G1 Y10.024S1000F2000
M3
G1 F100 S1000
G4 P0.2
G1 S0
G0
M3
G0 X15.014Y13.941
M3
G1 F100 S1000
G4 P0.25
G1 S0
G0
M3
G1 X13.961Y14.994S1000F2000
M3
G1 F100 S1000
G4 P0.2
G1 S0
G0
M3
G0 X14.125Y16.257
M3
G1 F100 S1000
G4 P0.25
G1 S0
G0
M3
G1 X16.232Y14.15S1000F2000
M3
G1 F100 S1000
G4 P0.2
G1 S0
G0
M3
G0 X16.441Y15.368
M3
G1 F100 S1000
G4 P0.25
G1 S0
G0
M3
G1 X15.387Y16.421S1000F2000
M3
G1 F100 S1000
G4 P0.2
G1 S0
G0
M3
G0 X16.101Y17.135
M3
G1 F100 S1000
G4 P0.25
G1 S0
G0
M3
G1 X17.154Y16.081S1000F2000
M3
G1 F100 S1000
G4 P0.2
G1 S0
G0
M3
G0 X17.868Y16.794
M3
G1 F100 S1000
G4 P0.25
G1 S0
G0
M3
G1 X16.814Y17.848S1000F2000
M3
G1 F100 S1000
G4 P0.2
G1 S0
G0
M3
G0 X17.528Y18.561
M3
G1 F100 S1000
G4 P0.25
G1 S0
G0
M3
G1 X18.581Y17.508S1000F2000
M3
G1 F100 S1000
G4 P0.2
G1 S0
G0
M3
G0 X19.799Y17.717
M3
G1 F100 S1000
G4 P0.25
G1 S0
G0
M3
G1 X17.692Y19.824S1000F2000
M3
G1 F100 S1000
G4 P0.2
G1 S0
G0
M3
G0 X18.895Y19.929
M3
G1 F100 S1000
G4 P0.25
G1 S0
G0
M3
G1 X19.948Y18.875S1000F2000
M3
G1 F100 S1000
G4 P0.2
G1 S0
G0
M3
G0 X20.662Y19.589
M3
G1 F100 S1000
G4 P0.25
G1 S0
G0
M3
G1 X19.608Y20.642S1000F2000
M3
G1 F100 S1000
G4 P0.2
G1 S0
G0
M3
G0 X20.322Y21.355
M3
G1 F100 S1000
G4 P0.25
G1 S0
G0
M3
G1 X21.375Y20.302S1000F2000
M3
G1 F100 S1000
G4 P0.2
G1 S0
G0
M3
G0 X22.088Y21.016
M3
G1 F100 S1000
G4 P0.25
G1 S0
G0
M3
G1 X21.035Y22.069S1000F2000
M3
G1 F100 S1000
G4 P0.2
G1 S0
G0
M3
G0 X21.2Y23.332
M3
G1 F100 S1000
G4 P0.25
G1 S0
G0
M3
G1 X23.306Y21.225S1000F2000
M3
G1 F100 S1000
G4 P0.2
G1 S0
G0
M3
G0 X23.456Y22.383
M3
G1 F100 S1000
G4 P0.25
G1 S0
G0
M3
G1 X22.403Y23.436S1000F2000
M3
G1 F100 S1000
G4 P0.2
G1 S0
G0
M3
G0 X23.116Y24.15
M3
G1 F100 S1000
G4 P0.25
G1 S0
G0
M3
G1 X24.169Y23.097S1000F2000
M3
G1 F100 S1000
G4 P0.2
G1 S0
G0
M3
G0 X24.883Y23.81
M3
G1 F100 S1000
G4 P0.25
G1 S0
G0
M3
G1 X23.829Y24.863S1000F2000
M3
G1 F100 S1000
G4 P0.2
G1 S0
G0
M3
G0 X24.543Y25.577
M3
G1 F100 S1000
G4 P0.25
G1 S0
G0
M3
G1 X25.596Y24.524S1000F2000
M3
G1 F100 S1000
G4 P0.2
G1 S0
G0
M3
G0 X26.814Y24.733
M3
G1 F100 S1000
G4 P0.25
G1 S0
G0
M3
G1 X24.707Y26.839S1000F2000
M3
G1 F100 S1000
G4 P0.2
G1 S0
G0
M3
G0 X25.91Y26.944
M3
G1 F100 S1000
G4 P0.25
G1 S0
G0
M3
G1 X26.963Y25.891S1000F2000
M3
G1 F100 S1000
G4 P0.2
G1 S0
G0
M3
G0 X27.677Y26.604
M3
G1 F100 S1000
G4 P0.25
G1 S0
G0
M3
G1 X26.624Y27.658S1000F2000
M3
G1 F100 S1000
G4 P0.2
G1 S0
G0
M3
G0 X27.337Y28.371
M3
G1 F100 S1000
G4 P0.25
G1 S0
G0
M3
G1 X28.39Y27.317S1000F2000
M3
G1 F100 S1000
G4 P0.2
G1 S0
G0
M3
G0 X29.104Y28.031
M3
G1 F100 S1000
G4 P0.25
G1 S0
G0
M3
G1 X28.05Y29.084S1000F2000
M3
G1 F100 S1000
G4 P0.2
G1 S0
G0
M3
G0 X28.215Y30.347
M3
G1 F100 S1000
G4 P0.25
G1 S0
G0
M3
G1 X30.322Y28.24S1000F2000
M3
G1 F100 S1000
G4 P0.2
G1 S0
G0
M3
G0 X30.471Y29.398
M3
G1 F100 S1000
G4 P0.25
G1 S0
G0
M3
G1 X29.418Y30.452S1000F2000
M3
G1 F100 S1000
G4 P0.2
G1 S0
G0
M3
G0 X29.418Y30.452
M3
G1 F100 S1000
G4 P0.25
G1 S0
G0
M3
G1 X30.471Y29.398S1000F2000
M3
G1 F100 S1000
G4 P0.2
G1 S0
G0
M3
G0 X31.184Y30.112
M3
G1 F100 S1000
G4 P0.25
G1 S0
G0
M3
G1 X30.131Y31.165S1000F2000
M3
G1 F100 S1000
G4 P0.2
G1 S0
G0
M3
G0 X30.131Y31.165
M3
G1 F100 S1000
G4 P0.25
G1 S0
G0
M3
G1 X31.184Y30.112S1000F2000
M3
G1 F100 S1000
G4 P0.2
G1 S0
G0
M3
G0 X31.898Y30.825
M3
G1 F100 S1000
G4 P0.25
G1 S0
G0
M3
G1 X30.845Y31.878S1000F2000
M3
G1 F100 S1000
G4 P0.2
G1 S0
G0
M3
G0 X30.845Y31.878
M3
G1 F100 S1000
G4 P0.25
G1 S0
G0
M3
G1 X31.898Y30.825S1000F2000
M3
G1 F100 S1000
G4 P0.2
G1 S0
G0
M3
G0 X32.611Y31.539
M3
G1 F100 S1000
G4 P0.25
G1 S0
G0
M3
G1 X31.558Y32.592S1000F2000
M3
G1 F100 S1000
G4 P0.2
G1 S0
G0
M3
G0 X31.558Y32.592
M3
G1 F100 S1000
G4 P0.25
G1 S0
G0
M3
G1 X32.611Y31.539S1000F2000
M3
G1 F100 S1000
G4 P0.2
G1 S0
G0
M3
G0 X33.829Y31.748
M3
G1 F100 S1000
G4 P0.25
G1 S0
G0
M3
G1 X31.723Y33.854S1000F2000
M3
G1 F100 S1000
G4 P0.2
G1 S0
G0
M3
G0 X32.925Y33.959
M3
G1 F100 S1000
G4 P0.25
G1 S0
G0
M3
G1 X33.979Y32.906S1000F2000
M3
G1 F100 S1000
G4 P0.2
G1 S0
G0
M3
G0 X34.692Y33.62
M3
G1 F100 S1000
G4 P0.25
G1 S0
G0
M3
G1 X33.639Y34.673S1000F2000
M3
G1 F100 S1000
G4 P0.2
G1 S0
G0
M3
G0 X34.352Y35.386
M3
G1 F100 S1000
G4 P0.25
G1 S0
G0
M3
G1 X35.405Y34.333S1000F2000
M3
G1 F100 S1000
G4 P0.2
G1 S0
G0
M3
G0 X36.119Y35.046
M3
G1 F100 S1000
G4 P0.25
G1 S0
G0
M3
G1 X35.066Y36.1S1000F2000
M3
G1 F100 S1000
G4 P0.2
G1 S0
G0
M3
G0 X35.23Y37.362
M3
G1 F100 S1000
G4 P0.25
G1 S0
G0
M3
G1 X37.337Y35.256S1000F2000
M3
G1 F100 S1000
G4 P0.2
G1 S0
G0
M3
G0 X37.486Y36.414
M3
G1 F100 S1000
G4 P0.25
G1 S0
G0
M3
G1 X36.433Y37.467S1000F2000
M3
G1 F100 S1000
G4 P0.2
G1 S0
G0
M3
G0 X37.146Y38.181
M3
G1 F100 S1000
G4 P0.25
G1 S0
G0
M3
G1 X38.2Y37.127S1000F2000
M3
G1 F100 S1000
G4 P0.2
G1 S0
G0
M3
G0 X38.913Y37.84
M3
G1 F100 S1000
G4 P0.25
G1 S0
G0
M3
G1 X37.86Y38.894S1000F2000
M3
G1 F100 S1000
G4 P0.2
G1 S0
G0
M3
G0 X38.573Y39.607
M3
G1 F100 S1000
G4 P0.25
G1 S0
G0
M3
G1 X39.626Y38.554S1000F2000
M3
G1 F100 S1000
G4 P0.2
G1 S0
G0
M3
G0 X40.844Y38.762
M3
G1 F100 S1000
G4 P0.25
G1 S0
G0
M3
G1 X38.738Y40.869S1000F2000
M3
G1 F100 S1000
G4 P0.2
G1 S0
G0
M3
G0 X39.94Y40.974
M3
G1 F100 S1000
G4 P0.25
G1 S0
G0
M3
G1 X40.994Y39.921S1000F2000
M3
G1 F100 S1000
G4 P0.2
G1 S0
G0
M3
G0 X41.707Y40.634
M3
G1 F100 S1000
G4 P0.25
G1 S0
G0
M3
G1 X40.654Y41.687S1000F2000
M3
G1 F100 S1000
G4 P0.2
G1 S0
G0
M3
G0 X41.367Y42.401
M3
G1 F100 S1000
G4 P0.25
G1 S0
G0
M3
G1 X42.421Y41.348S1000F2000
M3
G1 F100 S1000
G4 P0.2
G1 S0
G0
M3
G0 X43.134Y42.062
M3
G1 F100 S1000
G4 P0.25
G1 S0
G0
M3
G1 X42.081Y43.115S1000F2000
M3
G1 F100 S1000
G4 P0.2
G1 S0
G0
M3
G0 X42.245Y44.377
M3
G1 F100 S1000
G4 P0.25
G1 S0
G0
M3
G1 X44.352Y42.27S1000F2000
M3
G1 F100 S1000
G4 P0.2
G1 S0
G0
M3
G0 X44.501Y43.429
M3
G1 F100 S1000
G4 P0.25
G1 S0
G0
M3
G1 X43.448Y44.482S1000F2000
M3
G1 F100 S1000
G4 P0.2
G1 S0
G0
M3
G0 X44.162Y45.195
M3
G1 F100 S1000
G4 P0.25
G1 S0
G0
M3
G1 X45.215Y44.142S1000F2000
M3
G1 F100 S1000
G4 P0.2
G1 S0
G0
M3
G0 X45.928Y44.856
M3
G1 F100 S1000
G4 P0.25
G1 S0
G0
M3
G1 X44.875Y45.909S1000F2000
M3
G1 F100 S1000
G4 P0.2
G1 S0
G0
M3
G0 X45.588Y46.622
M3
G1 F100 S1000
G4 P0.25
G1 S0
G0
M3
G1 X46.642Y45.569S1000F2000
M3
G1 F100 S1000
G4 P0.2
G1 S0
G0
M3
G0 X47.8Y45.719
M3
G1 F100 S1000
G4 P0.25
G1 S0
G0
M3
G1 X45.693Y47.825S1000F2000
M3
G1 F100 S1000
G4 P0.2
G1 S0
G0
M3
G0 X46.942Y47.976
M3
G1 F100 S1000
G4 P0.25
G1 S0
G0
M3
G1 X47.996Y46.923S1000F2000
M3
G1 F100 S1000
G4 P0.2
G1 S0
G0
M3
G0 X48.709Y47.637
M3
G1 F100 S1000
G4 P0.25
G1 S0
G0
M3
G1 X47.656Y48.69S1000F2000
M3
G1 F100 S1000
G4 P0.2
G1 S0
G0
M3
G0 X48.369Y49.403
M3
G1 F100 S1000
G4 P0.25
G1 S0
G0
M3
G1 X49.423Y48.35S1000F2000
M3
G1 F100 S1000
G4 P0.2
G1 S0
G0
M3
G0 X50.136Y49.064
M3
G1 F100 S1000
G4 P0.25
G1 S0
G0
M3
G1 X49.083Y50.117S1000F2000
M3
G1 F100 S1000
G4 P0.2
G1 S0
G0
M3
G0 X49.247Y51.378
M3
G1 F100 S1000
G4 P0.25
G1 S0
G0
M3
G1 X51.354Y49.272S1000F2000
M3
G1 F100 S1000
G4 P0.2
G1 S0
G0
M3
G0 X51.503Y50.431
M3
G1 F100 S1000
G4 P0.25
G1 S0
G0
M3
G1 X50.45Y51.484S1000F2000
M3
G1 F100 S1000
G4 P0.2
G1 S0
G0
M3
G0 X51.163Y52.197
M3
G1 F100 S1000
G4 P0.25
G1 S0
G0
M3
G1 X52.217Y51.144S1000F2000
M3
G1 F100 S1000
G4 P0.2
G1 S0
G0
M3
G0 X52.93Y51.857
M3
G1 F100 S1000
G4 P0.25
G1 S0
G0
M3
G1 X51.877Y52.911S1000F2000
M3
G1 F100 S1000
G4 P0.2
G1 S0
G0
M3
G0 X52.59Y53.625
M3
G1 F100 S1000
G4 P0.25
G1 S0
G0
M3
G1 X53.643Y52.571S1000F2000
M3
G1 F100 S1000
G4 P0.2
G1 S0
G0
M3
G0 X54.861Y52.78
M3
G1 F100 S1000
G4 P0.25
G1 S0
G0
M3
G1 X52.755Y54.886S1000F2000
M3
G1 F100 S1000
G4 P0.2
G1 S0
G0
M3
G0 X53.958Y54.992
M3
G1 F100 S1000
G4 P0.25
G1 S0
G0
M3
G1 X55.011Y53.938S1000F2000
M3
G1 F100 S1000
G4 P0.2
G1 S0
G0
M3
G0 X55.724Y54.651
M3
G1 F100 S1000
G4 P0.25
G1 S0
G0
M3
G1 X54.671Y55.705S1000F2000
M3
G1 F100 S1000
G4 P0.2
G1 S0
G0
M3
G0 X55.384Y56.418
M3
G1 F100 S1000
G4 P0.25
G1 S0
G0
M3
G1 X56.438Y55.365S1000F2000
M3
G1 F100 S1000
G4 P0.2
G1 S0
G0
M3
G0 X57.151Y56.078
M3
G1 F100 S1000
G4 P0.25
G1 S0
G0
M3
G1 X56.098Y57.131S1000F2000
M3
G1 F100 S1000
G4 P0.2
G1 S0
G0
M3
G0 X56.203Y58.335
M3
G1 F100 S1000
G4 P0.25
G1 S0
G0
M3
G1 X58.309Y56.228S1000F2000
M3
G1 F100 S1000
G4 P0.2
G1 S0
G0
M3
G0 X58.499Y57.426
M3
G1 F100 S1000
G4 P0.25
G1 S0
G0
M3
G1 X57.446Y58.479S1000F2000
M3
G1 F100 S1000
G4 P0.2
G1 S0
G0
M3
G0 X58.159Y59.193
M3
G1 F100 S1000
G4 P0.25
G1 S0
G0
M3
G1 X59.212Y58.14S1000F2000
M3
G1 F100 S1000
G4 P0.2
G1 S0
G0
M3
G0 X59.926Y58.853
M3
G1 F100 S1000
G4 P0.25
G1 S0
G0
M3
G1 X58.872Y59.906S1000F2000
M3
G1 F100 S1000
G4 P0.2
G1 S0
G0
M3
G0 X12.979Y59.713
M3
G1 F100 S1000
G4 P0.25
G1 S0
G0
M3
G1 X10S1000F2000
M3
G1 F100 S1000
G4 P0.2
G1 S0
G0
M3
G0 X10Y58.788
M3
G1 F100 S1000
G4 P0.25
G1 S0
G0
M3
G1 X11.49S1000F2000
M3
G1 F100 S1000
G4 P0.2
G1 S0
G0
M3
G0 X11.49Y57.779
M3
G1 F100 S1000
G4 P0.25
G1 S0
G0
M3
G1 X10S1000F2000
M3
G1 F100 S1000
G4 P0.2
G1 S0
G0
M3
G0 X10Y56.77
M3
G1 F100 S1000
G4 P0.25
G1 S0
G0
M3
G1 X11.49S1000F2000
M3
G1 F100 S1000
G4 P0.2
G1 S0
G0
M3
G0 X11.49Y55.761
M3
G1 F100 S1000
G4 P0.25
G1 S0
G0
M3
G1 X10S1000F2000
M3
G1 F100 S1000
G4 P0.2
G1 S0
G0
M3
G0 X10Y54.752
M3
G1 F100 S1000
G4 P0.25
G1 S0
G0
M3
G1 X12.979S1000F2000
M3
G1 F100 S1000
G4 P0.2
G1 S0
G0
M3
G0 X11.49Y53.743
M3
G1 F100 S1000
G4 P0.25
G1 S0
G0
M3
G1 X10S1000F2000
M3
G1 F100 S1000
G4 P0.2
G1 S0
G0
M3
G0 X10Y52.735
M3
G1 F100 S1000
G4 P0.25
G1 S0
G0
M3
G1 X11.49S1000F2000
M3
G1 F100 S1000
G4 P0.2
G1 S0
G0
M3
G0 X11.49Y51.726
M3
G1 F100 S1000
G4 P0.25
G1 S0
G0
M3
G1 X10S1000F2000
M3
G1 F100 S1000
G4 P0.2
G1 S0
G0
M3
G0 X10Y50.717
M3
G1 F100 S1000
G4 P0.25
G1 S0
G0
M3
G1 X11.49S1000F2000
M3
G1 F100 S1000
G4 P0.2
G1 S0
G0
M3
G0 X10Y49.708
M3
G1 F100 S1000
G4 P0.25
G1 S0
G0
M3
G1 X12.979S1000F2000
M3
G1 F100 S1000
G4 P0.2
G1 S0
G0
M3
G0 X11.49Y48.783
M3
G1 F100 S1000
G4 P0.25
G1 S0
G0
M3
G1 X10S1000F2000
M3
G1 F100 S1000
G4 P0.2
G1 S0
G0
M3
G0 X10Y47.774
M3
G1 F100 S1000
G4 P0.25
G1 S0
G0
M3
G1 X11.49S1000F2000
M3
G1 F100 S1000
G4 P0.2
G1 S0
G0
M3
G0 X11.49Y46.765
M3
G1 F100 S1000
G4 P0.25
G1 S0
G0
M3
G1 X10S1000F2000
M3
G1 F100 S1000
G4 P0.2
G1 S0
G0
M3
G0 X10Y45.756
M3
G1 F100 S1000
G4 P0.25
G1 S0
G0
M3
G1 X11.49S1000F2000
M3
G1 F100 S1000
G4 P0.2
G1 S0
G0
M3
G0 X10Y44.747
M3
G1 F100 S1000
G4 P0.25
G1 S0
G0
M3
G1 X12.979S1000F2000
M3
G1 F100 S1000
G4 P0.2
G1 S0
G0
M3
G0 X11.49Y43.823
M3
G1 F100 S1000
G4 P0.25
G1 S0
G0
M3
G1 X10S1000F2000
M3
G1 F100 S1000
G4 P0.2
G1 S0
G0
M3
G0 X10Y42.814
M3
G1 F100 S1000
G4 P0.25
G1 S0
G0
M3
G1 X11.49S1000F2000
M3
G1 F100 S1000
G4 P0.2
G1 S0
G0
M3
G0 X11.49Y41.805
M3
G1 F100 S1000
G4 P0.25
G1 S0
G0
M3
G1 X10S1000F2000
M3
G1 F100 S1000
G4 P0.2
G1 S0
G0
M3
G0 X10Y40.796
M3
G1 F100 S1000
G4 P0.25
G1 S0
G0
M3
G1 X11.49S1000F2000
M3
G1 F100 S1000
G4 P0.2
G1 S0
G0
M3
G0 X10Y39.787
M3
G1 F100 S1000
G4 P0.25
G1 S0
G0
M3
G1 X12.979S1000F2000
M3
G1 F100 S1000
G4 P0.2
G1 S0
G0
M3
G0 X11.49Y38.862
M3
G1 F100 S1000
G4 P0.25
G1 S0
G0
M3
G1 X10S1000F2000
M3
G1 F100 S1000
G4 P0.2
G1 S0
G0
M3
G0 X10Y37.853
M3
G1 F100 S1000
G4 P0.25
G1 S0
G0
M3
G1 X11.49S1000F2000
M3
G1 F100 S1000
G4 P0.2
G1 S0
G0
M3
G0 X11.49Y36.844
M3
G1 F100 S1000
G4 P0.25
G1 S0
G0
M3
G1 X10S1000F2000
M3
G1 F100 S1000
G4 P0.2
G1 S0
G0
M3
G0 X10Y35.835
M3
G1 F100 S1000
G4 P0.25
G1 S0
G0
M3
G1 X11.49S1000F2000
M3
G1 F100 S1000
G4 P0.2
G1 S0
G0
M3
G0 X10Y34.826
M3
G1 F100 S1000
G4 P0.25
G1 S0
G0
M3
G1 X12.979S1000F2000
M3
G1 F100 S1000
G4 P0.2
G1 S0
G0
M3
G0 X11.49Y33.902
M3
G1 F100 S1000
G4 P0.25
G1 S0
G0
M3
G1 X10S1000F2000
M3
G1 F100 S1000
G4 P0.2
G1 S0
G0
M3
G0 X10Y33.902
M3
G1 F100 S1000
G4 P0.25
G1 S0
G0
M3
G1 X11.49S1000F2000
M3
G1 F100 S1000
G4 P0.2
G1 S0
G0
M3
G0 X11.49Y32.893
M3
G1 F100 S1000
G4 P0.25
G1 S0
G0
M3
G1 X10S1000F2000
M3
G1 F100 S1000
G4 P0.2
G1 S0
G0
M3
G0 X10Y32.893
M3
G1 F100 S1000
G4 P0.25
G1 S0
G0
M3
G1 X11.49S1000F2000
M3
G1 F100 S1000
G4 P0.2
G1 S0
G0
M3
G0 X11.49Y31.884
M3
G1 F100 S1000
G4 P0.25
G1 S0
G0
M3
G1 X10S1000F2000
M3
G1 F100 S1000
G4 P0.2
G1 S0
G0
M3
G0 X10Y31.884
M3
G1 F100 S1000
G4 P0.25
G1 S0
G0
M3
G1 X11.49S1000F2000
M3
G1 F100 S1000
G4 P0.2
G1 S0
G0
M3
G0 X11.49Y30.875
M3
G1 F100 S1000
G4 P0.25
G1 S0
G0
M3
G1 X10S1000F2000
M3
G1 F100 S1000
G4 P0.2
G1 S0
G0
M3
G0 X10Y30.875
M3
G1 F100 S1000
G4 P0.25
G1 S0
G0
M3
G1 X11.49S1000F2000
M3
G1 F100 S1000
G4 P0.2
G1 S0
G0
M3
G0 X10Y29.866
M3
G1 F100 S1000
G4 P0.25
G1 S0
G0
M3
G1 X12.979S1000F2000
M3
G1 F100 S1000
G4 P0.2
G1 S0
G0
M3
G0 X11.49Y28.941
M3
G1 F100 S1000
G4 P0.25
G1 S0
G0
M3
G1 X10S1000F2000
M3
G1 F100 S1000
G4 P0.2
G1 S0
G0
M3
G0 X10Y27.932
M3
G1 F100 S1000
G4 P0.25
G1 S0
G0
M3
G1 X11.49S1000F2000
M3
G1 F100 S1000
G4 P0.2
G1 S0
G0
M3
G0 X11.49Y26.923
M3
G1 F100 S1000
G4 P0.25
G1 S0
G0
M3
G1 X10S1000F2000
M3
G1 F100 S1000
G4 P0.2
G1 S0
G0
M3
G0 X10Y25.914
M3
G1 F100 S1000
G4 P0.25
G1 S0
G0
M3
G1 X11.49S1000F2000
M3
G1 F100 S1000
G4 P0.2
G1 S0
G0
M3
G0 X10Y24.905
M3
G1 F100 S1000
G4 P0.25
G1 S0
G0
M3
G1 X12.979S1000F2000
M3
G1 F100 S1000
G4 P0.2
G1 S0
G0
M3
G0 X11.49Y23.981
M3
G1 F100 S1000
G4 P0.25
G1 S0
G0
M3
G1 X10S1000F2000
M3
G1 F100 S1000
G4 P0.2
G1 S0
G0
M3
G0 X10Y22.972
M3
G1 F100 S1000
G4 P0.25
G1 S0
G0
M3
G1 X11.49S1000F2000
M3
G1 F100 S1000
G4 P0.2
G1 S0
G0
M3
G0 X11.49Y21.963
M3
G1 F100 S1000
G4 P0.25
G1 S0
G0
M3
G1 X10S1000F2000
M3
G1 F100 S1000
G4 P0.2
G1 S0
G0
M3
G0 X10Y20.954
M3
G1 F100 S1000
G4 P0.25
G1 S0
G0
M3
G1 X11.49S1000F2000
M3
G1 F100 S1000
G4 P0.2
G1 S0
G0
M3
G0 X10Y19.945
M3
G1 F100 S1000
G4 P0.25
G1 S0
G0
M3
G1 X12.979S1000F2000
M3
G1 F100 S1000
G4 P0.2
G1 S0
G0
M3
G0 X11.49Y19.02
M3
G1 F100 S1000
G4 P0.25
G1 S0
G0
M3
G1 X10S1000F2000
M3
G1 F100 S1000
G4 P0.2
G1 S0
G0
M3
G0 X10Y18.011
M3
G1 F100 S1000
G4 P0.25
G1 S0
G0
M3
G1 X11.49S1000F2000
M3
G1 F100 S1000
G4 P0.2
G1 S0
G0
M3
G0 X11.49Y17.002
M3
G1 F100 S1000
G4 P0.25
G1 S0
G0
M3
G1 X10S1000F2000
M3
G1 F100 S1000
G4 P0.2
G1 S0
G0
M3
G0 X10Y15.993
M3
G1 F100 S1000
G4 P0.25
G1 S0
G0
M3
G1 X11.49S1000F2000
M3
G1 F100 S1000
G4 P0.2
G1 S0
G0
M3
G0 X20.089Y13.003
M3
G1 F100 S1000
G4 P0.25
G1 S0
G0
M3
G1 Y10.024S1000F2000
M3
G1 F100 S1000
G4 P0.2
G1 S0
G0
M3
G0 X34.971Y10.024
M3
G1 F100 S1000
G4 P0.25
G1 S0
G0
M3
G1 Y13.003S1000F2000
M3
G1 F100 S1000
G4 P0.2
G1 S0
G0
M3
G0 X39.931Y13.003
M3
G1 F100 S1000
G4 P0.25
G1 S0
G0
M3
G1 Y10.024S1000F2000
M3
G1 F100 S1000
G4 P0.2
G1 S0
G0
M3
G0 X44.892Y10.024
M3
G1 F100 S1000
G4 P0.25
G1 S0
G0
M3
G1 Y13.003S1000F2000
M3
G1 F100 S1000
G4 P0.2
G1 S0
G0
M3
G0 X49.852Y13.003
M3
G1 F100 S1000
G4 P0.25
G1 S0
G0
M3
G1 Y10.024S1000F2000
M3
G1 F100 S1000
G4 P0.2
G1 S0
G0
M3
G0 X54.812Y10.024
M3
G1 F100 S1000
G4 P0.25
G1 S0
G0
M3
G1 Y13.003S1000F2000
M3
G1 F100 S1000
G4 P0.2
G1 S0
G0
M3
G0 X50.637Y90.835
M3
G1 F100 S1000
G4 P0.25
G1 S0
G0
M3
G1 X49.877S1000F2000
G1 X49.899Y91.208
G1 X49.953Y91.619
G1 X50.039Y92.066
G1 X50.156Y92.551
G1 X50.304Y93.049
G1 X50.481Y93.538
G1 X50.687Y94.019
G1 X50.922Y94.49
G1 X51.175Y94.939
G1 X51.437Y95.351
G1 X51.706Y95.726
G1 X51.983Y96.065
G1 X49.035
G1 Y96.775
G1 X52.931
G1 Y96.2
G1 X52.645Y95.869
G1 X52.359Y95.488
G1 X52.075Y95.056
G1 X51.792Y94.574
G1 X51.526Y94.064
G1 X51.292Y93.546
G1 X51.09Y93.021
G1 X50.92Y92.489
G1 X50.819Y92.102
G1 X50.738Y91.698
G1 X50.677Y91.275
G1 X50.637Y90.835
M3
G1 F100 S1000
G4 P0.2
G1 S0
G0
M3
G0 X47.274Y91.923
M3
G1 F100 S1000
G4 P0.25
G1 S0
G0
M3
G1 X47.379Y92.163S1000F2000
G1 X47.443Y92.436
G1 X47.464Y92.743
G1 X47.443Y93.039
G1 X47.381Y93.301
G1 X47.277Y93.531
G1 X47.131Y93.727
G1 X46.954Y93.884
G1 X46.756Y93.996
G1 X46.535Y94.063
G1 X46.294Y94.086
G1 X46.053Y94.063
G1 X45.831Y93.996
G1 X45.628Y93.884
G1 X45.444Y93.727
G1 X45.291Y93.533
G1 X45.182Y93.312
G1 X45.117Y93.062
G1 X45.095Y92.785
G1 X45.105Y92.596
G1 X45.135Y92.411
G1 X45.186Y92.23
G1 X45.257Y92.054
G1 X45.346Y91.89
G1 X45.452Y91.746
G1 X45.573Y91.624
G1 X45.711Y91.522
G1 X45.858Y91.442
G1 X46.009Y91.385
G1 X46.164Y91.351
G1 X46.322Y91.339
G1 X46.548Y91.363
G1 X46.758Y91.434
G1 X46.95Y91.552
G1 X47.127Y91.717
G1 X47.274Y91.923
M3
G1 F100 S1000
G4 P0.2
G1 S0
G0
M3
G0 X47.975Y91.736
M3
G1 F100 S1000
G4 P0.25
G1 S0
G0
M3
G1 X47.841Y91.507S1000F2000
G1 X47.685Y91.306
G1 X47.506Y91.134
G1 X47.304Y90.991
G1 X47.083Y90.877
G1 X46.848Y90.797
G1 X46.598Y90.748
G1 X46.335Y90.732
G1 X45.894Y90.774
G1 X45.496Y90.902
G1 X45.141Y91.114
G1 X44.828Y91.411
G1 X44.691Y91.595
G1 X44.573Y91.806
G1 X44.473Y92.045
G1 X44.391Y92.311
G1 X44.327Y92.605
G1 X44.282Y92.926
G1 X44.254Y93.275
G1 Y93.651
G1 Y94.072
G1 X44.285Y94.464
G1 X44.336Y94.825
G1 X44.406Y95.157
G1 X44.497Y95.46
G1 X44.608Y95.732
G1 X44.739Y95.975
G1 X44.89Y96.188
G1 X45.195Y96.49
G1 X45.55Y96.705
G1 X45.953Y96.834
G1 X46.404Y96.877
G1 X46.744Y96.853
G1 X47.051Y96.778
G1 X47.325Y96.653
G1 X47.568Y96.479
G1 X47.772Y96.261
G1 X47.931Y96.005
G1 X48.044Y95.711
G1 X48.112Y95.379
G1 X47.377Y95.322
G1 X47.323Y95.524
G1 X47.258Y95.697
G1 X47.183Y95.84
G1 X47.098Y95.954
G1 X46.94Y96.092
G1 X46.764Y96.191
G1 X46.57Y96.25
G1 X46.359Y96.27
G1 X46.188Y96.258
G1 X46.028Y96.221
G1 X45.878Y96.159
G1 X45.739Y96.073
G1 X45.574Y95.931
G1 X45.427Y95.76
G1 X45.299Y95.559
G1 X45.189Y95.33
G1 X45.101Y95.06
G1 X45.036Y94.738
G1 X44.996Y94.364
G1 X44.98Y93.938
G1 X45.121Y94.128
G1 X45.277Y94.292
G1 X45.447Y94.43
G1 X45.633Y94.542
G1 X45.828Y94.628
G1 X46.028Y94.689
G1 X46.232Y94.726
G1 X46.441Y94.739
G1 X46.797Y94.705
G1 X47.125Y94.603
G1 X47.426Y94.433
G1 X47.7Y94.195
G1 X47.927Y93.903
G1 X48.089Y93.571
G1 X48.187Y93.2
G1 X48.219Y92.789
G1 X48.204Y92.51
G1 X48.158Y92.242
G1 X48.082Y91.984
G1 X47.975Y91.736
M3
G1 F100 S1000
G4 P0.2
G1 S0
G0
M3
G0 X43.441Y92.113
M3
G1 F100 S1000
G4 P0.25
G1 S0
G0
M3
G1 X43.292Y91.774S1000F2000
G1 X43.084Y91.463
G1 X42.933Y91.291
G1 X42.768Y91.143
G1 X42.59Y91.017
G1 X42.399Y90.915
G1 X42.195Y90.835
G1 X41.978Y90.778
G1 X41.747Y90.743
G1 X41.503Y90.732
G1 X41.112Y90.761
G1 X40.758Y90.847
G1 X40.441Y90.991
G1 X40.163Y91.192
G1 X39.931Y91.44
G1 X39.755Y91.726
G1 X39.635Y92.05
G1 X39.57Y92.411
G1 X40.346Y92.477
G1 X40.403Y92.211
G1 X40.489Y91.98
G1 X40.603Y91.785
G1 X40.746Y91.625
G1 X40.911Y91.5
G1 X41.092Y91.411
G1 X41.29Y91.357
G1 X41.503Y91.339
G1 X41.76Y91.365
G1 X41.996Y91.44
G1 X42.211Y91.566
G1 X42.406Y91.742
G1 X42.568Y91.959
G1 X42.684Y92.21
G1 X42.753Y92.493
G1 X42.776Y92.809
G1 X42.754Y93.109
G1 X42.687Y93.375
G1 X42.576Y93.607
G1 X42.421Y93.807
G1 X42.23Y93.967
G1 X42.011Y94.081
G1 X41.765Y94.149
G1 X41.491Y94.172
G1 X41.317Y94.162
G1 X41.151Y94.132
G1 X40.995Y94.081
G1 X40.846Y94.01
G1 X40.71Y93.923
G1 X40.59Y93.824
G1 X40.485Y93.712
G1 X40.395Y93.589
G1 X39.701Y93.679
G1 X40.284Y96.771
G1 X43.277
G1 Y96.065
G1 X40.875
G1 X40.551Y94.447
G1 X40.825Y94.612
G1 X41.106Y94.73
G1 X41.394Y94.801
G1 X41.688Y94.825
G1 X42.067Y94.791
G1 X42.415Y94.688
G1 X42.732Y94.518
G1 X43.018Y94.279
G1 X43.255Y93.986
G1 X43.425Y93.655
G1 X43.526Y93.284
G1 X43.56Y92.875
G1 X43.53Y92.48
G1 X43.441Y92.113
M3
G1 F100 S1000
G4 P0.2
G1 S0
G0
M3
G0 X37.23Y92.953
M3
G1 F100 S1000
G4 P0.25
G1 S0
G0
M3
G1 Y95.666S1000F2000
G1 X35.346Y92.953
G1 X37.23
M3
G1 F100 S1000
G4 P0.2
G1 S0
G0
M3
G0 X37.969Y92.953
M3
G1 F100 S1000
G4 P0.25
G1 S0
G0
M3
G1 X38.782S1000F2000
G1 Y92.275
G1 X37.969
G1 Y90.835
G1 X37.23
G1 Y92.275
G1 X34.619
G1 Y92.953
G1 X37.366Y96.853
G1 X37.969
G1 Y92.953
M3
G1 F100 S1000
G4 P0.2
G1 S0
G0
M3
G0 X34.08Y92.891
M3
G1 F100 S1000
G4 P0.25
G1 S0
G0
M3
G1 X34.098Y92.612S1000F2000
G1 X34.062Y92.233
G1 X33.955Y91.884
G1 X33.775Y91.565
G1 X33.524Y91.276
G1 X33.217Y91.036
G1 X32.873Y90.865
G1 X32.491Y90.762
G1 X32.07Y90.728
G1 X31.691Y90.757
G1 X31.345Y90.846
G1 X31.033Y90.993
G1 X30.755Y91.2
G1 X30.521Y91.453
G1 X30.344Y91.742
G1 X30.222Y92.065
G1 X30.157Y92.423
G1 X30.896Y92.522
G1 X30.971Y92.23
G1 X31.068Y91.981
G1 X31.188Y91.777
G1 X31.329Y91.617
G1 X31.491Y91.495
G1 X31.669Y91.409
G1 X31.863Y91.357
G1 X32.074Y91.339
G1 X32.325Y91.362
G1 X32.555Y91.43
G1 X32.765Y91.543
G1 X32.955Y91.701
G1 X33.112Y91.892
G1 X33.224Y92.105
G1 X33.292Y92.34
G1 X33.314Y92.596
G1 X33.294Y92.839
G1 X33.231Y93.06
G1 X33.127Y93.259
G1 X32.982Y93.435
G1 X32.804Y93.58
G1 X32.604Y93.683
G1 X32.381Y93.745
G1 X32.136Y93.766
G1 X31.901Y93.745
G1 X31.615Y93.684
G1 X31.697Y94.332
G1 X31.764
G1 X31.816
G1 X32.046
G1 X32.264Y94.386
G1 X32.471Y94.463
G1 X32.666Y94.57
G1 X32.831Y94.71
G1 X32.949Y94.883
G1 X33.02Y95.09
G1 X33.043Y95.33
G1 X33.026Y95.524
G1 X32.975Y95.701
G1 X32.889Y95.861
G1 X32.768Y96.003
G1 X32.621Y96.12
G1 X32.453Y96.203
G1 X32.266Y96.253
G1 X32.058Y96.27
G1 X31.852Y96.253
G1 X31.663Y96.202
G1 X31.492Y96.117
G1 X31.34Y95.999
G1 X31.209Y95.847
G1 X31.104Y95.66
G1 X31.024Y95.44
G1 X30.97Y95.186
G1 X30.231Y95.317
G1 X30.321Y95.668
G1 X30.453Y95.977
G1 X30.628Y96.244
G1 X30.847Y96.469
G1 X31.102Y96.648
G1 X31.386Y96.775
G1 X31.699Y96.852
G1 X32.042Y96.877
G1 X32.283Y96.864
G1 X32.515Y96.825
G1 X32.737Y96.759
G1 X32.949Y96.666
G1 X33.144Y96.551
G1 X33.315Y96.416
G1 X33.461Y96.262
G1 X33.583Y96.089
G1 X33.679Y95.904
G1 X33.748Y95.713
G1 X33.789Y95.516
G1 X33.803Y95.313
G1 X33.79Y95.123
G1 X33.75Y94.941
G1 X33.685Y94.768
G1 X33.593Y94.603
G1 X33.476Y94.451
G1 X33.334Y94.316
G1 X33.166Y94.197
G1 X32.974Y94.094
G1 X33.226Y94.016
G1 X33.448Y93.905
G1 X33.64Y93.76
G1 X33.803Y93.583
G1 X33.932Y93.377
G1 X34.024Y93.146
G1 X34.08Y92.891
M3
G1 F100 S1000
G4 P0.2
G1 S0
G0
M3
G0 X31.982Y100.009
M3
G1 F100 S1000
G4 P0.25
G1 S0
G0
M3
G1 X32.178Y100.044S1000F2000
G1 X32.362Y100.102
G1 X32.534Y100.184
G1 X32.69Y100.286
G1 X32.823Y100.405
G1 X32.934Y100.542
G1 X33.023Y100.695
G1 X33.075Y100.835
G1 X33.112Y101.005
G1 X33.134Y101.205
G1 Y101.434
G1 Y101.705
G1 X32.916Y101.626
G1 X32.639Y101.553
G1 X32.312Y101.487
G1 X31.724Y101.392
G1 X31.546Y101.356
G1 X31.401Y101.318
G1 X31.29Y101.278
G1 X31.123Y101.177
G1 X30.999Y101.038
G1 X30.922Y100.871
G1 X30.896Y100.687
G1 X30.91Y100.545
G1 X30.952Y100.416
G1 X31.022Y100.299
G1 X31.12Y100.194
G1 X31.245Y100.108
G1 X31.396Y100.047
G1 X31.572Y100.01
G1 X31.775Y99.997
G1 X31.982Y100.009
M3
G1 F100 S1000
G4 P0.2
G1 S0
G0
M3
G0 X32.413Y99.562
M3
G1 F100 S1000
G4 P0.25
G1 S0
G0
M3
G1 X32.22Y99.499S1000F2000
G1 X32.02Y99.454
G1 X31.812Y99.427
G1 X31.598
G1 X31.26Y99.44
G1 X30.963Y99.506
G1 X30.708Y99.616
G1 X30.494Y99.77
G1 X30.325Y99.957
G1 X30.205Y100.169
G1 X30.132Y100.406
G1 X30.108Y100.667
G1 Y100.823
G1 X30.145Y100.973
G1 X30.19Y101.116
G1 X30.254Y101.252
G1 X30.422Y101.49
G1 X30.636Y101.676
G1 X30.887Y101.817
G1 X31.167Y101.919
G1 X31.29Y101.947
G1 X31.44Y101.975
G1 X31.618Y102.003
G1 X32.242Y102.085
G1 X32.601Y102.146
G1 X32.901Y102.213
G1 X33.142Y102.284
G1 Y102.477
G1 Y102.686
G1 X33.094Y102.862
G1 X33.028Y103.004
G1 X32.937Y103.113
G1 X32.778Y103.223
G1 X32.585Y103.301
G1 X32.357Y103.348
G1 X32.095Y103.364
G1 X31.851Y103.352
G1 X31.642Y103.318
G1 X31.467Y103.261
G1 X31.325Y103.181
G1 X31.209Y103.072
G1 X31.109Y102.928
G1 X31.025Y102.749
G1 X30.958Y102.534
G1 X30.235Y102.633
G1 X30.293Y102.854
G1 X30.366Y103.052
G1 X30.455Y103.228
G1 X30.56Y103.382
G1 X30.685Y103.517
G1 X30.836Y103.635
G1 X31.011Y103.736
G1 X31.212Y103.821
G1 X31.434Y103.889
G1 X31.673Y103.937
G1 X31.929Y103.966
G1 X32.202
G1 X32.468
G1 X32.708Y103.943
G1 X32.921Y103.901
G1 X33.109Y103.844
G1 X33.272Y103.774
G1 X33.412Y103.696
G1 X33.529Y103.609
G1 X33.622Y103.514
G1 X33.762Y103.288
G1 X33.852Y103.011
G1 X33.868Y102.897
G1 X33.88Y102.746
G1 Y102.556
G1 Y102.329
G1 Y101.344
G1 X33.892Y100.876
G1 Y100.503
G1 X33.916Y100.224
G1 X33.936Y100.04
G1 X34.007Y99.773
G1 X34.123Y99.517
G1 X33.351
G1 X33.257Y99.766
G1 X33.203Y100.055
G1 X33Y99.893
G1 X32.801Y99.757
G1 X32.605Y99.647
G1 X32.413Y99.562
M3
G1 F100 S1000
G4 P0.2
G1 S0
G0
M3
G0 X35.953Y100.597
M3
G1 F100 S1000
G4 P0.25
G1 S0
G0
M3
G1 X36.143Y100.347S1000F2000
G1 X36.364Y100.169
G1 X36.615Y100.062
G1 X36.898Y100.026
G1 X37.132Y100.052
G1 X37.349Y100.131
G1 X37.55Y100.263
G1 X37.735Y100.447
G1 X37.89Y100.683
G1 X38Y100.971
G1 X38.066Y101.31
G1 X38.088Y101.701
G1 X38.067Y102.1
G1 X38.004Y102.443
G1 X37.898Y102.73
G1 X37.75Y102.961
G1 X37.571Y103.139
G1 X37.375Y103.266
G1 X37.162Y103.342
G1 X36.931Y103.368
G1 X36.697Y103.341
G1 X36.479Y103.263
G1 X36.278Y103.131
G1 X36.093Y102.947
G1 X35.939Y102.713
G1 X35.828Y102.432
G1 X35.762Y102.104
G1 X35.74Y101.73
G1 X35.753Y101.365
G1 X35.793Y101.054
G1 X35.86Y100.798
G1 X35.953Y100.597
M3
G1 F100 S1000
G4 P0.2
G1 S0
G0
M3
G0 X35.748Y100.063
M3
G1 F100 S1000
G4 P0.25
G1 S0
G0
M3
G1 Y99.517S1000F2000
G1 X35.063
G1 Y105.535
G1 X35.802
G1 Y103.388
G1 X36.052Y103.645
G1 X36.334Y103.829
G1 X36.649Y103.939
G1 X36.996Y103.975
G1 X37.195
G1 X37.388Y103.935
G1 X37.575Y103.884
G1 X37.758Y103.813
G1 X37.929Y103.724
G1 X38.085Y103.618
G1 X38.225Y103.496
G1 X38.349Y103.358
G1 X38.556Y103.034
G1 X38.712Y102.649
G1 X38.811Y102.22
G1 X38.844Y101.763
G1 X38.809Y101.234
G1 X38.705Y100.769
G1 X38.532Y100.368
G1 X38.289Y100.03
G1 X37.998Y99.763
G1 X37.68Y99.571
G1 X37.333Y99.457
G1 X36.959Y99.419
G1 X36.594Y99.459
G1 X36.271Y99.58
G1 X35.989Y99.781
G1 X35.748Y100.063
M3
G1 F100 S1000
G4 P0.2
G1 S0
G0
M3
G0 X39.685Y100.715
M3
G1 F100 S1000
G4 P0.25
G1 S0
G0
M3
G1 X39.583Y101.166S1000F2000
G1 X39.549Y101.681
G1 X39.564Y102.023
G1 X39.608Y102.342
G1 X39.681Y102.64
G1 X39.783Y102.916
G1 X39.915Y103.164
G1 X40.078Y103.38
G1 X40.272Y103.562
G1 X40.495Y103.711
G1 X40.74Y103.826
G1 X40.995Y103.909
G1 X41.26Y103.959
G1 X41.536Y103.975
G1 X41.875Y103.953
G1 X42.182Y103.886
G1 X42.456Y103.773
G1 X42.698Y103.616
G1 X42.903Y103.418
G1 X43.068Y103.181
G1 X43.193Y102.908
G1 X43.277Y102.596
G1 X42.558Y102.485
G1 X42.497Y102.691
G1 X42.416Y102.87
G1 X42.316Y103.022
G1 X42.195Y103.146
G1 X42.058Y103.243
G1 X41.907Y103.312
G1 X41.743Y103.354
G1 X41.565Y103.368
G1 X41.299Y103.343
G1 X41.059Y103.268
G1 X40.845Y103.143
G1 X40.658Y102.968
G1 X40.505Y102.738
G1 X40.396Y102.451
G1 X40.33Y102.105
G1 X40.309Y101.701
G1 X40.33Y101.292
G1 X40.393Y100.943
G1 X40.498Y100.653
G1 X40.645Y100.424
G1 X40.826Y100.25
G1 X41.033Y100.126
G1 X41.266Y100.051
G1 X41.524Y100.026
G1 X41.732Y100.043
G1 X41.923Y100.093
G1 X42.096Y100.176
G1 X42.25Y100.293
G1 X42.383Y100.444
G1 X42.489Y100.632
G1 X42.568Y100.855
G1 X42.62Y101.114
G1 X43.347Y101.02
G1 X43.264Y100.664
G1 X43.135Y100.35
G1 X42.959Y100.076
G1 X42.737Y99.843
G1 X42.478Y99.658
G1 X42.19Y99.525
G1 X41.875Y99.445
G1 X41.532Y99.419
G1 X41.107Y99.455
G1 X40.725Y99.565
G1 X40.387Y99.748
G1 X40.093Y100.004
G1 X39.855Y100.328
G1 X39.685Y100.715
M3
G1 F100 S1000
G4 P0.2
G1 S0
G0
M3
G0 X44.493Y101.301
M3
G1 F100 S1000
G4 P0.25
G1 S0
G0
M3
G1 X44.56Y100.961S1000F2000
G1 X44.67Y100.674
G1 X44.824Y100.441
G1 X45.009Y100.259
G1 X45.209Y100.13
G1 X45.426Y100.052
G1 X45.658Y100.026
G1 X45.891Y100.051
G1 X46.106Y100.125
G1 X46.302Y100.249
G1 X46.481Y100.422
G1 X46.629Y100.646
G1 X46.735Y100.923
G1 X46.798Y101.251
G1 X46.82Y101.631
G1 X46.798Y102.049
G1 X46.733Y102.407
G1 X46.626Y102.706
G1 X46.475Y102.945
G1 X46.292Y103.128
G1 X46.09Y103.259
G1 X45.867Y103.337
G1 X45.625Y103.364
G1 X45.389Y103.339
G1 X45.173Y103.263
G1 X44.977Y103.137
G1 X44.802Y102.961
G1 X44.657Y102.731
G1 X44.554Y102.443
G1 X44.492Y102.097
G1 X44.471Y101.693
G1 X44.493Y101.301
M3
G1 F100 S1000
G4 P0.2
G1 S0
G0
M3
G0 X43.727Y101.368
M3
G1 F100 S1000
G4 P0.25
G1 S0
G0
M3
G1 X43.712Y101.693S1000F2000
G1 X43.726Y102.012
G1 X43.766Y102.315
G1 X43.834Y102.604
G1 X43.93Y102.877
G1 X44.052Y103.127
G1 X44.201Y103.347
G1 X44.378Y103.535
G1 X44.582Y103.692
G1 X44.806Y103.816
G1 X45.043Y103.905
G1 X45.293Y103.958
G1 X45.555Y103.975
G1 X45.747Y103.965
G1 X45.928Y103.934
G1 X46.098Y103.882
G1 X46.257Y103.809
G1 X46.404Y103.72
G1 X46.536Y103.618
G1 X46.654Y103.503
G1 X46.758Y103.376
G1 Y105.535
G1 X47.493
G1 Y99.517
G1 X46.807
G1 Y100.067
G1 X46.576Y99.783
G1 X46.295Y99.581
G1 X45.966Y99.459
G1 X45.588Y99.419
G1 X45.333Y99.436
G1 X45.088Y99.49
G1 X44.853Y99.58
G1 X44.629Y99.706
G1 X44.423Y99.864
G1 X44.242Y100.05
G1 X44.084Y100.265
G1 X43.952Y100.508
G1 X43.847Y100.776
G1 X43.772Y101.062
G1 X43.727Y101.368
M3
G1 F100 S1000
G4 P0.2
G1 S0
G0
M3
G0 X49.245Y102.116
M3
G1 F100 S1000
G4 P0.25
G1 S0
G0
M3
G1 X51.68S1000F2000
G1 X51.644Y102.374
G1 X51.585Y102.597
G1 X51.504Y102.786
G1 X51.401Y102.941
G1 X51.211Y103.128
G1 X50.995Y103.261
G1 X50.753Y103.341
G1 X50.485Y103.368
G1 X50.241Y103.346
G1 X50.017Y103.283
G1 X49.813Y103.176
G1 X49.629Y103.027
G1 X49.475Y102.842
G1 X49.36Y102.629
G1 X49.283Y102.387
G1 X49.245Y102.116
M3
G1 F100 S1000
G4 P0.2
G1 S0
G0
M3
G0 X48.476Y102.179
M3
G1 F100 S1000
G4 P0.25
G1 S0
G0
M3
G1 X48.582Y102.637S1000F2000
G1 X48.759Y103.033
G1 X49.007Y103.368
G1 X49.312Y103.634
G1 X49.658Y103.823
G1 X50.046Y103.937
G1 X50.477Y103.975
G1 X50.894Y103.938
G1 X51.271Y103.827
G1 X51.608Y103.641
G1 X51.906Y103.38
G1 X52.148Y103.052
G1 X52.321Y102.664
G1 X52.425Y102.215
G1 X52.46Y101.705
G1 Y101.508
G1 X49.204
G1 X49.245Y101.17
G1 X49.326Y100.874
G1 X49.448Y100.62
G1 X49.611Y100.408
G1 X49.805Y100.241
G1 X50.021Y100.122
G1 X50.26Y100.05
G1 X50.522Y100.026
G1 X50.718Y100.039
G1 X50.899Y100.079
G1 X51.065Y100.146
G1 X51.216Y100.24
G1 X51.352Y100.362
G1 X51.473Y100.517
G1 X51.58Y100.703
G1 X51.672Y100.921
G1 X52.435Y100.827
G1 X52.326Y100.511
G1 X52.178Y100.232
G1 X51.991Y99.991
G1 X51.766Y99.788
G1 X51.505Y99.626
G1 X51.21Y99.511
G1 X50.881Y99.442
G1 X50.518Y99.419
G1 X50.064Y99.455
G1 X49.66Y99.566
G1 X49.306Y99.75
G1 X49.001Y100.008
G1 X48.756Y100.332
G1 X48.581Y100.715
G1 X48.476Y101.158
G1 X48.441Y101.66
G1 X48.476Y102.179
M3
G1 F100 S1000
G4 P0.2
G1 S0
G0
M3
G0 X52.919Y103.302
M3
G1 F100 S1000
G4 P0.25
G1 S0
G0
M3
G1 Y103.877S1000F2000
G1 X53.572
G1 Y104.341
G1 Y104.546
G1 X53.591Y104.724
G1 X53.616Y104.873
G1 X53.65Y104.993
G1 X53.713Y105.13
G1 X53.797Y105.254
G1 X53.901Y105.363
G1 X54.025Y105.459
G1 X54.173Y105.538
G1 X54.348Y105.593
G1 X54.55Y105.627
G1 X54.779Y105.638
G1 X55.107Y105.62
G1 X55.468Y105.564
G1 X55.358Y104.92
G1 X55.134Y104.95
G1 X54.922Y104.961
G1 X54.766
G1 X54.635Y104.925
G1 X54.528Y104.88
G1 X54.446Y104.817
G1 X54.385Y104.729
G1 X54.342Y104.611
G1 X54.315Y104.461
G1 Y104.279
G1 Y103.877
G1 X55.156
G1 Y103.302
G1 X54.307
G1 Y99.517
G1 X53.572
G1 Y103.302
G1 X52.919
M3
G1 F100 S1000
G4 P0.2
G1 S0
G0
M3
G0 X56.504Y102.739
M3
G1 F100 S1000
G4 P0.25
G1 S0
G0
M3
G1 X56.396Y102.466S1000F2000
G1 X56.331Y102.145
G1 X56.31Y101.775
G1 X56.331Y101.375
G1 X56.395Y101.033
G1 X56.501Y100.749
G1 X56.65Y100.523
G1 X56.832Y100.35
G1 X57.034Y100.227
G1 X57.259Y100.153
G1 X57.504Y100.129
G1 X57.749Y100.153
G1 X57.972Y100.227
G1 X58.176Y100.349
G1 X58.358Y100.521
G1 X58.509Y100.745
G1 X58.617Y101.024
G1 X58.681Y101.359
G1 X58.703Y101.75
G1 X58.681Y102.126
G1 X58.614Y102.452
G1 X58.503Y102.729
G1 X58.348Y102.957
G1 X58.161Y103.135
G1 X57.956Y103.262
G1 X57.733Y103.338
G1 X57.492Y103.364
G1 X57.255Y103.339
G1 X57.036Y103.264
G1 X56.836Y103.139
G1 X56.655Y102.963
G1 X56.504Y102.739
M3
G1 F100 S1000
G4 P0.2
G1 S0
G0
M3
G0 X55.776Y102.873
M3
G1 F100 S1000
G4 P0.25
G1 S0
G0
M3
G1 X55.902Y103.122S1000F2000
G1 X56.053Y103.341
G1 X56.229Y103.529
G1 X56.431Y103.688
G1 X56.655Y103.814
G1 X56.897Y103.904
G1 X57.159Y103.957
G1 X57.439Y103.975
G1 X57.808Y103.936
G1 X58.143Y103.819
G1 X58.444Y103.624
G1 X58.711Y103.351
G1 Y103.877
G1 X59.393
G1 Y100.108
G1 X59.38Y99.636
G1 X59.341Y99.238
G1 X59.276Y98.915
G1 X59.185Y98.665
G1 X59.067Y98.464
G1 X58.918Y98.285
G1 X58.738Y98.128
G1 X58.529Y97.994
G1 X58.291Y97.886
G1 X58.027Y97.809
G1 X57.738Y97.763
G1 X57.422Y97.748
G1 X57.051Y97.77
G1 X56.717Y97.835
G1 X56.421Y97.945
G1 X56.162Y98.099
G1 X55.953Y98.296
G1 X55.806Y98.538
G1 X55.721Y98.825
G1 X55.698Y99.156
G1 X56.416Y99.049
G1 X56.449Y98.894
G1 X56.502Y98.762
G1 X56.574Y98.652
G1 X56.667Y98.565
G1 X56.817Y98.475
G1 X56.992Y98.411
G1 X57.193Y98.372
G1 X57.418Y98.359
G1 X57.66Y98.372
G1 X57.873Y98.411
G1 X58.056Y98.475
G1 X58.21Y98.565
G1 X58.339Y98.677
G1 X58.444Y98.811
G1 X58.528Y98.965
G1 X58.588Y99.139
G1 X58.613Y99.283
G1 X58.63Y99.489
G1 Y99.757
G1 X58.641Y100.088
G1 X58.384Y99.838
G1 X58.098Y99.66
G1 X57.781Y99.553
G1 X57.435Y99.517
G1 X57.01Y99.558
G1 X56.637Y99.679
G1 X56.315Y99.882
G1 X56.043Y100.166
G1 X55.827Y100.506
G1 X55.673Y100.879
G1 X55.581Y101.284
G1 X55.55Y101.722
G1 X55.564Y102.028
G1 X55.607Y102.321
G1 X55.677Y102.603
G1 X55.776Y102.873
M3
G1 F100 S1000
G4 P0.2
G1 S0
G0
M3
G0 X61.197Y103.376
M3
G1 F100 S1000
G4 P0.25
G1 S0
G0
M3
G1 X61.472Y103.638S1000F2000
G1 X61.782Y103.826
G1 X62.125Y103.938
G1 X62.502Y103.975
G1 X62.736Y103.963
G1 X62.955Y103.928
G1 X63.157Y103.868
G1 X63.344Y103.784
G1 X63.51Y103.68
G1 X63.65Y103.557
G1 X63.765Y103.416
G1 X63.855Y103.257
G1 X63.922Y103.07
G1 X63.97Y102.844
G1 X63.999Y102.581
G1 Y102.28
G1 Y99.517
G1 X63.27
G1 Y102.28
G1 X63.255Y102.538
G1 X63.21Y102.759
G1 X63.135Y102.941
G1 X63.03Y103.087
G1 X62.897Y103.197
G1 X62.74Y103.276
G1 X62.557Y103.323
G1 X62.35Y103.339
G1 X62.188Y103.328
G1 X62.032Y103.296
G1 X61.879Y103.243
G1 X61.732Y103.169
G1 X61.598Y103.076
G1 X61.484Y102.968
G1 X61.392Y102.845
G1 X61.32Y102.707
G1 X61.266Y102.547
G1 X61.227Y102.36
G1 X61.204Y102.145
G1 Y101.902
G1 Y99.517
G1 X60.458
G1 Y105.535
G1 X61.197
G1 Y103.376
M3
G1 F100 S1000
G4 P0.2
G1 S0
G0
M3
G0 X65.17Y103.877
M3
G1 F100 S1000
G4 P0.25
G1 S0
G0
M3
G1 X65.909S1000F2000
G1 Y99.517
G1 X65.17
G1 Y103.877
M3
G1 F100 S1000
G4 P0.2
G1 S0
G0
M3
G0 X65.17Y104.686
M3
G1 F100 S1000
G4 P0.25
G1 S0
G0
M3
G1 Y105.535S1000F2000
G1 X65.909
G1 Y104.686
G1 X65.17
M3
G1 F100 S1000
G4 P0.2
G1 S0
G0
M3
G0 X67.124Y104.677
M3
G1 F100 S1000
G4 P0.25
G1 S0
G0
M3
G1 Y105.535S1000F2000
G1 X67.863
G1 Y104.677
G1 X67.124
M3
G1 F100 S1000
G4 P0.2
G1 S0
G0
M3
G0 X67.124Y103.877
M3
G1 F100 S1000
G4 P0.25
G1 S0
G0
M3
G1 X67.863S1000F2000
G1 Y99.279
G1 X67.85Y98.907
G1 X67.811Y98.596
G1 X67.745Y98.347
G1 X67.654Y98.158
G1 X67.498Y97.979
G1 X67.299Y97.85
G1 X67.055Y97.773
G1 X66.767Y97.748
G1 X66.472Y97.767
G1 X66.188Y97.826
G1 X66.328Y98.454
G1 X66.526Y98.411
G1 X66.677Y98.396
G1 X66.782
G1 X66.874Y98.434
G1 X66.951Y98.481
G1 X67.013Y98.546
G1 X67.062Y98.649
G1 X67.096Y98.808
G1 X67.117Y99.024
G1 Y99.295
G1 Y103.877
M3
G1 F100 S1000
G4 P0.2
G1 S0
G0
M3
G0 X68.869Y105.535
M3
G1 F100 S1000
G4 P0.25
G1 S0
G0
M3
G1 X69.608S1000F2000
G1 Y102.103
G1 X71.357Y103.877
G1 X72.314
G1 X70.647Y102.259
G1 X72.482Y99.517
G1 X71.571
G1 X70.13Y101.746
G1 X69.608Y101.245
G1 Y99.517
G1 X68.869
G1 Y105.535
M3
G1 F100 S1000
G4 P0.2
G1 S0
G0
M3
G0 X73.053Y105.535
M3
G1 F100 S1000
G4 P0.25
G1 S0
G0
M3
G1 X73.792S1000F2000
G1 Y99.517
G1 X73.053
G1 Y105.535
M3
G1 F100 S1000
G4 P0.2
G1 S0
G0
M3
G0 X74.919Y103.877
M3
G1 F100 S1000
G4 P0.25
G1 S0
G0
M3
G1 X75.58S1000F2000
G1 Y103.265
G1 X75.691Y103.417
G1 X75.819Y103.554
G1 X75.964Y103.675
G1 X76.126Y103.78
G1 X76.302Y103.866
G1 X76.49Y103.927
G1 X76.69Y103.963
G1 X76.902Y103.975
G1 X77.133Y103.963
G1 X77.342Y103.925
G1 X77.53Y103.862
G1 X77.696Y103.774
G1 X77.839Y103.664
G1 X77.96Y103.533
G1 X78.058Y103.382
G1 X78.133Y103.212
G1 X78.267Y103.391
G1 X78.411Y103.546
G1 X78.565Y103.677
G1 X78.728Y103.784
G1 X78.902Y103.868
G1 X79.085Y103.928
G1 X79.277Y103.963
G1 X79.48Y103.975
G1 X79.785Y103.953
G1 X80.053Y103.886
G1 X80.284Y103.773
G1 X80.477Y103.616
G1 X80.63Y103.412
G1 X80.739Y103.16
G1 X80.804Y102.859
G1 X80.826Y102.51
G1 Y99.517
G1 X80.091
G1 Y102.263
G1 Y102.47
G1 X80.073Y102.645
G1 X80.051Y102.789
G1 X80.019Y102.902
G1 X79.918Y103.078
G1 X79.759Y103.216
G1 X79.554Y103.305
G1 X79.315Y103.335
G1 X79.095Y103.316
G1 X78.895Y103.258
G1 X78.713Y103.163
G1 X78.552Y103.029
G1 X78.419Y102.853
G1 X78.324Y102.631
G1 X78.267Y102.364
G1 X78.248Y102.05
G1 Y99.517
G1 X77.509
G1 Y102.35
G1 X77.498Y102.581
G1 X77.464Y102.781
G1 X77.408Y102.95
G1 X77.328Y103.089
G1 X77.224Y103.196
G1 X77.09Y103.273
G1 X76.928Y103.32
G1 X76.737Y103.335
G1 X76.584Y103.325
G1 X76.437Y103.294
G1 X76.296Y103.243
G1 X76.161Y103.171
G1 X76.037Y103.079
G1 X75.932Y102.969
G1 X75.845Y102.839
G1 X75.777Y102.69
G1 X75.725Y102.515
G1 X75.687Y102.305
G1 X75.665Y102.059
G1 Y101.779
G1 Y99.517
G1 X74.919
G1 Y103.877
M3
G1 F100 S1000
G4 P0.2
G1 S0
G0
M3
G0 X81.981Y103.877
M3
G1 F100 S1000
G4 P0.25
G1 S0
G0
M3
G1 X82.646S1000F2000
G1 Y103.257
G1 X82.773Y103.425
G1 X82.913Y103.571
G1 X83.066Y103.695
G1 X83.233Y103.796
G1 X83.413Y103.874
G1 X83.607Y103.93
G1 X83.814Y103.964
G1 X84.034Y103.975
G1 X84.227
G1 X84.412Y103.94
G1 X84.589Y103.896
G1 X84.758Y103.834
G1 X84.913Y103.757
G1 X85.047Y103.67
G1 X85.16Y103.572
G1 X85.253Y103.462
G1 X85.393Y103.211
G1 X85.483Y102.916
G1 X85.501Y102.794
G1 X85.514Y102.634
G1 Y102.435
G1 Y102.198
G1 Y99.517
G1 X84.785
G1 Y102.169
G1 Y102.381
G1 X84.763Y102.564
G1 X84.736Y102.718
G1 X84.699Y102.844
G1 X84.647Y102.951
G1 X84.579Y103.046
G1 X84.494Y103.129
G1 X84.393Y103.202
G1 X84.154Y103.302
G1 X83.878Y103.335
G1 X83.65Y103.316
G1 X83.438Y103.26
G1 X83.242Y103.166
G1 X83.063Y103.035
G1 X82.913Y102.852
G1 X82.806Y102.601
G1 X82.741Y102.283
G1 X82.72Y101.898
G1 Y99.517
G1 X81.981
G1 Y103.877
M3
G1 F100 S1000
G4 P0.2
G1 S0
G0
M3
G0 X87.379Y102.715
M3
G1 F100 S1000
G4 P0.25
G1 S0
G0
M3
G1 X87.265Y102.429S1000F2000
G1 X87.197Y102.089
G1 X87.174Y101.697
G1 X87.197Y101.304
G1 X87.265Y100.965
G1 X87.379Y100.677
G1 X87.539Y100.443
G1 X87.734Y100.26
G1 X87.952Y100.13
G1 X88.193Y100.052
G1 X88.459Y100.026
G1 X88.722Y100.052
G1 X88.963Y100.131
G1 X89.18Y100.262
G1 X89.374Y100.445
G1 X89.534Y100.682
G1 X89.648Y100.973
G1 X89.717Y101.32
G1 X89.74Y101.722
G1 X89.717Y102.101
G1 X89.648Y102.432
G1 X89.533Y102.714
G1 X89.372Y102.947
G1 X89.177Y103.129
G1 X88.96Y103.259
G1 X88.721Y103.338
G1 X88.459Y103.364
G1 X88.193Y103.338
G1 X87.952Y103.26
G1 X87.734Y103.13
G1 X87.539Y102.949
G1 X87.379Y102.715
M3
G1 F100 S1000
G4 P0.2
G1 S0
G0
M3
G0 X86.677Y102.965
M3
G1 F100 S1000
G4 P0.25
G1 S0
G0
M3
G1 X86.793Y103.16S1000F2000
G1 X86.93Y103.335
G1 X87.088Y103.491
G1 X87.384Y103.703
G1 X87.712Y103.854
G1 X88.07Y103.945
G1 X88.459Y103.975
G1 X88.888Y103.939
G1 X89.276Y103.828
G1 X89.623Y103.644
G1 X89.928Y103.386
G1 X90.178Y103.064
G1 X90.356Y102.685
G1 X90.463Y102.25
G1 X90.499Y101.759
G1 X90.483Y101.36
G1 X90.436Y101.007
G1 X90.357Y100.698
G1 X90.247Y100.435
G1 X90.106Y100.207
G1 X89.937Y100.006
G1 X89.738Y99.832
G1 X89.512Y99.685
G1 X89.265Y99.569
G1 X89.007Y99.485
G1 X88.738Y99.435
G1 X88.459Y99.419
G1 X88.023Y99.455
G1 X87.631Y99.565
G1 X87.283Y99.749
G1 X86.979Y100.006
G1 X86.732Y100.331
G1 X86.555Y100.722
G1 X86.45Y101.177
G1 X86.414Y101.697
G1 X86.425Y101.99
G1 X86.456Y102.263
G1 X86.509Y102.517
G1 X86.583Y102.751
G1 X86.677Y102.965
M3
G1 F100 S1000
G4 P0.2
G1 S0
G0
M3
G0 X92.158Y102.414
M3
G1 F100 S1000
G4 P0.25
G1 S0
G0
M3
G1 X92.089Y102.068S1000F2000
G1 X92.067Y101.672
G1 X92.088Y101.279
G1 X92.152Y100.941
G1 X92.258Y100.657
G1 X92.407Y100.428
G1 X92.587Y100.252
G1 X92.784Y100.127
G1 X92.999Y100.051
G1 X93.233Y100.026
G1 X93.47Y100.052
G1 X93.69Y100.13
G1 X93.892Y100.26
G1 X94.076Y100.443
G1 X94.23Y100.68
G1 X94.339Y100.974
G1 X94.405Y101.325
G1 X94.427Y101.734
G1 X94.406Y102.124
G1 X94.342Y102.463
G1 X94.234Y102.748
G1 X94.084Y102.982
G1 X93.905Y103.163
G1 X93.708Y103.293
G1 X93.495Y103.371
G1 X93.265Y103.397
G1 X93.036Y103.369
G1 X92.821Y103.286
G1 X92.618Y103.148
G1 X92.43Y102.955
G1 X92.271Y102.71
G1 X92.158Y102.414
M3
G1 F100 S1000
G4 P0.2
G1 S0
G0
M3
G0 X92.071Y103.31
M3
G1 F100 S1000
G4 P0.25
G1 S0
G0
M3
G1 X92.194Y103.466S1000F2000
G1 X92.324Y103.601
G1 X92.463Y103.716
G1 X92.609Y103.809
G1 X92.766Y103.882
G1 X92.94Y103.934
G1 X93.13Y103.965
G1 X93.335Y103.975
G1 X93.606Y103.957
G1 X93.861Y103.904
G1 X94.099Y103.814
G1 X94.321Y103.688
G1 X94.521Y103.53
G1 X94.695Y103.342
G1 X94.843Y103.124
G1 X94.965Y102.877
G1 X95.06Y102.609
G1 X95.128Y102.329
G1 X95.169Y102.035
G1 X95.183Y101.73
G1 X95.168Y101.404
G1 X95.123Y101.094
G1 X95.048Y100.801
G1 X94.942Y100.525
G1 X94.809Y100.273
G1 X94.648Y100.052
G1 X94.46Y99.862
G1 X94.245Y99.704
G1 X94.013Y99.579
G1 X93.775Y99.49
G1 X93.531Y99.436
G1 X93.282Y99.419
G1 X93.102
G1 X92.931Y99.458
G1 X92.77Y99.506
G1 X92.619Y99.575
G1 X92.352Y99.751
G1 X92.136Y99.969
G1 Y97.846
G1 X91.398
G1 Y103.877
G1 X92.071
G1 Y103.31
M3
G1 F100 S1000
G4 P0.2
G1 S0
G0
M3
G0 X96.69Y102.461
M3
G1 F100 S1000
G4 P0.25
G1 S0
G0
M3
G1 X96.628Y102.114S1000F2000
G1 X96.607Y101.709
G1 X96.629Y101.315
G1 X96.695Y100.973
G1 X96.805Y100.684
G1 X96.96Y100.447
G1 X97.145Y100.263
G1 X97.348Y100.131
G1 X97.568Y100.052
G1 X97.805Y100.026
G1 X98.033Y100.051
G1 X98.245Y100.126
G1 X98.44Y100.251
G1 X98.618Y100.426
G1 X98.767Y100.653
G1 X98.874Y100.931
G1 X98.938Y101.261
G1 X98.959Y101.644
G1 X98.937Y102.052
G1 X98.869Y102.406
G1 X98.757Y102.707
G1 X98.6Y102.953
G1 X98.412Y103.145
G1 X98.209Y103.283
G1 X97.99Y103.365
G1 X97.756Y103.392
G1 X97.525Y103.367
G1 X97.312Y103.29
G1 X97.118Y103.163
G1 X96.941Y102.984
G1 X96.795Y102.751
G1 X96.69Y102.461
M3
G1 F100 S1000
G4 P0.2
G1 S0
G0
M3
G0 X95.975Y102.647
M3
G1 F100 S1000
G4 P0.25
G1 S0
G0
M3
G1 X96.075Y102.916S1000F2000
G1 X96.202Y103.161
G1 X96.354Y103.374
G1 X96.532Y103.556
G1 X96.736Y103.706
G1 X96.958Y103.824
G1 X97.19Y103.908
G1 X97.433Y103.959
G1 X97.686Y103.975
G1 X98.069Y103.933
G1 X98.409Y103.805
G1 X98.705Y103.592
G1 X98.959Y103.294
G1 Y103.877
G1 X99.624
G1 Y97.846
G1 X98.885
G1 Y99.981
G1 X98.79Y99.865
G1 X98.678Y99.759
G1 X98.549Y99.664
G1 X98.403Y99.579
G1 X98.245Y99.509
G1 X98.083Y99.459
G1 X97.916Y99.429
G1 X97.744Y99.419
G1 X97.369Y99.457
G1 X97.022Y99.573
G1 X96.701Y99.767
G1 X96.408Y100.038
G1 X96.162Y100.377
G1 X95.987Y100.773
G1 X95.882Y101.227
G1 X95.847Y101.738
G1 X95.861Y102.058
G1 X95.904Y102.361
G1 X95.975Y102.647
M3
G1 F100 S1000
G4 P0.2
G1 S0
G0
M3
G0 X100.722Y103.877
M3
G1 F100 S1000
G4 P0.25
G1 S0
G0
M3
G1 X101.387S1000F2000
G1 Y103.216
G1 X101.512Y103.428
G1 X101.632Y103.601
G1 X101.747Y103.734
G1 X101.857Y103.828
G1 X101.967Y103.892
G1 X102.083Y103.938
G1 X102.204Y103.966
G1 X102.331
G1 X102.519
G1 X102.708Y103.916
G1 X102.898Y103.841
G1 X103.09Y103.737
G1 X102.836Y103.052
G1 X102.701Y103.122
G1 X102.565Y103.172
G1 X102.43Y103.202
G1 X102.294
G1 X102.176
G1 X102.064Y103.175
G1 X101.958Y103.13
G1 X101.859Y103.066
G1 X101.769Y102.986
G1 X101.694Y102.892
G1 X101.632Y102.784
G1 X101.584Y102.662
G1 X101.492Y102.249
G1 X101.461Y101.8
G1 Y99.517
G1 X100.722
G1 Y103.877
M3
G1 F100 S1000
G4 P0.2
G1 S0
G0
M3
G0 X103.465Y103.259
M3
G1 F100 S1000
G4 P0.25
G1 S0
G0
M3
G1 X103.623Y103.486S1000F2000
G1 X103.829Y103.672
G1 X104.033Y103.789
G1 X104.299Y103.887
G1 X104.607Y103.953
G1 X104.937Y103.975
G1 X105.186
G1 X105.419Y103.938
G1 X105.637Y103.892
G1 X105.838Y103.828
G1 X106.02Y103.747
G1 X106.175Y103.654
G1 X106.306Y103.547
G1 X106.411Y103.427
G1 X106.496Y103.29
G1 X106.567Y103.132
G1 X106.623Y102.953
G1 X106.666Y102.752
G1 X105.943Y102.653
G1 X105.907Y102.813
G1 X105.847Y102.953
G1 X105.764Y103.075
G1 X105.658Y103.179
G1 X105.527Y103.262
G1 X105.373Y103.321
G1 X105.194Y103.356
G1 X104.991Y103.368
G1 X104.754Y103.357
G1 X104.554Y103.326
G1 X104.391Y103.273
G1 X104.264Y103.199
G1 X104.169Y103.112
G1 X104.101Y103.017
G1 X104.06Y102.915
G1 X104.046Y102.805
G1 X104.069Y102.669
G1 X104.137Y102.547
G1 X104.253Y102.438
G1 X104.42Y102.35
G1 X104.502Y102.322
G1 X104.639Y102.282
G1 X104.829Y102.228
G1 X105.435Y102.061
G1 X105.738Y101.97
G1 X105.982Y101.889
G1 X106.167Y101.818
G1 X106.313Y101.744
G1 X106.443Y101.654
G1 X106.557Y101.55
G1 X106.653Y101.43
G1 X106.73Y101.295
G1 X106.786Y101.145
G1 X106.819Y100.979
G1 X106.83Y100.798
G1 X106.816Y100.616
G1 X106.776Y100.439
G1 X106.709Y100.268
G1 X106.614Y100.102
G1 X106.495Y99.948
G1 X106.351Y99.813
G1 X106.184Y99.696
G1 X105.992Y99.597
G1 X105.782Y99.519
G1 X105.559Y99.463
G1 X105.323Y99.43
G1 X105.073Y99.419
G1 X104.673Y99.441
G1 X104.324Y99.507
G1 X104.025Y99.617
G1 X103.777Y99.772
G1 X103.575Y99.969
G1 X103.413Y100.21
G1 X103.291Y100.493
G1 X103.209Y100.818
G1 X103.94Y100.933
G1 X103.984Y100.727
G1 X104.056Y100.545
G1 X104.156Y100.39
G1 X104.282Y100.26
G1 X104.437Y100.158
G1 X104.62Y100.085
G1 X104.83Y100.041
G1 X105.069Y100.026
G1 X105.307Y100.039
G1 X105.512Y100.078
G1 X105.684Y100.143
G1 X105.824Y100.233
G1 X105.932Y100.342
G1 X106.009Y100.459
G1 X106.055Y100.585
G1 X106.07Y100.72
G1 X106.057Y100.838
G1 X106.016Y100.944
G1 X105.948Y101.035
G1 X105.853Y101.114
G1 X105.749Y101.167
G1 X105.588Y101.226
G1 X105.371Y101.292
G1 X104.722Y101.464
G1 X104.409Y101.556
G1 X104.159Y101.641
G1 X103.97Y101.72
G1 X103.823Y101.802
G1 X103.694Y101.898
G1 X103.585Y102.009
G1 X103.494Y102.134
G1 X103.423Y102.27
G1 X103.373Y102.413
G1 X103.342Y102.563
G1 Y102.719
G1 X103.365Y103
G1 X103.465Y103.259
M3
G1 F100 S1000
G4 P0.2
G1 S0
G0
M3
G0 X107.302Y103.302
M3
G1 F100 S1000
G4 P0.25
G1 S0
G0
M3
G1 Y103.877S1000F2000
G1 X107.844
G1 Y104.957
G1 X108.579Y105.4
G1 Y103.877
G1 X109.322
G1 Y103.302
G1 X108.579
G1 Y100.753
G1 Y100.609
G1 Y100.493
G1 X108.601Y100.406
G1 X108.618Y100.346
G1 X108.669Y100.265
G1 X108.745Y100.203
G1 X108.852Y100.163
G1 X108.997Y100.149
G1 X109.14
G1 X109.322Y100.178
G1 X109.428Y99.525
G1 X109.133Y99.476
G1 X108.87Y99.46
G1 X108.68
G1 X108.513Y99.491
G1 X108.368Y99.531
G1 X108.246Y99.587
G1 X108.143Y99.655
G1 X108.057Y99.734
G1 X107.987Y99.823
G1 X107.934Y99.921
G1 X107.895Y100.054
G1 X107.866Y100.243
G1 X107.849Y100.49
G1 Y100.794
G1 Y103.302
G1 X107.302
M3
G1 F100 S1000
G4 P0.2
G1 S0
G0
M3
G0 X110.046Y103.877
M3
G1 F100 S1000
G4 P0.25
G1 S0
G0
M3
G1 X110.785S1000F2000
G1 Y101.459
G1 Y101.193
G1 X110.796Y100.974
G1 X110.81Y100.803
G1 X110.83Y100.679
G1 X110.875Y100.541
G1 X110.939Y100.419
G1 X111.023Y100.312
G1 X111.126Y100.221
G1 X111.245Y100.148
G1 X111.378Y100.096
G1 X111.524Y100.065
G1 X111.684Y100.055
G1 X111.848Y100.065
G1 X112.006Y100.097
G1 X112.16Y100.151
G1 X112.308Y100.225
G1 X112.443Y100.318
G1 X112.557Y100.426
G1 X112.649Y100.55
G1 X112.721Y100.689
G1 X112.774Y100.852
G1 X112.811Y101.049
G1 X112.834Y101.278
G1 Y101.541
G1 Y103.877
G1 X113.581
G1 Y99.517
G1 X112.92
G1 Y100.157
G1 X112.787Y99.984
G1 X112.642Y99.834
G1 X112.486Y99.707
G1 X112.319Y99.603
G1 X112.141Y99.522
G1 X111.951Y99.465
G1 X111.749Y99.43
G1 X111.536Y99.419
G1 X111.346
G1 X111.163Y99.455
G1 X110.986Y99.502
G1 X110.816Y99.566
G1 X110.659Y99.645
G1 X110.524Y99.733
G1 X110.411Y99.831
G1 X110.319Y99.938
G1 X110.181Y100.187
G1 X110.091Y100.486
G1 X110.071Y100.611
G1 X110.057Y100.767
G1 Y100.955
G1 X110.046Y101.176
G1 Y103.877
M3
G1 F100 S1000
G4 P0.2
G1 S0
G0
M3
G0 X114.323Y103.877
M3
G1 F100 S1000
G4 P0.25
G1 S0
G0
M3
G1 X115.103S1000F2000
G1 X116.039Y101.266
G1 X116.185Y100.835
G1 X116.318Y100.387
G1 X116.436Y100.767
G1 X116.593Y101.217
G1 X117.562Y103.877
G1 X118.322
G1 X116.671Y99.517
G1 X115.982
G1 X114.323Y103.877
M3
G1 F100 S1000
G4 P0.2
G1 S0
G0
M3
G0 X118.361Y103.877
M3
G1 F100 S1000
G4 P0.25
G1 S0
G0
M3
G1 X119.124S1000F2000
G1 X120.077Y100.424
G1 X120.303Y101.323
G1 X120.996Y103.877
G1 X121.756
G1 X122.409Y101.348
G1 X122.626Y100.515
G1 X123.624Y103.877
G1 X124.342
G1 X122.979Y99.517
G1 X122.212
G1 X121.518Y102.128
G1 X121.349Y102.871
G1 X120.467Y99.517
G1 X119.695
G1 X118.361Y103.877
M3
G1 F100 S1000
G4 P0.2
G1 S0
G0
M3
G0 X124.486Y103.877
M3
G1 F100 S1000
G4 P0.25
G1 S0
G0
M3
G1 X125.41S1000F2000
G1 X126.079Y102.855
G1 X126.249Y102.587
G1 X126.383Y102.366
G1 X126.556Y102.622
G1 X127.45Y103.877
G1 X128.333
G1 X126.826Y101.824
G1 X128.448Y99.517
G1 X127.54
G1 X126.646Y100.872
G1 X126.407Y101.237
G1 X125.262Y99.517
G1 X124.367
G1 X125.96Y101.783
G1 X124.486Y103.877
M3
G1 F100 S1000
G4 P0.2
G1 S0
G0
M3
G0 X128.561Y103.877
M3
G1 F100 S1000
G4 P0.25
G1 S0
G0
M3
G1 X129.357S1000F2000
G1 X130.264Y101.352
G1 X130.432Y100.859
G1 X130.581Y100.342
G1 X130.72Y100.845
G1 X130.884Y101.336
G1 X131.816Y103.877
G1 X132.555
G1 X130.897Y99.443
G1 X130.771Y99.112
G1 X130.66Y98.837
G1 X130.563Y98.617
G1 X130.482Y98.454
G1 X130.38Y98.283
G1 X130.271Y98.137
G1 X130.154Y98.015
G1 X130.03Y97.918
G1 X129.897Y97.843
G1 X129.751Y97.79
G1 X129.593Y97.758
G1 X129.423Y97.748
G1 X129.197Y97.77
G1 X128.947Y97.838
G1 X128.865Y98.532
G1 X129.091Y98.483
G1 X129.287Y98.466
G1 X129.509Y98.487
G1 X129.681Y98.548
G1 X129.816Y98.647
G1 X129.924Y98.778
G1 X129.964Y98.854
G1 X130.015Y98.971
G1 X130.077Y99.129
G1 X130.215Y99.509
G1 X128.561Y103.877
M3
G1 F100 S1000
G4 P0.2
G1 S0
G0
M3
G0 X132.873Y103.877
M3
G1 F100 S1000
G4 P0.25
G1 S0
G0
M3
G1 X136.437S1000F2000
G1 Y103.388
G1 X134.076Y100.621
G1 X133.621Y100.116
G1 X134.102Y100.144
G1 X134.552
G1 X136.568
G1 Y99.517
G1 X132.709
G1 Y100.116
G1 X135.484Y103.302
G1 X135.04Y103.284
G1 X134.651
G1 X132.873
G1 Y103.877
M3
G1 F100 S1000
G4 P0.2
G1 S0
G0
M3
G0 X137.58Y104.049
M3
G1 F100 S1000
G4 P0.25
G1 S0
G0
M3
G1 X137.88Y104.203S1000F2000
G1 X138.161Y104.372
G1 X138.422Y104.556
G1 X138.664Y104.755
G1 X138.879Y104.961
G1 X139.06Y105.164
G1 X139.207Y105.363
G1 X139.321Y105.56
G1 X139.797
G1 Y99.517
G1 X139.058
G1 Y104.226
G1 X138.75Y103.971
G1 X138.358Y103.717
G1 X137.947Y103.494
G1 X137.58Y103.335
G1 Y104.049
M3
G1 F100 S1000
G4 P0.2
G1 S0
G0
M3
G0 X141.767Y103.819
M3
G1 F100 S1000
G4 P0.25
G1 S0
G0
M3
G1 X141.833Y104.219S1000F2000
G1 X141.953Y104.568
G1 X142.126Y104.867
G1 X142.354Y105.115
G1 X142.63Y105.309
G1 X142.95Y105.449
G1 X143.314Y105.532
G1 X143.721Y105.56
G1 X144.132Y105.53
G1 X144.497Y105.44
G1 X144.817Y105.29
G1 X145.092Y105.08
G1 X145.313Y104.825
G1 X145.471Y104.542
G1 X145.566Y104.23
G1 X145.597Y103.889
G1 X145.56Y103.531
G1 X145.449Y103.179
G1 X145.253Y102.821
G1 X144.959Y102.444
G1 X144.759Y102.233
G1 X144.503Y101.986
G1 X144.19Y101.704
G1 X143.82Y101.385
G1 X143.517Y101.128
G1 X143.274Y100.916
G1 X143.09Y100.75
G1 X142.966Y100.628
G1 X142.793Y100.428
G1 X142.654Y100.227
G1 X145.605
G1 Y99.517
G1 X141.627
G1 X141.645Y99.779
G1 X141.714Y100.03
G1 X141.801Y100.233
G1 X141.911Y100.434
G1 X142.044Y100.633
G1 X142.2Y100.831
G1 X142.386Y101.035
G1 X142.609Y101.256
G1 X142.869Y101.491
G1 X143.618Y102.123
G1 X143.989Y102.463
G1 X144.281Y102.761
G1 X144.493Y103.017
G1 X144.644Y103.249
G1 X144.752Y103.474
G1 X144.816Y103.693
G1 X144.838Y103.906
G1 X144.818Y104.117
G1 X144.759Y104.31
G1 X144.661Y104.487
G1 X144.524Y104.647
G1 X144.355Y104.779
G1 X144.162Y104.873
G1 X143.945Y104.929
G1 X143.705Y104.948
G1 X143.451Y104.928
G1 X143.224Y104.868
G1 X143.024Y104.768
G1 X142.851Y104.628
G1 X142.71Y104.453
G1 X142.61Y104.246
G1 X142.548Y104.009
G1 X142.526Y103.741
G1 X141.767Y103.819
M3
G1 F100 S1000
G4 P0.2
G1 S0
G0
M3
G0 X141.086Y96.955
M3
G1 F100 S1000
G4 P0.25
G1 S0
G0
M3
G1 X141.505Y96.925S1000F2000
G1 X141.879Y96.835
G1 X142.209Y96.685
G1 X142.494Y96.475
G1 X142.724Y96.222
G1 X142.888Y95.945
G1 X142.987Y95.642
G1 X143.02Y95.313
G1 X143.008Y95.12
G1 X142.973Y94.935
G1 X142.916Y94.757
G1 X142.835Y94.587
G1 X142.72Y94.412
G1 X142.562Y94.218
G1 X142.359Y94.007
G1 X142.112Y93.778
G1 X141.947Y93.628
G1 X141.814Y93.5
G1 X141.711Y93.392
G1 X141.64Y93.306
G1 X141.544Y93.143
G1 X141.476Y92.957
G1 X141.452Y92.843
G1 X141.434Y92.698
G1 X141.421Y92.523
G1 Y92.317
G1 X140.704
G1 Y92.538
G1 X140.731Y92.944
G1 X140.823Y93.289
G1 X140.941Y93.529
G1 X141.115Y93.77
G1 X141.203Y93.868
G1 X141.322Y93.987
G1 X141.469Y94.126
G1 X141.646Y94.285
G1 X141.822Y94.446
G1 X141.963Y94.589
G1 X142.071Y94.716
G1 X142.145Y94.825
G1 X142.231Y95.035
G1 X142.26Y95.264
G1 X142.239Y95.473
G1 X142.176Y95.669
G1 X142.071Y95.852
G1 X141.924Y96.022
G1 X141.746Y96.164
G1 X141.549Y96.266
G1 X141.333Y96.328
G1 X141.098Y96.348
G1 X140.872Y96.329
G1 X140.665Y96.274
G1 X140.478Y96.182
G1 X140.31Y96.052
G1 X140.166Y95.884
G1 X140.048Y95.674
G1 X139.958Y95.422
G1 X139.896Y95.129
G1 X139.136Y95.219
G1 X139.213Y95.615
G1 X139.34Y95.962
G1 X139.517Y96.26
G1 X139.746Y96.508
G1 X140.02Y96.704
G1 X140.334Y96.844
G1 X140.69Y96.928
G1 X141.086Y96.955
M3
G1 F100 S1000
G4 P0.2
G1 S0
G0
M3
G0 X143.935Y95.839
M3
G1 F100 S1000
G4 P0.25
G1 S0
G0
M3
G1 X147.921Y94.156S1000F2000
G1 Y93.466
G1 X143.935Y91.762
G1 Y92.497
G1 X147.092Y93.807
G1 X143.935Y95.104
G1 Y95.839
M3
G1 F100 S1000
G4 P0.2
G1 S0
G0
M3
G0 X138.013Y95.194
M3
G1 F100 S1000
G4 P0.25
G1 S0
G0
M3
G1 Y94.353S1000F2000
G1 X137.172
G1 Y95.194
G1 X138.013
M3
G1 F100 S1000
G4 P0.2
G1 S0
G0
M3
G0 X138.013Y91.676
M3
G1 F100 S1000
G4 P0.25
G1 S0
G0
M3
G1 Y90.835S1000F2000
G1 X137.172
G1 Y91.676
G1 X138.013
M3
G1 F100 S1000
G4 P0.2
G1 S0
G0
M3
G0 X140.659Y91.676
M3
G1 F100 S1000
G4 P0.25
G1 S0
G0
M3
G1 X141.501S1000F2000
G1 Y90.835
G1 X140.659
G1 Y91.676
M3
G1 F100 S1000
G4 P0.2
G1 S0
G0
M3
G0 X132.845Y92.663
M3
G1 F100 S1000
G4 P0.25
G1 S0
G0
M3
G1 X132.956Y93.081S1000F2000
G1 X132.993Y93.499
G1 X132.976Y93.762
G1 X132.924Y93.995
G1 X132.837Y94.195
G1 X132.716Y94.365
G1 X132.57Y94.5
G1 X132.408Y94.596
G1 X132.232Y94.654
G1 X132.04Y94.673
G1 X131.785Y94.64
G1 X131.546Y94.54
G1 X131.317Y94.366
G1 X131.096Y94.111
G1 X130.9Y93.783
G1 X130.747Y93.392
G1 X130.649Y92.987
G1 X130.616Y92.616
G1 X130.633Y92.351
G1 X130.683Y92.116
G1 X130.766Y91.913
G1 X130.883Y91.742
G1 X131.021Y91.605
G1 X131.169Y91.508
G1 X131.327Y91.449
G1 X131.494Y91.43
G1 X131.731Y91.464
G1 X131.979Y91.567
G1 X132.228Y91.738
G1 X132.465Y91.976
G1 X132.676Y92.283
G1 X132.845Y92.663
M3
G1 F100 S1000
G4 P0.2
G1 S0
G0
M3
G0 X133.456Y92.156
M3
G1 F100 S1000
G4 P0.25
G1 S0
G0
M3
G1 X133.418Y91.965S1000F2000
G1 X133.395Y91.838
G1 Y91.775
G1 X133.408Y91.671
G1 X133.471Y91.584
G1 X133.564Y91.524
G1 X133.674Y91.504
G1 X133.792Y91.519
G1 X133.926Y91.566
G1 X134.077Y91.645
G1 X134.245Y91.754
G1 X134.467Y91.932
G1 X134.664Y92.138
G1 X134.837Y92.373
G1 X134.986Y92.635
G1 X135.105Y92.913
G1 X135.191Y93.196
G1 X135.242Y93.483
G1 X135.259Y93.774
G1 X135.237Y94.111
G1 X135.171Y94.437
G1 X135.062Y94.751
G1 X134.908Y95.055
G1 X134.711Y95.338
G1 X134.471Y95.59
G1 X134.188Y95.814
G1 X133.861Y96.007
G1 X133.504Y96.163
G1 X133.129Y96.275
G1 X132.735Y96.342
G1 X132.324Y96.364
G1 X131.854Y96.336
G1 X131.405Y96.252
G1 X130.976Y96.111
G1 X130.569Y95.915
G1 X130.194Y95.666
G1 X129.864Y95.368
G1 X129.578Y95.021
G1 X129.337Y94.626
G1 X129.146Y94.198
G1 X129.009Y93.756
G1 X128.927Y93.298
G1 X128.9Y92.826
G1 X128.927Y92.34
G1 X129.009Y91.89
G1 X129.146Y91.474
G1 X129.337Y91.093
G1 X129.58Y90.754
G1 X129.872Y90.461
G1 X130.212Y90.217
G1 X130.602Y90.02
G1 X131.026Y89.868
G1 X131.473Y89.759
G1 X131.943Y89.694
G1 X132.435Y89.673
G1 X132.951Y89.695
G1 X133.423Y89.763
G1 X133.852Y89.876
G1 X134.237Y90.034
G1 X134.577Y90.224
G1 X134.872Y90.434
G1 X135.121Y90.664
G1 X135.325Y90.913
G1 X136.068
G1 X135.944Y90.696
G1 X135.783Y90.477
G1 X135.585Y90.257
G1 X135.349Y90.034
G1 X135.083Y89.822
G1 X134.792Y89.633
G1 X134.477Y89.468
G1 X134.138Y89.326
G1 X133.769Y89.212
G1 X133.364Y89.13
G1 X132.924Y89.081
G1 X132.447Y89.065
G1 X132Y89.08
G1 X131.571Y89.124
G1 X131.16Y89.197
G1 X130.766Y89.299
G1 X130.395Y89.431
G1 X130.053Y89.592
G1 X129.739Y89.783
G1 X129.454Y90.003
G1 X129.2Y90.247
G1 X128.979Y90.509
G1 X128.791Y90.788
G1 X128.637Y91.085
G1 X128.486Y91.481
G1 X128.379Y91.892
G1 X128.314Y92.318
G1 X128.292Y92.76
G1 X128.318Y93.255
G1 X128.395Y93.738
G1 X128.523Y94.209
G1 X128.703Y94.669
G1 X128.98Y95.193
G1 X129.309Y95.651
G1 X129.691Y96.044
G1 X130.125Y96.373
G1 X130.611Y96.631
G1 X131.145Y96.816
G1 X131.728Y96.927
G1 X132.361Y96.964
G1 X132.857Y96.938
G1 X133.327Y96.86
G1 X133.771Y96.729
G1 X134.19Y96.547
G1 X134.574Y96.313
G1 X134.915Y96.028
G1 X135.213Y95.692
G1 X135.468Y95.305
G1 X135.643Y94.942
G1 X135.767Y94.564
G1 X135.842Y94.171
G1 X135.867Y93.762
G1 X135.854Y93.468
G1 X135.814Y93.183
G1 X135.749Y92.906
G1 X135.657Y92.638
G1 X135.539Y92.378
G1 X135.396Y92.126
G1 X135.225Y91.882
G1 X135.029Y91.647
G1 X134.84Y91.453
G1 X134.647Y91.285
G1 X134.449Y91.142
G1 X134.247Y91.025
G1 X134.041Y90.935
G1 X133.83Y90.87
G1 X133.615Y90.831
G1 X133.395Y90.818
G1 X133.139Y90.84
G1 X132.938Y90.904
G1 X132.786Y91.009
G1 X132.681Y91.151
G1 X132.635Y91.29
G1 X132.603Y91.504
G1 X132.32Y91.226
G1 X132.006Y91.009
G1 X131.84Y90.927
G1 X131.675Y90.869
G1 X131.509Y90.834
G1 X131.343Y90.822
G1 X131.161Y90.836
G1 X130.982Y90.876
G1 X130.806Y90.942
G1 X130.632Y91.036
G1 X130.468Y91.157
G1 X130.32Y91.307
G1 X130.188Y91.485
G1 X130.072Y91.693
G1 X129.978Y91.92
G1 X129.91Y92.157
G1 X129.87Y92.406
G1 X129.856Y92.665
G1 X129.877Y92.992
G1 X129.94Y93.319
G1 X130.045Y93.646
G1 X130.191Y93.973
G1 X130.368Y94.28
G1 X130.566Y94.546
G1 X130.784Y94.772
G1 X131.022Y94.956
G1 X131.269Y95.1
G1 X131.512Y95.203
G1 X131.751Y95.264
G1 X131.987Y95.285
G1 X132.164Y95.273
G1 X132.336Y95.238
G1 X132.504Y95.18
G1 X132.669Y95.098
G1 X132.825Y94.992
G1 X132.97Y94.862
G1 X133.104Y94.708
G1 X133.227Y94.529
G1 X133.367Y95.166
G1 X134.101
G1 X133.456Y92.156
M3
G1 F100 S1000
G4 P0.2
G1 S0
G0
M3
G0 X127.517Y93.597
M3
G1 F100 S1000
G4 P0.25
G1 S0
G0
M3
G1 X127.253Y93.385S1000F2000
G1 X126.986Y93.24
G1 X126.7Y93.157
G1 X126.38Y93.129
G1 X126.139Y93.144
G1 X125.91Y93.187
G1 X125.782Y93.226
G1 X125.621Y93.284
G1 X125.427Y93.363
G1 X125.2Y93.462
G1 X124.967Y93.557
G1 X124.754Y93.625
G1 X124.561Y93.666
G1 X124.389Y93.679
G1 X124.134Y93.651
G1 X123.894Y93.567
G1 X123.771Y93.496
G1 X123.634Y93.399
G1 X123.483Y93.274
G1 X123.317Y93.121
G1 Y93.963
G1 X123.552Y94.178
G1 X123.82Y94.332
G1 X124.123Y94.425
G1 X124.459Y94.455
G1 X124.711Y94.437
G1 X124.976Y94.384
G1 X125.126Y94.339
G1 X125.304Y94.276
G1 X125.512Y94.196
G1 X125.748Y94.098
G1 X125.996Y94
G1 X126.173Y93.942
G1 X126.315Y93.915
G1 X126.458
G1 X126.729Y93.945
G1 X127.01Y94.065
G1 X127.28Y94.246
G1 X127.517Y94.468
G1 Y93.597
M3
G1 F100 S1000
G4 P0.2
G1 S0
G0
M3
G0 X121.918Y94.111
M3
G1 F100 S1000
G4 P0.25
G1 S0
G0
M3
G1 X121.875Y93.903S1000F2000
G1 X121.818Y93.722
G1 X121.749Y93.565
G1 X121.666Y93.433
G1 X121.564Y93.317
G1 X121.436Y93.208
G1 X121.284Y93.106
G1 X121.105Y93.01
G1 X121.316Y92.903
G1 X121.495Y92.772
G1 X121.643Y92.615
G1 X121.76Y92.434
G1 X121.849Y92.209
G1 X121.913Y91.922
G1 X121.951Y91.573
G1 X121.963Y91.163
G1 Y90.803
G1 Y90.525
G1 Y90.327
G1 X121.98Y90.211
G1 X122.003Y90.081
G1 X122.038Y89.973
G1 X122.086Y89.886
G1 X122.146Y89.821
G1 X122.229Y89.772
G1 X122.344Y89.737
G1 X122.491Y89.717
G1 X122.669
G1 X122.797
G1 Y89.065
G1 X122.567
G1 X122.38
G1 X122.22Y89.082
G1 X122.088Y89.102
G1 X121.984Y89.131
G1 X121.744Y89.255
G1 X121.549Y89.437
G1 X121.47Y89.549
G1 X121.407Y89.676
G1 X121.358Y89.817
G1 X121.325Y89.972
G1 X121.302Y90.16
G1 X121.286Y90.4
G1 X121.275Y90.692
G1 X121.264Y91.377
G1 X121.25Y91.661
G1 X121.229Y91.888
G1 X121.2Y92.058
G1 X121.159Y92.192
G1 X121.101Y92.311
G1 X121.026Y92.416
G1 X120.935Y92.505
G1 X120.828Y92.578
G1 X120.707Y92.631
G1 X120.571Y92.664
G1 X120.42Y92.678
G1 Y93.347
G1 X120.571Y93.361
G1 X120.707Y93.394
G1 X120.828Y93.446
G1 X120.935Y93.517
G1 X121.026Y93.606
G1 X121.101Y93.71
G1 X121.159Y93.829
G1 X121.2Y93.963
G1 X121.229Y94.13
G1 X121.25Y94.347
G1 X121.264Y94.614
G1 Y94.932
G1 Y95.245
G1 X121.278Y95.5
G1 Y95.697
G1 X121.294Y95.835
G1 X121.347Y96.146
G1 X121.432Y96.389
G1 X121.544Y96.577
G1 X121.68Y96.724
G1 X121.848Y96.834
G1 X122.058Y96.914
G1 X122.148Y96.932
G1 X122.263Y96.945
G1 X122.403
G1 X122.567Y96.955
G1 X122.797
G1 Y96.311
G1 X122.669
G1 X122.474
G1 X122.314Y96.272
G1 X122.191Y96.224
G1 X122.103Y96.157
G1 X122.042Y96.056
G1 X121.998Y95.908
G1 X121.972Y95.712
G1 Y95.469
G1 X121.961Y94.981
G1 Y94.592
G1 X121.938Y94.302
G1 X121.918Y94.111
M3
G1 F100 S1000
G4 P0.2
G1 S0
G0
M3
G0 X119.981Y93.347
M3
G1 F100 S1000
G4 P0.25
G1 S0
G0
M3
G1 Y92.678S1000F2000
G1 X119.83Y92.664
G1 X119.694Y92.631
G1 X119.573Y92.578
G1 X119.466Y92.505
G1 X119.375Y92.416
G1 X119.3Y92.312
G1 X119.242Y92.193
G1 X119.201Y92.06
G1 X119.172Y91.894
G1 X119.151Y91.678
G1 X119.137Y91.411
G1 Y91.093
G1 Y90.78
G1 X119.123Y90.525
G1 Y90.328
G1 X119.107Y90.19
G1 X119.054Y89.876
G1 X118.969Y89.634
G1 X118.857Y89.447
G1 X118.721Y89.301
G1 X118.553Y89.191
G1 X118.343Y89.11
G1 X118.253Y89.091
G1 X118.138Y89.076
G1 X117.998
G1 X117.834Y89.065
G1 X117.604
G1 Y89.71
G1 X117.732
G1 X117.927
G1 X118.087Y89.748
G1 X118.21Y89.796
G1 X118.298Y89.864
G1 X118.359Y89.965
G1 X118.403Y90.114
G1 X118.429Y90.31
G1 Y90.555
G1 X118.44Y91.022
G1 Y91.394
G1 X118.458Y91.672
G1 X118.475Y91.857
G1 X118.516Y92.073
G1 X118.573Y92.267
G1 X118.647Y92.438
G1 X118.737Y92.585
G1 X118.846Y92.714
G1 X118.975Y92.828
G1 X119.125Y92.927
G1 X119.296Y93.01
G1 X119.077Y93.132
G1 X118.893Y93.273
G1 X118.744Y93.431
G1 X118.631Y93.608
G1 X118.546Y93.825
G1 X118.486Y94.107
G1 X118.45Y94.452
G1 X118.438Y94.862
G1 Y95.222
G1 Y95.501
G1 X118.426Y95.7
G1 Y95.818
G1 X118.396Y95.945
G1 X118.362Y96.052
G1 X118.315Y96.137
G1 X118.255Y96.202
G1 X118.172Y96.25
G1 X118.057Y96.284
G1 X117.91Y96.304
G1 X117.732
G1 X117.604
G1 Y96.955
G1 X117.834
G1 X118.021
G1 X118.181Y96.939
G1 X118.313Y96.919
G1 X118.417Y96.89
G1 X118.543Y96.837
G1 X118.657Y96.769
G1 X118.76Y96.685
G1 X118.852Y96.586
G1 X118.931Y96.472
G1 X118.994Y96.345
G1 X119.043Y96.203
G1 X119.076Y96.048
G1 X119.099Y95.86
G1 X119.116Y95.62
G1 X119.126Y95.329
G1 X119.137Y94.644
G1 X119.151Y94.36
G1 X119.172Y94.134
G1 X119.201Y93.965
G1 X119.242Y93.832
G1 X119.3Y93.713
G1 X119.375Y93.609
G1 X119.466Y93.519
G1 X119.573Y93.447
G1 X119.694Y93.394
G1 X119.83Y93.361
G1 X119.981Y93.347
M3
G1 F100 S1000
G4 P0.2
G1 S0
G0
M3
G0 X116.977Y93.458
M3
G1 F100 S1000
G4 P0.25
G1 S0
G0
M3
G1 X115.339S1000F2000
G1 Y91.807
G1 X114.641
G1 Y93.458
G1 X113.003
G1 Y94.147
G1 X114.641
G1 Y95.785
G1 X115.339
G1 Y94.147
G1 X116.977
G1 Y93.458
M3
G1 F100 S1000
G4 P0.2
G1 S0
G0
M3
G0 X112.597Y89.697
M3
G1 F100 S1000
G4 P0.25
G1 S0
G0
M3
G1 Y89.164S1000F2000
G1 X107.699
G1 Y89.697
G1 X112.597
M3
G1 F100 S1000
G4 P0.2
G1 S0
G0
M3
G0 X107.123Y90.871
M3
G1 F100 S1000
G4 P0.25
G1 S0
G0
M3
G1 X106.899Y90.371S1000F2000
G1 X106.653Y89.903
G1 X106.383Y89.467
G1 X106.091Y89.065
G1 X105.561
G1 X105.849Y89.558
G1 X106.098Y90.051
G1 X106.309Y90.544
G1 X106.482Y91.037
G1 X106.616Y91.53
G1 X106.712Y92.023
G1 X106.77Y92.517
G1 X106.789Y93.01
G1 X106.778Y93.395
G1 X106.745Y93.779
G1 X106.689Y94.161
G1 X106.612Y94.542
G1 X106.445Y95.145
G1 X106.222Y95.724
G1 X106.121Y95.939
G1 X105.977Y96.217
G1 X105.79Y96.555
G1 X105.561Y96.955
G1 X106.091
G1 X106.452Y96.44
G1 X106.762Y95.923
G1 X107.022Y95.405
G1 X107.232Y94.886
G1 X107.37Y94.434
G1 X107.469Y93.971
G1 X107.528Y93.498
G1 X107.548Y93.014
G1 X107.522Y92.465
G1 X107.442Y91.924
G1 X107.309Y91.393
G1 X107.123Y90.871
M3
G1 F100 S1000
G4 P0.2
G1 S0
G0
M3
G0 X104.026Y90.544
M3
G1 F100 S1000
G4 P0.25
G1 S0
G0
M3
G1 X104.237Y90.051S1000F2000
G1 X104.486Y89.558
G1 X104.774Y89.065
G1 X104.244
G1 X103.95Y89.467
G1 X103.68Y89.903
G1 X103.433Y90.371
G1 X103.21Y90.871
G1 X103.025Y91.393
G1 X102.892Y91.924
G1 X102.813Y92.465
G1 X102.787Y93.014
G1 X102.806Y93.498
G1 X102.866Y93.971
G1 X102.965Y94.434
G1 X103.103Y94.886
G1 X103.313Y95.405
G1 X103.573Y95.923
G1 X103.883Y96.44
G1 X104.244Y96.955
G1 X104.774
G1 X104.546Y96.559
G1 X104.361Y96.224
G1 X104.218Y95.949
G1 X104.117Y95.736
G1 X103.893Y95.157
G1 X103.723Y94.554
G1 X103.645Y94.17
G1 X103.59Y93.784
G1 X103.557Y93.398
G1 X103.546Y93.01
G1 X103.565Y92.517
G1 X103.623Y92.023
G1 X103.719Y91.53
G1 X103.853Y91.037
G1 X104.026Y90.544
M3
G1 F100 S1000
G4 P0.2
G1 S0
G0
M3
G0 X101.166Y94.394
M3
G1 F100 S1000
G4 P0.25
G1 S0
G0
M3
G1 X101.042Y94.571S1000F2000
G1 X100.907Y94.777
G1 X100.761Y95.012
G1 X100.604Y95.276
G1 X100.457Y95.004
G1 X100.319Y94.766
G1 X100.19Y94.563
G1 X100.07Y94.394
G1 X99.586Y94.743
G1 X99.807Y95.011
G1 X99.994Y95.23
G1 X100.148Y95.399
G1 X100.267Y95.519
G1 X99.751Y95.627
G1 X99.261Y95.749
G1 X99.45Y96.331
G1 X99.754Y96.22
G1 X100.014Y96.117
G1 X100.228Y96.021
G1 X100.399Y95.933
G1 X100.364Y96.276
G1 X100.339Y96.56
G1 X100.323Y96.787
G1 Y96.955
G1 X100.912
G1 X100.901Y96.739
G1 X100.882Y96.498
G1 X100.854Y96.23
G1 X100.817Y95.937
G1 X101.271Y96.143
G1 X101.786Y96.331
G1 X101.975Y95.749
G1 X101.459Y95.605
G1 X100.953Y95.519
G1 X101.091Y95.389
G1 X101.255Y95.216
G1 X101.444Y95.001
G1 X101.659Y94.743
G1 X101.166Y94.394
M3
G1 F100 S1000
G4 P0.2
G1 S0
G0
M3
G0 X96.586Y95.403
M3
G1 F100 S1000
G4 P0.25
G1 S0
G0
M3
G1 X96.621Y95.65S1000F2000
G1 X96.609Y95.797
G1 X96.572Y95.93
G1 X96.511Y96.048
G1 X96.426Y96.153
G1 X96.323Y96.238
G1 X96.207Y96.299
G1 X96.079Y96.336
G1 X95.94Y96.348
G1 X95.796Y96.336
G1 X95.665Y96.3
G1 X95.547Y96.239
G1 X95.441Y96.155
G1 X95.354Y96.053
G1 X95.291Y95.94
G1 X95.254Y95.817
G1 X95.242Y95.683
G1 X95.26Y95.54
G1 X95.314Y95.389
G1 X95.403Y95.231
G1 X95.529Y95.063
G1 X95.858Y94.681
G1 X96.077Y94.818
G1 X96.253Y94.947
G1 X96.387Y95.067
G1 X96.479Y95.178
G1 X96.586Y95.403
M3
G1 F100 S1000
G4 P0.2
G1 S0
G0
M3
G0 X95.541Y93.807
M3
G1 F100 S1000
G4 P0.25
G1 S0
G0
M3
G1 X95.266Y93.631S1000F2000
G1 X95.04Y93.462
G1 X94.862Y93.3
G1 X94.733Y93.144
G1 X94.641Y92.991
G1 X94.576Y92.839
G1 X94.536Y92.688
G1 X94.523Y92.538
G1 X94.542Y92.354
G1 X94.596Y92.166
G1 X94.687Y91.974
G1 X94.815Y91.779
G1 X94.976Y91.606
G1 X95.167Y91.483
G1 X95.388Y91.409
G1 X95.64Y91.385
G1 X95.808Y91.398
G1 X95.978Y91.436
G1 X96.151Y91.501
G1 X96.328Y91.592
G1 X96.496Y91.703
G1 X96.647Y91.83
G1 X96.781Y91.971
G1 X96.896Y92.128
G1 X95.541Y93.807
M3
G1 F100 S1000
G4 P0.2
G1 S0
G0
M3
G0 X95.16Y94.291
M3
G1 F100 S1000
G4 P0.25
G1 S0
G0
M3
G1 X94.973Y94.514S1000F2000
G1 X94.821Y94.715
G1 X94.702Y94.894
G1 X94.618Y95.051
G1 X94.516Y95.337
G1 X94.482Y95.613
G1 X94.509Y95.875
G1 X94.588Y96.12
G1 X94.721Y96.346
G1 X94.907Y96.555
G1 X95.133Y96.73
G1 X95.387Y96.855
G1 X95.668Y96.93
G1 X95.977Y96.955
G1 X96.27Y96.932
G1 X96.536Y96.861
G1 X96.774Y96.743
G1 X96.984Y96.578
G1 X97.156Y96.379
G1 X97.278Y96.162
G1 X97.352Y95.926
G1 X97.376Y95.671
G1 X97.359Y95.46
G1 X97.305Y95.257
G1 X97.217Y95.062
G1 X97.092Y94.875
G1 X96.932Y94.696
G1 X96.737Y94.524
G1 X96.506Y94.361
G1 X96.239Y94.205
G1 X97.319Y92.83
G1 X97.483Y93.22
G1 X97.606Y93.667
G1 X98.374Y93.503
G1 X98.267Y93.126
G1 X98.142Y92.785
G1 X98Y92.478
G1 X97.84Y92.206
G1 X98.055Y91.942
G1 X98.283Y91.7
G1 X98.525Y91.48
G1 X98.78Y91.282
G1 X98.284Y90.695
G1 X98.058Y90.856
G1 X97.829Y91.051
G1 X97.596Y91.281
G1 X97.36Y91.545
G1 X97.173Y91.354
G1 X96.978Y91.189
G1 X96.775Y91.049
G1 X96.564Y90.935
G1 X96.344Y90.846
G1 X96.115Y90.783
G1 X95.878Y90.745
G1 X95.632Y90.732
G1 X95.194Y90.771
G1 X94.803Y90.888
G1 X94.461Y91.083
G1 X94.166Y91.356
G1 X93.974Y91.618
G1 X93.837Y91.895
G1 X93.754Y92.186
G1 X93.727Y92.493
G1 X93.749Y92.765
G1 X93.817Y93.024
G1 X93.929Y93.269
G1 X94.086Y93.501
G1 X94.288Y93.719
G1 X94.534Y93.923
G1 X94.825Y94.114
G1 X95.16Y94.291
M3
G1 F100 S1000
G4 P0.2
G1 S0
G0
M3
G0 X93.474Y93.667
M3
G1 F100 S1000
G4 P0.25
G1 S0
G0
M3
G1 X92.731S1000F2000
G1 X91.717Y96.118
G1 X90.732Y93.667
G1 X89.972
G1 X91.421Y96.955
G1 X92.016
G1 X93.474Y93.667
M3
G1 F100 S1000
G4 P0.2
G1 S0
G0
M3
G0 X88.478Y92.91
M3
G1 F100 S1000
G4 P0.25
G1 S0
G0
M3
G1 X88.397Y93.049S1000F2000
G1 X88.299Y93.153
G1 X88.189Y93.226
G1 X88.069Y93.271
G1 X87.937Y93.285
G1 X87.803Y93.27
G1 X87.682Y93.226
G1 X87.573Y93.151
G1 X87.475Y93.047
G1 X87.395Y92.903
G1 X87.338Y92.71
G1 X87.304Y92.466
G1 X87.292Y92.173
G1 X87.304Y91.907
G1 X87.339Y91.682
G1 X87.396Y91.5
G1 X87.477Y91.36
G1 X87.575Y91.256
G1 X87.683Y91.181
G1 X87.803Y91.137
G1 X87.933Y91.122
G1 X88.068Y91.137
G1 X88.191Y91.181
G1 X88.301Y91.256
G1 X88.399Y91.36
G1 X88.479Y91.504
G1 X88.536Y91.697
G1 X88.57Y91.939
G1 X88.582Y92.23
G1 X88.57Y92.5
G1 X88.535Y92.727
G1 X88.478Y92.91
M3
G1 F100 S1000
G4 P0.2
G1 S0
G0
M3
G0 X89.133Y92.891
M3
G1 F100 S1000
G4 P0.25
G1 S0
G0
M3
G1 X89.203Y92.57S1000F2000
G1 X89.226Y92.202
G1 X89.203Y91.842
G1 X89.132Y91.526
G1 X89.015Y91.254
G1 X88.85Y91.025
G1 X88.651Y90.845
G1 X88.43Y90.716
G1 X88.186Y90.639
G1 X87.921Y90.613
G1 X87.659Y90.638
G1 X87.42Y90.715
G1 X87.204Y90.843
G1 X87.011Y91.021
G1 X86.852Y91.251
G1 X86.739Y91.532
G1 X86.671Y91.864
G1 X86.648Y92.247
G1 X86.668Y92.559
G1 X86.729Y92.846
G1 X86.83Y93.108
G1 X86.972Y93.345
G1 X87.153Y93.542
G1 X87.37Y93.682
G1 X87.625Y93.766
G1 X87.916Y93.794
G1 X88.188Y93.769
G1 X88.434Y93.693
G1 X88.657Y93.567
G1 X88.854Y93.39
G1 X89.017Y93.164
G1 X89.133Y92.891
M3
G1 F100 S1000
G4 P0.2
G1 S0
G0
M3
G0 X84.503Y94.521
M3
G1 F100 S1000
G4 P0.25
G1 S0
G0
M3
G1 X84.583Y94.665S1000F2000
G1 X84.64Y94.858
G1 X84.674Y95.1
G1 X84.686Y95.391
G1 X84.674Y95.661
G1 X84.639Y95.888
G1 X84.582Y96.071
G1 X84.501Y96.21
G1 X84.403Y96.314
G1 X84.294Y96.387
G1 X84.173Y96.432
G1 X84.041Y96.446
G1 X83.909Y96.432
G1 X83.789Y96.387
G1 X83.68Y96.313
G1 X83.583Y96.208
G1 X83.503Y96.064
G1 X83.446Y95.871
G1 X83.412Y95.627
G1 X83.401Y95.334
G1 X83.412Y95.066
G1 X83.447Y94.841
G1 X83.505Y94.658
G1 X83.585Y94.519
G1 X83.683Y94.416
G1 X83.792Y94.342
G1 X83.911Y94.298
G1 X84.041Y94.283
G1 X84.175Y94.298
G1 X84.296Y94.342
G1 X84.406Y94.417
G1 X84.503Y94.521
M3
G1 F100 S1000
G4 P0.2
G1 S0
G0
M3
G0 X85.119Y94.415
M3
G1 F100 S1000
G4 P0.25
G1 S0
G0
M3
G1 X84.954Y94.186S1000F2000
G1 X84.756Y94.006
G1 X84.535Y93.877
G1 X84.293Y93.8
G1 X84.029Y93.774
G1 X83.767Y93.799
G1 X83.528Y93.876
G1 X83.313Y94.003
G1 X83.119Y94.18
G1 X82.96Y94.409
G1 X82.847Y94.69
G1 X82.779Y95.023
G1 X82.756Y95.408
G1 X82.776Y95.718
G1 X82.837Y96.004
G1 X82.939Y96.266
G1 X83.08Y96.504
G1 X83.261Y96.701
G1 X83.478Y96.843
G1 X83.731Y96.927
G1 X84.021Y96.955
G1 X84.292Y96.93
G1 X84.538Y96.854
G1 X84.761Y96.728
G1 X84.959Y96.551
G1 X85.121Y96.325
G1 X85.237Y96.052
G1 X85.307Y95.731
G1 X85.33Y95.363
G1 X85.307Y95.003
G1 X85.236Y94.687
G1 X85.119Y94.415
M3
G1 F100 S1000
G4 P0.2
G1 S0
G0
M3
G0 X87.338Y96.955
M3
G1 F100 S1000
G4 P0.25
G1 S0
G0
M3
G1 X87.937S1000F2000
G1 X84.657Y90.613
G1 X84.045
G1 X87.338Y96.955
M3
G1 F100 S1000
G4 P0.2
G1 S0
G0
M3
G0 X79.653Y96.438
M3
G1 F100 S1000
G4 P0.25
G1 S0
G0
M3
G1 X79.449Y96.392S1000F2000
G1 X79.268Y96.319
G1 X79.109Y96.22
G1 X78.974Y96.093
G1 X78.865Y95.947
G1 X78.787Y95.789
G1 X78.741Y95.617
G1 X78.725Y95.432
G1 X78.738Y95.251
G1 X78.778Y95.086
G1 X78.844Y94.935
G1 X78.937Y94.8
G1 X79.061Y94.679
G1 X79.221Y94.571
G1 X79.419Y94.476
G1 X79.653Y94.394
G1 Y96.438
M3
G1 F100 S1000
G4 P0.2
G1 S0
G0
M3
G0 X76.933Y96.056
M3
G1 F100 S1000
G4 P0.25
G1 S0
G0
M3
G1 X77.058Y95.748S1000F2000
G1 X77.137Y95.4
G1 X76.402Y95.289
G1 X76.356Y95.522
G1 X76.28Y95.729
G1 X76.172Y95.91
G1 X76.035Y96.065
G1 X75.874Y96.189
G1 X75.699Y96.277
G1 X75.508Y96.33
G1 X75.302Y96.348
G1 X75.084Y96.33
G1 X74.885Y96.275
G1 X74.705Y96.183
G1 X74.545Y96.054
G1 X74.413Y95.9
G1 X74.318Y95.731
G1 X74.262Y95.546
G1 X74.243Y95.346
G1 X74.257Y95.101
G1 X74.301Y94.821
G1 X74.374Y94.506
G1 X74.477Y94.156
G1 X75.77
G1 Y93.548
G1 X74.604
G1 X74.663Y93.367
G1 X74.682Y93.187
G1 X74.671Y93.006
G1 X74.639Y92.819
G1 X74.586Y92.628
G1 X74.512Y92.431
G1 X74.413Y92.231
G1 X74.286Y92.029
G1 X74.133Y91.825
G1 X73.951Y91.619
G1 X74.261Y91.686
G1 X74.542Y91.709
G1 X74.905Y91.683
G1 X75.31Y91.606
G1 X75.635Y91.533
G1 X75.902Y91.48
G1 X76.113Y91.449
G1 X76.267Y91.438
G1 X76.43Y91.452
G1 X76.616Y91.495
G1 X76.824Y91.567
G1 X77.055Y91.668
G1 X77.293Y90.991
G1 X77.115Y90.917
G1 X76.958Y90.858
G1 X76.822Y90.813
G1 X76.708Y90.781
G1 X76.501Y90.744
G1 X76.295Y90.732
G1 X76.122
G1 X75.946Y90.765
G1 X75.872Y90.782
G1 X75.758Y90.812
G1 X75.606Y90.857
G1 X75.068Y91.018
G1 X74.951Y91.05
G1 X74.871Y91.069
G1 X74.678Y91.093
G1 X74.485
G1 X74.18Y91.076
G1 X73.855Y90.999
G1 X73.535Y90.878
G1 X73.245Y90.72
G1 X72.962Y91.43
G1 X73.152Y91.55
G1 X73.326Y91.694
G1 X73.486Y91.861
G1 X73.631Y92.052
G1 X73.751Y92.265
G1 X73.837Y92.501
G1 X73.889Y92.759
G1 X73.906Y93.039
G1 X73.889Y93.292
G1 X73.836Y93.548
G1 X73.032
G1 Y94.156
G1 X73.664
G1 X73.602Y94.37
G1 X73.553Y94.553
G1 X73.516Y94.706
G1 X73.492Y94.827
G1 X73.464Y95.036
G1 Y95.239
G1 X73.494Y95.643
G1 X73.613Y96
G1 X73.81Y96.31
G1 X74.087Y96.574
G1 X74.355Y96.741
G1 X74.649Y96.86
G1 X74.97Y96.932
G1 X75.318Y96.955
G1 X75.674Y96.93
G1 X75.996Y96.853
G1 X76.286Y96.726
G1 X76.544Y96.547
G1 X76.762Y96.322
G1 X76.933Y96.056
M3
G1 F100 S1000
G4 P0.2
G1 S0
G0
M3
G0 X72.415Y95.868
M3
G1 F100 S1000
G4 P0.25
G1 S0
G0
M3
G1 X72.218Y94.722S1000F2000
G1 X71.774
G1 X71.573Y95.868
G1 Y96.853
G1 X72.415
G1 Y95.868
M3
G1 F100 S1000
G4 P0.2
G1 S0
G0
M3
G0 X71.052Y95.868
M3
G1 F100 S1000
G4 P0.25
G1 S0
G0
M3
G1 X70.867Y94.722S1000F2000
G1 X70.416
G1 X70.21Y95.868
G1 Y96.853
G1 X71.052
G1 Y95.868
M3
G1 F100 S1000
G4 P0.2
G1 S0
G0
M3
G0 X69.108Y95.519
M3
G1 F100 S1000
G4 P0.25
G1 S0
G0
M3
G1 X68.895Y92.329S1000F2000
G1 X68.419
G1 X68.193Y95.519
G1 Y96.853
G1 X69.108
G1 Y95.519
M3
G1 F100 S1000
G4 P0.2
G1 S0
G0
M3
G0 X66.141Y95.271
M3
G1 F100 S1000
G4 P0.25
G1 S0
G0
M3
G1 X66.081Y95.471S1000F2000
G1 X66.011Y95.64
G1 X65.929Y95.777
G1 X65.745Y95.991
G1 X65.54Y96.144
G1 X65.313Y96.235
G1 X65.065Y96.266
G1 X64.823Y96.239
G1 X64.607Y96.158
G1 X64.417Y96.023
G1 X64.252Y95.835
G1 X64.163Y95.683
G1 X64.085Y95.501
G1 X64.02Y95.291
G1 X63.966Y95.052
G1 X63.924Y94.783
G1 X63.894Y94.485
G1 X63.876Y94.159
G1 Y93.803
G1 Y93.448
G1 X63.892Y93.124
G1 X63.919Y92.831
G1 X63.957Y92.568
G1 X64.006Y92.337
G1 X64.066Y92.137
G1 X64.136Y91.968
G1 X64.217Y91.83
G1 X64.401Y91.615
G1 X64.605Y91.462
G1 X64.829Y91.37
G1 X65.073Y91.339
G1 X65.318Y91.37
G1 X65.542Y91.463
G1 X65.746Y91.617
G1 X65.929Y91.832
G1 X66.011Y91.971
G1 X66.081Y92.14
G1 X66.141Y92.34
G1 X66.189Y92.571
G1 X66.227Y92.833
G1 X66.254Y93.125
G1 X66.271Y93.449
G1 Y93.803
G1 Y94.159
G1 X66.254Y94.483
G1 X66.227Y94.777
G1 X66.189Y95.039
G1 X66.141Y95.271
M3
G1 F100 S1000
G4 P0.2
G1 S0
G0
M3
G0 X66.826Y95.479
M3
G1 F100 S1000
G4 P0.25
G1 S0
G0
M3
G1 X66.9Y95.225S1000F2000
G1 X66.959Y94.938
G1 X67.002Y94.606
G1 X67.027Y94.227
G1 Y93.803
G1 Y93.299
G1 X66.981Y92.846
G1 X66.913Y92.444
G1 X66.818Y92.093
G1 X66.696Y91.786
G1 X66.547Y91.516
G1 X66.37Y91.283
G1 X66.167Y91.087
G1 X65.937Y90.932
G1 X65.677Y90.821
G1 X65.39Y90.754
G1 X65.073Y90.732
G1 X64.661Y90.771
G1 X64.296Y90.888
G1 X63.978Y91.083
G1 X63.706Y91.356
G1 X63.567Y91.558
G1 X63.446Y91.791
G1 X63.343Y92.052
G1 X63.26Y92.343
G1 X63.195Y92.664
G1 X63.148Y93.014
G1 X63.12Y93.394
G1 Y93.803
G1 Y94.31
G1 X63.166Y94.766
G1 X63.235Y95.169
G1 X63.331Y95.521
G1 X63.454Y95.827
G1 X63.604Y96.097
G1 X63.78Y96.329
G1 X63.983Y96.524
G1 X64.214Y96.679
G1 X64.472Y96.789
G1 X64.759Y96.855
G1 X65.073Y96.877
G1 X65.308Y96.865
G1 X65.528Y96.829
G1 X65.733Y96.768
G1 X65.923Y96.682
G1 X66.098Y96.574
G1 X66.257Y96.444
G1 X66.4Y96.293
G1 X66.527Y96.12
G1 X66.639Y95.926
G1 X66.739Y95.713
G1 X66.826Y95.479
M3
G1 F100 S1000
G4 P0.2
G1 S0
G0
M3
G0 X61.518Y95.184
M3
G1 F100 S1000
G4 P0.25
G1 S0
G0
M3
G1 X61.454Y95.453S1000F2000
G1 X61.349Y95.689
G1 X61.2Y95.892
G1 X61.023Y96.056
G1 X60.827Y96.172
G1 X60.615Y96.242
G1 X60.386Y96.266
G1 X60.147Y96.241
G1 X59.925Y96.165
G1 X59.718Y96.04
G1 X59.528Y95.863
G1 X59.368Y95.647
G1 X59.254Y95.402
G1 X59.185Y95.126
G1 X59.162Y94.821
G1 X59.184Y94.547
G1 X59.249Y94.3
G1 X59.357Y94.08
G1 X59.509Y93.887
G1 X59.693Y93.73
G1 X59.897Y93.617
G1 X60.121Y93.55
G1 X60.365Y93.528
G1 X60.61Y93.55
G1 X60.833Y93.617
G1 X61.032Y93.73
G1 X61.209Y93.887
G1 X61.353Y94.084
G1 X61.457Y94.315
G1 X61.518Y94.581
G1 X61.539Y94.882
G1 X61.518Y95.184
M3
G1 F100 S1000
G4 P0.2
G1 S0
G0
M3
G0 X62.218Y95.335
M3
G1 F100 S1000
G4 P0.25
G1 S0
G0
M3
G1 X62.297Y94.944S1000F2000
G1 X62.344Y94.488
G1 X62.36Y93.967
G1 X62.345Y93.419
G1 X62.298Y92.931
G1 X62.219Y92.501
G1 X62.11Y92.13
G1 X61.969Y91.808
G1 X61.798Y91.528
G1 X61.597Y91.288
G1 X61.365Y91.089
G1 X61.107Y90.933
G1 X60.827Y90.821
G1 X60.527Y90.754
G1 X60.205Y90.732
G1 X59.868Y90.756
G1 X59.563Y90.83
G1 X59.291Y90.952
G1 X59.051Y91.124
G1 X58.85Y91.34
G1 X58.693Y91.596
G1 X58.581Y91.891
G1 X58.514Y92.226
G1 X59.224Y92.292
G1 X59.279Y92.059
G1 X59.355Y91.86
G1 X59.452Y91.695
G1 X59.569Y91.565
G1 X59.705Y91.466
G1 X59.859Y91.396
G1 X60.031Y91.354
G1 X60.221Y91.339
G1 X60.386Y91.349
G1 X60.541Y91.378
G1 X60.685Y91.427
G1 X60.819Y91.495
G1 X61.052Y91.678
G1 X61.239Y91.912
G1 X61.39Y92.219
G1 X61.515Y92.616
G1 X61.598Y93.064
G1 X61.625Y93.519
G1 Y93.667
G1 X61.5Y93.499
G1 X61.359Y93.347
G1 X61.197Y93.213
G1 X61.016Y93.094
G1 X60.82Y92.998
G1 X60.616Y92.93
G1 X60.404Y92.889
G1 X60.184Y92.875
G1 X59.825Y92.909
G1 X59.495Y93.01
G1 X59.193Y93.18
G1 X58.92Y93.417
G1 X58.694Y93.709
G1 X58.532Y94.045
G1 X58.435Y94.424
G1 X58.403Y94.845
G1 X58.436Y95.281
G1 X58.538Y95.672
G1 X58.706Y96.018
G1 X58.943Y96.319
G1 X59.23Y96.563
G1 X59.551Y96.738
G1 X59.906Y96.843
G1 X60.295Y96.877
G1 X60.582Y96.858
G1 X60.857Y96.798
G1 X61.119Y96.7
G1 X61.369Y96.561
G1 X61.597Y96.387
G1 X61.797Y96.178
G1 X61.967Y95.936
G1 X62.108Y95.66
G1 X62.218Y95.335
M3
G1 F100 S1000
G4 P0.2
G1 S0
G0
M3
G0 X56.646Y95.309
M3
G1 F100 S1000
G4 P0.25
G1 S0
G0
M3
G1 X56.629Y95.504S1000F2000
G1 X56.576Y95.683
G1 X56.488Y95.846
G1 X56.365Y95.993
G1 X56.216Y96.114
G1 X56.049Y96.201
G1 X55.866Y96.253
G1 X55.665Y96.27
G1 X55.463Y96.253
G1 X55.278Y96.202
G1 X55.112Y96.117
G1 X54.963Y95.999
G1 X54.841Y95.857
G1 X54.754Y95.701
G1 X54.701Y95.532
G1 X54.684Y95.35
G1 X54.701Y95.147
G1 X54.753Y94.962
G1 X54.839Y94.798
G1 X54.959Y94.652
G1 X55.107Y94.534
G1 X55.275Y94.449
G1 X55.464Y94.398
G1 X55.673Y94.381
G1 X55.877Y94.398
G1 X56.062Y94.449
G1 X56.227Y94.533
G1 X56.373Y94.65
G1 X56.493Y94.792
G1 X56.578Y94.95
G1 X56.629Y95.122
G1 X56.646Y95.309
M3
G1 F100 S1000
G4 P0.2
G1 S0
G0
M3
G0 X55.908Y93.756
M3
G1 F100 S1000
G4 P0.25
G1 S0
G0
M3
G1 X55.653Y93.778S1000F2000
G1 X55.403Y93.756
G1 X55.176Y93.692
G1 X54.971Y93.584
G1 X54.789Y93.433
G1 X54.639Y93.25
G1 X54.531Y93.045
G1 X54.467Y92.819
G1 X54.446Y92.571
G1 Y92.414
G1 X54.483Y92.26
G1 X54.53Y92.108
G1 X54.596Y91.959
G1 X54.68Y91.82
G1 X54.782Y91.697
G1 X54.902Y91.591
G1 X55.041Y91.502
G1 X55.192Y91.431
G1 X55.348Y91.38
G1 X55.51Y91.35
G1 X55.677Y91.339
G1 X55.931Y91.361
G1 X56.161Y91.425
G1 X56.368Y91.531
G1 X56.552Y91.68
G1 X56.703Y91.862
G1 X56.81Y92.067
G1 X56.875Y92.295
G1 X56.897Y92.546
G1 X56.874Y92.802
G1 X56.808Y93.034
G1 X56.697Y93.243
G1 X56.541Y93.429
G1 X56.353Y93.582
G1 X56.142Y93.691
G1 X55.908Y93.756
M3
G1 F100 S1000
G4 P0.2
G1 S0
G0
M3
G0 X56.519Y94.098
M3
G1 F100 S1000
G4 P0.25
G1 S0
G0
M3
G1 X56.779Y93.994S1000F2000
G1 X57.007Y93.862
G1 X57.201Y93.703
G1 X57.363Y93.515
G1 X57.489Y93.304
G1 X57.58Y93.074
G1 X57.634Y92.824
G1 X57.652Y92.555
G1 X57.618Y92.184
G1 X57.515Y91.844
G1 X57.345Y91.536
G1 X57.106Y91.257
G1 X56.811Y91.027
G1 X56.474Y90.863
G1 X56.093Y90.765
G1 X55.669Y90.732
G1 X55.245Y90.765
G1 X54.864Y90.864
G1 X54.527Y91.029
G1 X54.232Y91.259
G1 X53.993Y91.539
G1 X53.823Y91.852
G1 X53.72Y92.197
G1 X53.686Y92.575
G1 X53.705Y92.857
G1 X53.761Y93.114
G1 X53.854Y93.348
G1 X53.984Y93.558
G1 X54.148Y93.741
G1 X54.345Y93.891
G1 X54.572Y94.011
G1 X54.832Y94.098
G1 X54.617Y94.191
G1 X54.431Y94.302
G1 X54.276Y94.432
G1 X54.15Y94.579
G1 X54.053Y94.742
G1 X53.984Y94.921
G1 X53.942Y95.116
G1 X53.928Y95.326
G1 X53.958Y95.641
G1 X54.046Y95.93
G1 X54.194Y96.193
G1 X54.401Y96.43
G1 X54.656Y96.626
G1 X54.951Y96.766
G1 X55.284Y96.85
G1 X55.657Y96.877
G1 X56.032Y96.849
G1 X56.368Y96.763
G1 X56.666Y96.62
G1 X56.925Y96.42
G1 X57.135Y96.178
G1 X57.286Y95.912
G1 X57.376Y95.621
G1 X57.406Y95.305
G1 X57.392Y95.103
G1 X57.351Y94.914
G1 X57.282Y94.738
G1 X57.186Y94.576
G1 X57.062Y94.43
G1 X56.909Y94.302
G1 X56.728Y94.191
G1 X56.519Y94.098
M3
G1 F100 S1000
G4 P0.2
G1 S0
G0
M3
G0 X68.226Y91.676
M3
G1 F100 S1000
G4 P0.25
G1 S0
G0
M3
G1 X69.075S1000F2000
G1 Y90.835
G1 X68.226
G1 Y91.676
M3
G1 F100 S1000
G4 P0.2
G1 S0
G0
M3
G0 X80.088Y91.331
M3
G1 F100 S1000
G4 P0.25
G1 S0
G0
M3
G1 X80.294Y91.375S1000F2000
G1 X80.482Y91.451
G1 X80.65Y91.561
G1 X80.8Y91.705
G1 X80.923Y91.874
G1 X81.011Y92.063
G1 X81.064Y92.271
G1 X81.082Y92.497
G1 X81.069Y92.688
G1 X81.032Y92.86
G1 X80.97Y93.012
G1 X80.883Y93.144
G1 X80.758Y93.263
G1 X80.584Y93.375
G1 X80.361Y93.481
G1 X80.088Y93.581
G1 Y91.331
M3
G1 F100 S1000
G4 P0.2
G1 S0
G0
M3
G0 X79.653Y91.331
M3
G1 F100 S1000
G4 P0.25
G1 S0
G0
M3
G1 Y93.684S1000F2000
G1 X79.424Y93.738
G1 X79.192Y93.815
G1 X78.958Y93.915
G1 X78.721Y94.037
G1 X78.555Y94.145
G1 X78.409Y94.272
G1 X78.283Y94.418
G1 X78.177Y94.583
G1 X78.094Y94.763
G1 X78.034Y94.955
G1 X77.998Y95.159
G1 X77.986Y95.375
G1 X78.021Y95.75
G1 X78.126Y96.088
G1 X78.3Y96.389
G1 X78.545Y96.652
G1 X78.754Y96.8
G1 X79.009Y96.916
G1 X79.308Y97.001
G1 X79.653Y97.054
G1 Y97.407
G1 X80.088
G1 Y97.054
G1 X80.394Y97.007
G1 X80.666Y96.929
G1 X80.905Y96.818
G1 X81.11Y96.676
G1 X81.328Y96.456
G1 X81.498Y96.199
G1 X81.62Y95.904
G1 X81.693Y95.572
G1 X80.93Y95.457
G1 X80.888Y95.662
G1 X80.829Y95.841
G1 X80.752Y95.995
G1 X80.657Y96.124
G1 X80.544Y96.23
G1 X80.411Y96.317
G1 X80.259Y96.383
G1 X80.088Y96.43
G1 Y94.299
G1 X80.344Y94.233
G1 X80.552Y94.175
G1 X80.713Y94.125
G1 X80.827Y94.082
G1 X81.14Y93.913
G1 X81.39Y93.712
G1 X81.582Y93.474
G1 X81.724Y93.195
G1 X81.812Y92.883
G1 X81.841Y92.546
G1 X81.811Y92.178
G1 X81.719Y91.842
G1 X81.566Y91.538
G1 X81.353Y91.266
G1 X81.09Y91.039
G1 X80.792Y90.871
G1 X80.458Y90.764
G1 X80.088Y90.715
G1 Y89.968
G1 X79.653
G1 Y90.707
G1 X79.389Y90.749
G1 X79.151Y90.804
G1 X78.938Y90.873
G1 X78.752Y90.956
G1 X78.584Y91.059
G1 X78.429Y91.189
G1 X78.285Y91.347
G1 X78.153Y91.532
G1 X78.04Y91.743
G1 X77.953Y91.975
G1 X77.893Y92.229
G1 X77.859Y92.505
G1 X78.602Y92.645
G1 X78.653Y92.367
G1 X78.721Y92.129
G1 X78.805Y91.93
G1 X78.906Y91.771
G1 X79.07Y91.595
G1 X79.249Y91.464
G1 X79.443Y91.376
G1 X79.653Y91.331
M3
G1 F100 S1000
G4 P0.2
G1 S0
G0
M3
G0 X81.103Y112.301
M3
G1 F100 S1000
G4 P0.25
G1 S0
G0
M3
G1 X80.711Y112.329S1000F2000
G1 X80.357Y112.416
G1 X80.041Y112.559
G1 X79.763Y112.761
G1 X79.531Y113.009
G1 X79.355Y113.295
G1 X79.234Y113.619
G1 X79.169Y113.98
G1 X79.945Y114.045
G1 X80.003Y113.78
G1 X80.089Y113.549
G1 X80.203Y113.354
G1 X80.346Y113.194
G1 X80.511Y113.069
G1 X80.692Y112.98
G1 X80.889Y112.926
G1 X81.103Y112.908
G1 X81.36Y112.933
G1 X81.596Y113.009
G1 X81.811Y113.135
G1 X82.006Y113.311
G1 X82.168Y113.528
G1 X82.283Y113.779
G1 X82.353Y114.062
G1 X82.376Y114.378
G1 X82.353Y114.677
G1 X82.287Y114.943
G1 X82.176Y115.176
G1 X82.021Y115.376
G1 X81.829Y115.535
G1 X81.611Y115.65
G1 X81.364Y115.718
G1 X81.091Y115.741
G1 X80.916Y115.731
G1 X80.751Y115.7
G1 X80.594Y115.65
G1 X80.446Y115.579
G1 X80.31Y115.492
G1 X80.19Y115.393
G1 X80.084Y115.281
G1 X79.995Y115.158
G1 X79.301Y115.248
G1 X79.884Y118.34
G1 X82.876
G1 Y117.633
G1 X80.475
G1 X80.151Y116.016
G1 X80.425Y116.181
G1 X80.706Y116.299
G1 X80.993Y116.37
G1 X81.288Y116.394
G1 X81.666Y116.36
G1 X82.014Y116.257
G1 X82.332Y116.087
G1 X82.618Y115.848
G1 X82.855Y115.555
G1 X83.024Y115.224
G1 X83.126Y114.853
G1 X83.16Y114.444
G1 X83.13Y114.049
G1 X83.041Y113.682
G1 X82.892Y113.343
G1 X82.684Y113.031
G1 X82.532Y112.86
G1 X82.368Y112.712
G1 X82.19Y112.586
G1 X81.999Y112.483
G1 X81.795Y112.403
G1 X81.577Y112.346
G1 X81.347Y112.312
G1 X81.103Y112.301
M3
G1 F100 S1000
G4 P0.2
G1 S0
G0
M3
G0 X84.946Y113.459
M3
G1 F100 S1000
G4 P0.25
G1 S0
G0
M3
G1 X85.051Y113.315S1000F2000
G1 X85.173Y113.193
G1 X85.31Y113.091
G1 X85.458Y113.011
G1 X85.609Y112.954
G1 X85.764Y112.92
G1 X85.922Y112.908
G1 X86.148Y112.932
G1 X86.357Y113.003
G1 X86.55Y113.121
G1 X86.727Y113.286
G1 X86.874Y113.492
G1 X86.979Y113.731
G1 X87.042Y114.005
G1 X87.063Y114.312
G1 X87.043Y114.608
G1 X86.98Y114.87
G1 X86.876Y115.099
G1 X86.731Y115.296
G1 X86.554Y115.453
G1 X86.355Y115.565
G1 X86.135Y115.632
G1 X85.893Y115.655
G1 X85.652Y115.632
G1 X85.431Y115.565
G1 X85.228Y115.453
G1 X85.044Y115.296
G1 X84.891Y115.102
G1 X84.782Y114.88
G1 X84.716Y114.631
G1 X84.695Y114.353
G1 Y114.165
G1 X84.735Y113.98
G1 X84.786Y113.799
G1 X84.857Y113.623
G1 X84.946Y113.459
M3
G1 F100 S1000
G4 P0.2
G1 S0
G0
M3
G0 X84.173Y113.375
M3
G1 F100 S1000
G4 P0.25
G1 S0
G0
M3
G1 X84.073Y113.614S1000F2000
G1 X83.991Y113.88
G1 X83.927Y114.173
G1 X83.881Y114.495
G1 X83.854Y114.843
G1 Y115.22
G1 Y115.641
G1 X83.885Y116.032
G1 X83.935Y116.394
G1 X84.006Y116.726
G1 X84.097Y117.028
G1 X84.207Y117.301
G1 X84.338Y117.544
G1 X84.489Y117.757
G1 X84.795Y118.058
G1 X85.149Y118.274
G1 X85.552Y118.403
G1 X86.004Y118.446
G1 X86.343Y118.421
G1 X86.65Y118.347
G1 X86.925Y118.222
G1 X87.168Y118.048
G1 X87.372Y117.83
G1 X87.531Y117.574
G1 X87.644Y117.28
G1 X87.712Y116.948
G1 X86.977Y116.89
G1 X86.923Y117.093
G1 X86.858Y117.266
G1 X86.783Y117.409
G1 X86.698Y117.523
G1 X86.539Y117.661
G1 X86.363Y117.76
G1 X86.17Y117.819
G1 X85.959Y117.839
G1 X85.788Y117.826
G1 X85.628Y117.789
G1 X85.478Y117.728
G1 X85.339Y117.642
G1 X85.174Y117.5
G1 X85.027Y117.329
G1 X84.899Y117.128
G1 X84.789Y116.899
G1 X84.701Y116.628
G1 X84.636Y116.306
G1 X84.596Y115.933
G1 X84.58Y115.507
G1 X84.721Y115.697
G1 X84.876Y115.861
G1 X85.047Y115.999
G1 X85.232Y116.11
G1 X85.428Y116.197
G1 X85.628Y116.258
G1 X85.832Y116.295
G1 X86.041Y116.307
G1 X86.397Y116.273
G1 X86.725Y116.171
G1 X87.026Y116.001
G1 X87.299Y115.764
G1 X87.527Y115.472
G1 X87.689Y115.14
G1 X87.786Y114.769
G1 X87.819Y114.357
G1 X87.803Y114.079
G1 X87.758Y113.811
G1 X87.681Y113.553
G1 X87.574Y113.304
G1 X87.441Y113.075
G1 X87.285Y112.875
G1 X87.105Y112.703
G1 X86.903Y112.559
G1 X86.683Y112.446
G1 X86.448Y112.365
G1 X86.198Y112.317
G1 X85.934Y112.301
G1 X85.494Y112.343
G1 X85.096Y112.471
G1 X84.741Y112.683
G1 X84.428Y112.98
G1 X84.291Y113.164
G1 X84.173Y113.375
M3
G1 F100 S1000
G4 P0.2
G1 S0
G0
M3
G0 X89.553Y113.187
M3
G1 F100 S1000
G4 P0.25
G1 S0
G0
M3
G1 X89.638Y113.635S1000F2000
G1 X89.756Y114.119
G1 X89.904Y114.618
G1 X90.081Y115.107
G1 X90.287Y115.588
G1 X90.522Y116.059
G1 X90.775Y116.508
G1 X91.036Y116.92
G1 X91.306Y117.295
G1 X91.583Y117.633
G1 X88.635
G1 Y118.344
G1 X92.531
G1 Y117.769
G1 X92.244Y117.438
G1 X91.959Y117.057
G1 X91.675Y116.625
G1 X91.392Y116.143
G1 X91.126Y115.633
G1 X90.892Y115.115
G1 X90.689Y114.59
G1 X90.52Y114.058
G1 X90.419Y113.671
G1 X90.338Y113.266
G1 X90.277Y112.844
G1 X90.236Y112.403
G1 X89.477
G1 X89.499Y112.777
G1 X89.553Y113.187
M3
G1 F100 S1000
G4 P0.2
G1 S0
G0
M3
G0 X94.083Y113.829
M3
G1 F100 S1000
G4 P0.25
G1 S0
G0
M3
G1 X94.13Y113.677S1000F2000
G1 X94.195Y113.528
G1 X94.279Y113.389
G1 X94.382Y113.266
G1 X94.502Y113.16
G1 X94.641Y113.07
G1 X94.791Y113
G1 X94.948Y112.949
G1 X95.109Y112.918
G1 X95.277
G1 X95.53Y112.93
G1 X95.76Y112.993
G1 X95.967Y113.1
G1 X96.151Y113.249
G1 X96.302Y113.431
G1 X96.41Y113.636
G1 X96.475Y113.864
G1 X96.496Y114.115
G1 X96.474Y114.371
G1 X96.408Y114.603
G1 X96.297Y114.812
G1 X96.141Y114.998
G1 X95.952Y115.151
G1 X95.741Y115.26
G1 X95.508Y115.325
G1 X95.252Y115.347
G1 X95.003Y115.325
G1 X94.776Y115.261
G1 X94.571Y115.153
G1 X94.388Y115.002
G1 X94.238Y114.819
G1 X94.131Y114.614
G1 X94.067Y114.388
G1 X94.045Y114.14
G1 Y113.983
G1 X94.083Y113.829
M3
G1 F100 S1000
G4 P0.2
G1 S0
G0
M3
G0 X95.064Y115.967
M3
G1 F100 S1000
G4 P0.25
G1 S0
G0
M3
G1 X95.273Y115.95S1000F2000
G1 X95.477Y115.967
G1 X95.661Y116.018
G1 X95.827Y116.102
G1 X95.973Y116.219
G1 X96.092Y116.361
G1 X96.178Y116.518
G1 X96.229Y116.691
G1 X96.246Y116.878
G1 X96.228Y117.073
G1 X96.176Y117.252
G1 X96.088Y117.415
G1 X95.965Y117.562
G1 X95.815Y117.683
G1 X95.649Y117.769
G1 X95.465Y117.821
G1 X95.265Y117.839
G1 X95.062Y117.822
G1 X94.878Y117.771
G1 X94.711Y117.686
G1 X94.563Y117.568
G1 X94.441Y117.426
G1 X94.353Y117.27
G1 X94.301Y117.101
G1 X94.284Y116.919
G1 X94.301Y116.715
G1 X94.352Y116.531
G1 X94.438Y116.366
G1 X94.559Y116.221
G1 X94.706Y116.103
G1 X94.875Y116.018
G1 X95.064Y115.967
M3
G1 F100 S1000
G4 P0.2
G1 S0
G0
M3
G0 X94.431Y115.667
M3
G1 F100 S1000
G4 P0.25
G1 S0
G0
M3
G1 X94.216Y115.76S1000F2000
G1 X94.031Y115.871
G1 X93.876Y116
G1 X93.75Y116.147
G1 X93.653Y116.311
G1 X93.584Y116.49
G1 X93.542Y116.685
G1 X93.528Y116.895
G1 X93.558Y117.21
G1 X93.646Y117.499
G1 X93.794Y117.762
G1 X94Y117.999
G1 X94.256Y118.195
G1 X94.55Y118.334
G1 X94.884Y118.418
G1 X95.257Y118.446
G1 X95.631Y118.418
G1 X95.968Y118.332
G1 X96.266Y118.189
G1 X96.525Y117.989
G1 X96.735Y117.747
G1 X96.885Y117.481
G1 X96.975Y117.19
G1 X97.005Y116.874
G1 X96.992Y116.671
G1 X96.95Y116.482
G1 X96.882Y116.307
G1 X96.786Y116.145
G1 X96.662Y115.999
G1 X96.509Y115.871
G1 X96.328Y115.76
G1 X96.119Y115.667
G1 X96.379Y115.563
G1 X96.607Y115.431
G1 X96.801Y115.271
G1 X96.962Y115.084
G1 X97.089Y114.873
G1 X97.179Y114.643
G1 X97.234Y114.393
G1 X97.252Y114.123
G1 X97.218Y113.753
G1 X97.115Y113.413
G1 X96.945Y113.104
G1 X96.706Y112.826
G1 X96.411Y112.596
G1 X96.073Y112.432
G1 X95.693Y112.334
G1 X95.269Y112.301
G1 X94.845Y112.334
G1 X94.464Y112.433
G1 X94.127Y112.597
G1 X93.832Y112.828
G1 X93.593Y113.108
G1 X93.422Y113.421
G1 X93.32Y113.766
G1 X93.286Y114.144
G1 X93.305Y114.426
G1 X93.36Y114.683
G1 X93.453Y114.917
G1 X93.584Y115.127
G1 X93.748Y115.309
G1 X93.944Y115.46
G1 X94.172Y115.579
G1 X94.431Y115.667
M3
G1 F100 S1000
G4 P0.2
G1 S0
G0
M3
G0 X98.784Y116.116
M3
G1 F100 S1000
G4 P0.25
G1 S0
G0
M3
G1 X98.849Y115.869S1000F2000
G1 X98.957Y115.649
G1 X99.109Y115.456
G1 X99.292Y115.298
G1 X99.496Y115.186
G1 X99.72Y115.119
G1 X99.965Y115.096
G1 X100.21Y115.119
G1 X100.432Y115.186
G1 X100.632Y115.298
G1 X100.808Y115.456
G1 X100.953Y115.653
G1 X101.056Y115.884
G1 X101.118Y116.15
G1 X101.139Y116.451
G1 X101.118Y116.753
G1 X101.054Y117.022
G1 X100.948Y117.258
G1 X100.8Y117.461
G1 X100.622Y117.624
G1 X100.427Y117.741
G1 X100.215Y117.811
G1 X99.985Y117.835
G1 X99.747Y117.809
G1 X99.524Y117.734
G1 X99.318Y117.608
G1 X99.127Y117.432
G1 X98.967Y117.216
G1 X98.853Y116.97
G1 X98.785Y116.695
G1 X98.762Y116.39
G1 X98.784Y116.116
M3
G1 F100 S1000
G4 P0.2
G1 S0
G0
M3
G0 X98.035Y115.992
M3
G1 F100 S1000
G4 P0.25
G1 S0
G0
M3
G1 X98.002Y116.414S1000F2000
G1 X98.036Y116.85
G1 X98.137Y117.24
G1 X98.306Y117.587
G1 X98.542Y117.888
G1 X98.829Y118.132
G1 X99.15Y118.307
G1 X99.506Y118.411
G1 X99.895Y118.446
G1 X100.182Y118.427
G1 X100.457Y118.367
G1 X100.719Y118.268
G1 X100.968Y118.13
G1 X101.197Y117.955
G1 X101.396Y117.747
G1 X101.567Y117.505
G1 X101.707Y117.229
G1 X101.818Y116.904
G1 X101.897Y116.513
G1 X101.944Y116.057
G1 X101.96Y115.536
G1 X101.944Y114.988
G1 X101.897Y114.5
G1 X101.819Y114.07
G1 X101.709Y113.699
G1 X101.569Y113.377
G1 X101.398Y113.097
G1 X101.196Y112.857
G1 X100.964Y112.658
G1 X100.706Y112.502
G1 X100.427Y112.39
G1 X100.127Y112.323
G1 X99.805Y112.301
G1 X99.468Y112.325
G1 X99.163Y112.399
G1 X98.891Y112.521
G1 X98.651Y112.693
G1 X98.45Y112.909
G1 X98.293Y113.164
G1 X98.181Y113.46
G1 X98.113Y113.795
G1 X98.823Y113.861
G1 X98.879Y113.627
G1 X98.955Y113.429
G1 X99.051Y113.264
G1 X99.168Y113.134
G1 X99.305Y113.035
G1 X99.459Y112.965
G1 X99.631Y112.922
G1 X99.821Y112.908
G1 X99.986Y112.918
G1 X100.141Y112.947
G1 X100.285Y112.996
G1 X100.418Y113.064
G1 X100.652Y113.246
G1 X100.839Y113.481
G1 X100.99Y113.787
G1 X101.114Y114.185
G1 X101.197Y114.633
G1 X101.225Y115.088
G1 Y115.236
G1 X101.1Y115.068
G1 X100.959Y114.916
G1 X100.797Y114.781
G1 X100.615Y114.663
G1 X100.42Y114.567
G1 X100.216Y114.499
G1 X100.004Y114.457
G1 X99.784Y114.444
G1 X99.425Y114.478
G1 X99.094Y114.579
G1 X98.793Y114.748
G1 X98.52Y114.986
G1 X98.293Y115.278
G1 X98.132Y115.614
G1 X98.035Y115.992
M3
G1 F100 S1000
G4 P0.2
G1 S0
G0
M3
G0 X103.476Y115.727
M3
G1 F100 S1000
G4 P0.25
G1 S0
G0
M3
G1 Y115.371S1000F2000
G1 Y115.016
G1 X103.492Y114.692
G1 X103.519Y114.399
G1 X103.557Y114.137
G1 X103.606Y113.906
G1 X103.665Y113.706
G1 X103.736Y113.537
G1 X103.817Y113.399
G1 X104.001Y113.184
G1 X104.204Y113.031
G1 X104.429Y112.939
G1 X104.673Y112.908
G1 X104.917Y112.939
G1 X105.142Y113.031
G1 X105.345Y113.185
G1 X105.529Y113.401
G1 X105.61Y113.539
G1 X105.681Y113.709
G1 X105.74Y113.909
G1 X105.789Y114.14
G1 X105.827Y114.402
G1 X105.854Y114.694
G1 X105.87Y115.017
G1 Y115.371
G1 Y115.727
G1 X105.854Y116.052
G1 X105.827Y116.346
G1 X105.789Y116.608
G1 X105.74Y116.839
G1 X105.681Y117.039
G1 X105.61Y117.208
G1 X105.529Y117.346
G1 X105.345Y117.56
G1 X105.139Y117.712
G1 X104.913Y117.804
G1 X104.665Y117.835
G1 X104.423Y117.808
G1 X104.207Y117.727
G1 X104.017Y117.592
G1 X103.852Y117.404
G1 X103.762Y117.251
G1 X103.685Y117.07
G1 X103.619Y116.86
G1 X103.566Y116.62
G1 X103.524Y116.352
G1 X103.494Y116.054
G1 X103.476Y115.727
M3
G1 F100 S1000
G4 P0.2
G1 S0
G0
M3
G0 X102.724Y115.879
M3
G1 F100 S1000
G4 P0.25
G1 S0
G0
M3
G1 X102.766Y116.335S1000F2000
G1 X102.834Y116.738
G1 X102.93Y117.09
G1 X103.053Y117.396
G1 X103.203Y117.666
G1 X103.38Y117.898
G1 X103.583Y118.093
G1 X103.814Y118.248
G1 X104.072Y118.358
G1 X104.359Y118.424
G1 X104.673Y118.446
G1 X104.908Y118.434
G1 X105.128Y118.398
G1 X105.333Y118.337
G1 X105.523Y118.251
G1 X105.698Y118.143
G1 X105.856Y118.013
G1 X105.999Y117.862
G1 X106.126Y117.689
G1 X106.239Y117.495
G1 X106.339Y117.281
G1 X106.426Y117.048
G1 X106.5Y116.794
G1 X106.559Y116.507
G1 X106.601Y116.175
G1 X106.627Y115.796
G1 Y115.371
G1 Y114.867
G1 X106.581Y114.414
G1 X106.513Y114.012
G1 X106.418Y113.662
G1 X106.295Y113.355
G1 X106.146Y113.085
G1 X105.97Y112.852
G1 X105.767Y112.656
G1 X105.536Y112.5
G1 X105.277Y112.389
G1 X104.989Y112.323
G1 X104.673Y112.301
G1 X104.261Y112.34
G1 X103.896Y112.457
G1 X103.578Y112.652
G1 X103.306Y112.925
G1 X103.166Y113.127
G1 X103.046Y113.359
G1 X102.943Y113.621
G1 X102.859Y113.912
G1 X102.794Y114.233
G1 X102.748Y114.583
G1 X102.72Y114.962
G1 Y115.371
G1 Y115.879
M3
G1 F100 S1000
G4 P0.2
G1 S0
G0
M3
G0 X107.793Y117.087
M3
G1 F100 S1000
G4 P0.25
G1 S0
G0
M3
G1 Y118.422S1000F2000
G1 X108.708
G1 Y117.087
G1 X108.495Y113.898
G1 X108.018
G1 X107.793Y117.087
M3
G1 F100 S1000
G4 P0.2
G1 S0
G0
M3
G0 X109.81Y117.436
M3
G1 F100 S1000
G4 P0.25
G1 S0
G0
M3
G1 Y118.422S1000F2000
G1 X110.652
G1 Y117.436
G1 X110.467Y116.291
G1 X110.015
G1 X109.81Y117.436
M3
G1 F100 S1000
G4 P0.2
G1 S0
G0
M3
G0 X111.173Y117.436
M3
G1 F100 S1000
G4 P0.25
G1 S0
G0
M3
G1 Y118.422S1000F2000
G1 X112.015
G1 Y117.436
G1 X111.817Y116.291
G1 X111.374
G1 X111.173Y117.436
M3
G1 F100 S1000
G4 P0.2
G1 S0
G0
M3
G0 X113.094Y117.212
M3
G1 F100 S1000
G4 P0.25
G1 S0
G0
M3
G1 X113.212Y117.569S1000F2000
G1 X113.41Y117.879
G1 X113.687Y118.143
G1 X113.954Y118.31
G1 X114.249Y118.429
G1 X114.57Y118.5
G1 X114.918Y118.524
G1 X115.273Y118.499
G1 X115.596Y118.422
G1 X115.886Y118.295
G1 X116.144Y118.116
G1 X116.361Y117.891
G1 X116.533Y117.625
G1 X116.658Y117.317
G1 X116.737Y116.968
G1 X116.002Y116.858
G1 X115.956Y117.091
G1 X115.879Y117.298
G1 X115.772Y117.479
G1 X115.634Y117.633
G1 X115.474Y117.757
G1 X115.298Y117.846
G1 X115.108Y117.899
G1 X114.902Y117.917
G1 X114.683Y117.898
G1 X114.484Y117.843
G1 X114.305Y117.752
G1 X114.144Y117.623
G1 X114.012Y117.469
G1 X113.918Y117.299
G1 X113.861Y117.115
G1 X113.843Y116.915
G1 X113.857Y116.67
G1 X113.901Y116.39
G1 X113.974Y116.074
G1 X114.077Y115.725
G1 X115.37
