; LightBurn 1.4.00
; GRBL device profile, absolute coords
; Bounds: X10 Y10 to X280 Y198.17
G00 G17 G40 G21 G54
G90
M4
; Cut @ 2000 mm/min, 100% power
M8
G0 X10Y10.009
M3
G0 Z0
M3
G1 F100 S1000
G4 P0.25
G1 S0
G0
M3
; Layer C00
G1 X33.503Y33.471S1000F2000
G1 X10Y10.009
M3
G1 F100 S1000
G4 P0.2
G1 S0
G0
M3
G0 X10Y10.013
M3
G1 F100 S1000
G4 P0.25
G1 S0
G0
M3
G1 X10.029Y33.532S1000F2000
G1 X10Y10.013
M3
G1 F100 S1000
G4 P0.2
G1 S0
G0
M3
G0 X10Y10.014
M3
G1 F100 S1000
G4 P0.25
G1 S0
G0
M3
G1 X33.519S1000F2000
M3
G1 F100 S1000
G4 P0.2
G1 S0
G0
M3
G0 X33.537Y10.012
M3
G1 F100 S1000
G4 P0.25
G1 S0
G0
M3
G1 Y11.423S1000F2000
M3
G1 F100 S1000
G4 P0.2
G1 S0
G0
M3
G0 X33.099Y10.717
M3
G1 F100 S1000
G4 P0.25
G1 S0
G0
M3
G1 Y10.011S1000F2000
M3
G1 F100 S1000
G4 P0.2
G1 S0
G0
M3
G0 X32.621Y10.011
M3
G1 F100 S1000
G4 P0.25
G1 S0
G0
M3
G1 Y10.717S1000F2000
M3
G1 F100 S1000
G4 P0.2
G1 S0
G0
M3
G0 X32.143Y10.717
M3
G1 F100 S1000
G4 P0.25
G1 S0
G0
M3
G1 Y10.011S1000F2000
M3
G1 F100 S1000
G4 P0.2
G1 S0
G0
M3
G0 X31.665Y10.011
M3
G1 F100 S1000
G4 P0.25
G1 S0
G0
M3
G1 Y10.717S1000F2000
M3
G1 F100 S1000
G4 P0.2
G1 S0
G0
M3
G0 X30.749Y10.717
M3
G1 F100 S1000
G4 P0.25
G1 S0
G0
M3
G1 Y10.011S1000F2000
M3
G1 F100 S1000
G4 P0.2
G1 S0
G0
M3
G0 X30.271Y10.011
M3
G1 F100 S1000
G4 P0.25
G1 S0
G0
M3
G1 Y10.717S1000F2000
M3
G1 F100 S1000
G4 P0.2
G1 S0
G0
M3
G0 X29.793Y10.717
M3
G1 F100 S1000
G4 P0.25
G1 S0
G0
M3
G1 Y10.011S1000F2000
M3
G1 F100 S1000
G4 P0.2
G1 S0
G0
M3
G0 X29.315Y10.011
M3
G1 F100 S1000
G4 P0.25
G1 S0
G0
M3
G1 Y10.717S1000F2000
M3
G1 F100 S1000
G4 P0.2
G1 S0
G0
M3
G0 X28.399Y10.717
M3
G1 F100 S1000
G4 P0.25
G1 S0
G0
M3
G1 Y10.011S1000F2000
M3
G1 F100 S1000
G4 P0.2
G1 S0
G0
M3
G0 X27.921Y10.011
M3
G1 F100 S1000
G4 P0.25
G1 S0
G0
M3
G1 Y10.717S1000F2000
M3
G1 F100 S1000
G4 P0.2
G1 S0
G0
M3
G0 X27.444Y10.717
M3
G1 F100 S1000
G4 P0.25
G1 S0
G0
M3
G1 Y10.011S1000F2000
M3
G1 F100 S1000
G4 P0.2
G1 S0
G0
M3
G0 X26.966Y10.011
M3
G1 F100 S1000
G4 P0.25
G1 S0
G0
M3
G1 Y10.717S1000F2000
M3
G1 F100 S1000
G4 P0.2
G1 S0
G0
M3
G0 X26.05Y10.717
M3
G1 F100 S1000
G4 P0.25
G1 S0
G0
M3
G1 Y10.011S1000F2000
M3
G1 F100 S1000
G4 P0.2
G1 S0
G0
M3
G0 X26.528Y10.012
M3
G1 F100 S1000
G4 P0.25
G1 S0
G0
M3
G1 Y11.423S1000F2000
M3
G1 F100 S1000
G4 P0.2
G1 S0
G0
M3
G0 X25.572Y10.717
M3
G1 F100 S1000
G4 P0.25
G1 S0
G0
M3
G1 Y10.011S1000F2000
M3
G1 F100 S1000
G4 P0.2
G1 S0
G0
M3
G0 X25.094Y10.011
M3
G1 F100 S1000
G4 P0.25
G1 S0
G0
M3
G1 Y10.717S1000F2000
M3
G1 F100 S1000
G4 P0.2
G1 S0
G0
M3
G0 X24.616Y10.717
M3
G1 F100 S1000
G4 P0.25
G1 S0
G0
M3
G1 Y10.011S1000F2000
M3
G1 F100 S1000
G4 P0.2
G1 S0
G0
M3
G0 X24.178Y10.012
M3
G1 F100 S1000
G4 P0.25
G1 S0
G0
M3
G1 Y11.423S1000F2000
M3
G1 F100 S1000
G4 P0.2
G1 S0
G0
M3
G0 X23.7Y10.717
M3
G1 F100 S1000
G4 P0.25
G1 S0
G0
M3
G1 Y10.011S1000F2000
M3
G1 F100 S1000
G4 P0.2
G1 S0
G0
M3
G0 X23.7Y10.011
M3
G1 F100 S1000
G4 P0.25
G1 S0
G0
M3
G1 Y10.717S1000F2000
M3
G1 F100 S1000
G4 P0.2
G1 S0
G0
M3
G0 X23.222Y10.717
M3
G1 F100 S1000
G4 P0.25
G1 S0
G0
M3
G1 Y10.011S1000F2000
M3
G1 F100 S1000
G4 P0.2
G1 S0
G0
M3
G0 X23.222Y10.011
M3
G1 F100 S1000
G4 P0.25
G1 S0
G0
M3
G1 Y10.717S1000F2000
M3
G1 F100 S1000
G4 P0.2
G1 S0
G0
M3
G0 X22.744Y10.717
M3
G1 F100 S1000
G4 P0.25
G1 S0
G0
M3
G1 Y10.011S1000F2000
M3
G1 F100 S1000
G4 P0.2
G1 S0
G0
M3
G0 X22.744Y10.011
M3
G1 F100 S1000
G4 P0.25
G1 S0
G0
M3
G1 Y10.717S1000F2000
M3
G1 F100 S1000
G4 P0.2
G1 S0
G0
M3
G0 X22.266Y10.717
M3
G1 F100 S1000
G4 P0.25
G1 S0
G0
M3
G1 Y10.011S1000F2000
M3
G1 F100 S1000
G4 P0.2
G1 S0
G0
M3
G0 X22.266Y10.011
M3
G1 F100 S1000
G4 P0.25
G1 S0
G0
M3
G1 Y10.717S1000F2000
M3
G1 F100 S1000
G4 P0.2
G1 S0
G0
M3
G0 X21.35Y10.717
M3
G1 F100 S1000
G4 P0.25
G1 S0
G0
M3
G1 Y10.011S1000F2000
M3
G1 F100 S1000
G4 P0.2
G1 S0
G0
M3
G0 X20.872Y10.011
M3
G1 F100 S1000
G4 P0.25
G1 S0
G0
M3
G1 Y10.717S1000F2000
M3
G1 F100 S1000
G4 P0.2
G1 S0
G0
M3
G0 X20.394Y10.717
M3
G1 F100 S1000
G4 P0.25
G1 S0
G0
M3
G1 Y10.011S1000F2000
M3
G1 F100 S1000
G4 P0.2
G1 S0
G0
M3
G0 X19.917Y10.011
M3
G1 F100 S1000
G4 P0.25
G1 S0
G0
M3
G1 Y10.717S1000F2000
M3
G1 F100 S1000
G4 P0.2
G1 S0
G0
M3
G0 X19.001Y10.717
M3
G1 F100 S1000
G4 P0.25
G1 S0
G0
M3
G1 Y10.011S1000F2000
M3
G1 F100 S1000
G4 P0.2
G1 S0
G0
M3
G0 X18.523Y10.011
M3
G1 F100 S1000
G4 P0.25
G1 S0
G0
M3
G1 Y10.717S1000F2000
M3
G1 F100 S1000
G4 P0.2
G1 S0
G0
M3
G0 X18.045Y10.717
M3
G1 F100 S1000
G4 P0.25
G1 S0
G0
M3
G1 Y10.011S1000F2000
M3
G1 F100 S1000
G4 P0.2
G1 S0
G0
M3
G0 X17.567Y10.011
M3
G1 F100 S1000
G4 P0.25
G1 S0
G0
M3
G1 Y10.717S1000F2000
M3
G1 F100 S1000
G4 P0.2
G1 S0
G0
M3
G0 X16.651Y10.717
M3
G1 F100 S1000
G4 P0.25
G1 S0
G0
M3
G1 Y10.011S1000F2000
M3
G1 F100 S1000
G4 P0.2
G1 S0
G0
M3
G0 X16.173Y10.011
M3
G1 F100 S1000
G4 P0.25
G1 S0
G0
M3
G1 Y10.717S1000F2000
M3
G1 F100 S1000
G4 P0.2
G1 S0
G0
M3
G0 X15.695Y10.717
M3
G1 F100 S1000
G4 P0.25
G1 S0
G0
M3
G1 Y10.011S1000F2000
M3
G1 F100 S1000
G4 P0.2
G1 S0
G0
M3
G0 X15.217Y10.011
M3
G1 F100 S1000
G4 P0.25
G1 S0
G0
M3
G1 Y10.717S1000F2000
M3
G1 F100 S1000
G4 P0.2
G1 S0
G0
M3
G0 X14.301Y10.717
M3
G1 F100 S1000
G4 P0.25
G1 S0
G0
M3
G1 Y10.011S1000F2000
M3
G1 F100 S1000
G4 P0.2
G1 S0
G0
M3
G0 X13.823Y10.011
M3
G1 F100 S1000
G4 P0.25
G1 S0
G0
M3
G1 Y10.717S1000F2000
M3
G1 F100 S1000
G4 P0.2
G1 S0
G0
M3
G0 X13.345Y10.717
M3
G1 F100 S1000
G4 P0.25
G1 S0
G0
M3
G1 Y10.011S1000F2000
M3
G1 F100 S1000
G4 P0.2
G1 S0
G0
M3
G0 X12.867Y10.011
M3
G1 F100 S1000
G4 P0.25
G1 S0
G0
M3
G1 Y10.717S1000F2000
M3
G1 F100 S1000
G4 P0.2
G1 S0
G0
M3
G0 X11.912Y10.717
M3
G1 F100 S1000
G4 P0.25
G1 S0
G0
M3
G1 Y10.011S1000F2000
M3
G1 F100 S1000
G4 P0.2
G1 S0
G0
M3
G0 X11.434Y10.011
M3
G1 F100 S1000
G4 P0.25
G1 S0
G0
M3
G1 Y10.717S1000F2000
M3
G1 F100 S1000
G4 P0.2
G1 S0
G0
M3
G0 X11.361Y10.853
M3
G1 F100 S1000
G4 P0.25
G1 S0
G0
M3
G1 X10.862Y11.352S1000F2000
M3
G1 F100 S1000
G4 P0.2
G1 S0
G0
M3
G0 X10.706Y11.445
M3
G1 F100 S1000
G4 P0.25
G1 S0
G0
M3
G1 X10S1000F2000
M3
G1 F100 S1000
G4 P0.2
G1 S0
G0
M3
G0 X10Y10.967
M3
G1 F100 S1000
G4 P0.25
G1 S0
G0
M3
G1 X10.706S1000F2000
M3
G1 F100 S1000
G4 P0.2
G1 S0
G0
M3
G0 X10.478Y10.717
M3
G1 F100 S1000
G4 P0.25
G1 S0
G0
M3
G1 Y10.011S1000F2000
M3
G1 F100 S1000
G4 P0.2
G1 S0
G0
M3
G0 X10.956Y10.011
M3
G1 F100 S1000
G4 P0.25
G1 S0
G0
M3
G1 Y10.717S1000F2000
M3
G1 F100 S1000
G4 P0.2
G1 S0
G0
M3
G0 X10.706Y10.489
M3
G1 F100 S1000
G4 P0.25
G1 S0
G0
M3
G1 X10S1000F2000
M3
G1 F100 S1000
G4 P0.2
G1 S0
G0
M3
G0 X11.699Y11.191
M3
G1 F100 S1000
G4 P0.25
G1 S0
G0
M3
G1 X11.2Y11.69S1000F2000
M3
G1 F100 S1000
G4 P0.2
G1 S0
G0
M3
G0 X10.706Y11.923
M3
G1 F100 S1000
G4 P0.25
G1 S0
G0
M3
G1 X10S1000F2000
M3
G1 F100 S1000
G4 P0.2
G1 S0
G0
M3
G0 X10Y12.361
M3
G1 F100 S1000
G4 P0.25
G1 S0
G0
M3
G1 X11.411S1000F2000
M3
G1 F100 S1000
G4 P0.2
G1 S0
G0
M3
G0 X11.876Y12.366
M3
G1 F100 S1000
G4 P0.25
G1 S0
G0
M3
G1 X12.375Y11.867S1000F2000
M3
G1 F100 S1000
G4 P0.2
G1 S0
G0
M3
G0 X12.952Y11.966
M3
G1 F100 S1000
G4 P0.25
G1 S0
G0
M3
G1 X11.954Y12.964S1000F2000
M3
G1 F100 S1000
G4 P0.2
G1 S0
G0
M3
G0 X12.552Y13.042
M3
G1 F100 S1000
G4 P0.25
G1 S0
G0
M3
G1 X13.051Y12.543S1000F2000
M3
G1 F100 S1000
G4 P0.2
G1 S0
G0
M3
G0 X13.389Y12.881
M3
G1 F100 S1000
G4 P0.25
G1 S0
G0
M3
G1 X12.89Y13.38S1000F2000
M3
G1 F100 S1000
G4 P0.2
G1 S0
G0
M3
G0 X13.228Y13.717
M3
G1 F100 S1000
G4 P0.25
G1 S0
G0
M3
G1 X13.727Y13.218S1000F2000
M3
G1 F100 S1000
G4 P0.2
G1 S0
G0
M3
G0 X14.065Y13.557
M3
G1 F100 S1000
G4 P0.25
G1 S0
G0
M3
G1 X13.566Y14.055S1000F2000
M3
G1 F100 S1000
G4 P0.2
G1 S0
G0
M3
G0 X13.644Y14.653
M3
G1 F100 S1000
G4 P0.25
G1 S0
G0
M3
G1 X14.642Y13.656S1000F2000
M3
G1 F100 S1000
G4 P0.2
G1 S0
G0
M3
G0 X14.712Y14.204
M3
G1 F100 S1000
G4 P0.25
G1 S0
G0
M3
G1 X14.213Y14.703S1000F2000
M3
G1 F100 S1000
G4 P0.2
G1 S0
G0
M3
G0 X14.551Y15.041
M3
G1 F100 S1000
G4 P0.25
G1 S0
G0
M3
G1 X15.05Y14.542S1000F2000
M3
G1 F100 S1000
G4 P0.2
G1 S0
G0
M3
G0 X15.388Y14.88
M3
G1 F100 S1000
G4 P0.25
G1 S0
G0
M3
G1 X14.889Y15.379S1000F2000
M3
G1 F100 S1000
G4 P0.2
G1 S0
G0
M3
G0 X15.227Y15.717
M3
G1 F100 S1000
G4 P0.25
G1 S0
G0
M3
G1 X15.726Y15.218S1000F2000
M3
G1 F100 S1000
G4 P0.2
G1 S0
G0
M3
G0 X16.303Y15.317
M3
G1 F100 S1000
G4 P0.25
G1 S0
G0
M3
G1 X15.305Y16.315S1000F2000
M3
G1 F100 S1000
G4 P0.2
G1 S0
G0
M3
G0 X15.875Y16.365
M3
G1 F100 S1000
G4 P0.25
G1 S0
G0
M3
G1 X16.374Y15.866S1000F2000
M3
G1 F100 S1000
G4 P0.2
G1 S0
G0
M3
G0 X16.712Y16.204
M3
G1 F100 S1000
G4 P0.25
G1 S0
G0
M3
G1 X16.213Y16.703S1000F2000
M3
G1 F100 S1000
G4 P0.2
G1 S0
G0
M3
G0 X16.551Y17.04
M3
G1 F100 S1000
G4 P0.25
G1 S0
G0
M3
G1 X17.05Y16.541S1000F2000
M3
G1 F100 S1000
G4 P0.2
G1 S0
G0
M3
G0 X17.388Y16.88
M3
G1 F100 S1000
G4 P0.25
G1 S0
G0
M3
G1 X16.889Y17.379S1000F2000
M3
G1 F100 S1000
G4 P0.2
G1 S0
G0
M3
G0 X16.967Y17.976
M3
G1 F100 S1000
G4 P0.25
G1 S0
G0
M3
G1 X17.965Y16.979S1000F2000
M3
G1 F100 S1000
G4 P0.2
G1 S0
G0
M3
G0 X18.035Y17.527
M3
G1 F100 S1000
G4 P0.25
G1 S0
G0
M3
G1 X17.536Y18.026S1000F2000
M3
G1 F100 S1000
G4 P0.2
G1 S0
G0
M3
G0 X17.874Y18.364
M3
G1 F100 S1000
G4 P0.25
G1 S0
G0
M3
G1 X18.373Y17.865S1000F2000
M3
G1 F100 S1000
G4 P0.2
G1 S0
G0
M3
G0 X18.711Y18.203
M3
G1 F100 S1000
G4 P0.25
G1 S0
G0
M3
G1 X18.212Y18.702S1000F2000
M3
G1 F100 S1000
G4 P0.2
G1 S0
G0
M3
G0 X18.55Y19.04
M3
G1 F100 S1000
G4 P0.25
G1 S0
G0
M3
G1 X19.049Y18.541S1000F2000
M3
G1 F100 S1000
G4 P0.2
G1 S0
G0
M3
G0 X19.626Y18.64
M3
G1 F100 S1000
G4 P0.25
G1 S0
G0
M3
G1 X18.628Y19.638S1000F2000
M3
G1 F100 S1000
G4 P0.2
G1 S0
G0
M3
G0 X19.198Y19.688
M3
G1 F100 S1000
G4 P0.25
G1 S0
G0
M3
G1 X19.697Y19.189S1000F2000
M3
G1 F100 S1000
G4 P0.2
G1 S0
G0
M3
G0 X19.697Y19.189
M3
G1 F100 S1000
G4 P0.25
G1 S0
G0
M3
G1 X19.198Y19.688S1000F2000
M3
G1 F100 S1000
G4 P0.2
G1 S0
G0
M3
G0 X19.536Y20.026
M3
G1 F100 S1000
G4 P0.25
G1 S0
G0
M3
G1 X20.035Y19.527S1000F2000
M3
G1 F100 S1000
G4 P0.2
G1 S0
G0
M3
G0 X20.035Y19.527
M3
G1 F100 S1000
G4 P0.25
G1 S0
G0
M3
G1 X19.536Y20.026S1000F2000
M3
G1 F100 S1000
G4 P0.2
G1 S0
G0
M3
G0 X19.874Y20.363
M3
G1 F100 S1000
G4 P0.25
G1 S0
G0
M3
G1 X20.373Y19.865S1000F2000
M3
G1 F100 S1000
G4 P0.2
G1 S0
G0
M3
G0 X20.373Y19.865
M3
G1 F100 S1000
G4 P0.25
G1 S0
G0
M3
G1 X19.874Y20.363S1000F2000
M3
G1 F100 S1000
G4 P0.2
G1 S0
G0
M3
G0 X20.212Y20.702
M3
G1 F100 S1000
G4 P0.25
G1 S0
G0
M3
G1 X20.711Y20.203S1000F2000
M3
G1 F100 S1000
G4 P0.2
G1 S0
G0
M3
G0 X20.711Y20.203
M3
G1 F100 S1000
G4 P0.25
G1 S0
G0
M3
G1 X20.212Y20.702S1000F2000
M3
G1 F100 S1000
G4 P0.2
G1 S0
G0
M3
G0 X20.29Y21.3
M3
G1 F100 S1000
G4 P0.25
G1 S0
G0
M3
G1 X21.287Y20.302S1000F2000
M3
G1 F100 S1000
G4 P0.2
G1 S0
G0
M3
G0 X21.358Y20.85
M3
G1 F100 S1000
G4 P0.25
G1 S0
G0
M3
G1 X20.859Y21.349S1000F2000
M3
G1 F100 S1000
G4 P0.2
G1 S0
G0
M3
G0 X21.197Y21.687
M3
G1 F100 S1000
G4 P0.25
G1 S0
G0
M3
G1 X21.696Y21.188S1000F2000
M3
G1 F100 S1000
G4 P0.2
G1 S0
G0
M3
G0 X22.034Y21.526
M3
G1 F100 S1000
G4 P0.25
G1 S0
G0
M3
G1 X21.535Y22.025S1000F2000
M3
G1 F100 S1000
G4 P0.2
G1 S0
G0
M3
G0 X21.873Y22.363
M3
G1 F100 S1000
G4 P0.25
G1 S0
G0
M3
G1 X22.372Y21.864S1000F2000
M3
G1 F100 S1000
G4 P0.2
G1 S0
G0
M3
G0 X22.949Y21.963
M3
G1 F100 S1000
G4 P0.25
G1 S0
G0
M3
G1 X21.951Y22.961S1000F2000
M3
G1 F100 S1000
G4 P0.2
G1 S0
G0
M3
G0 X22.521Y23.011
M3
G1 F100 S1000
G4 P0.25
G1 S0
G0
M3
G1 X23.02Y22.512S1000F2000
M3
G1 F100 S1000
G4 P0.2
G1 S0
G0
M3
G0 X23.358Y22.85
M3
G1 F100 S1000
G4 P0.25
G1 S0
G0
M3
G1 X22.859Y23.349S1000F2000
M3
G1 F100 S1000
G4 P0.2
G1 S0
G0
M3
G0 X23.197Y23.686
M3
G1 F100 S1000
G4 P0.25
G1 S0
G0
M3
G1 X23.696Y23.188S1000F2000
M3
G1 F100 S1000
G4 P0.2
G1 S0
G0
M3
G0 X24.034Y23.526
M3
G1 F100 S1000
G4 P0.25
G1 S0
G0
M3
G1 X23.535Y24.025S1000F2000
M3
G1 F100 S1000
G4 P0.2
G1 S0
G0
M3
G0 X23.613Y24.622
M3
G1 F100 S1000
G4 P0.25
G1 S0
G0
M3
G1 X24.61Y23.624S1000F2000
M3
G1 F100 S1000
G4 P0.2
G1 S0
G0
M3
G0 X24.681Y24.173
M3
G1 F100 S1000
G4 P0.25
G1 S0
G0
M3
G1 X24.182Y24.672S1000F2000
M3
G1 F100 S1000
G4 P0.2
G1 S0
G0
M3
G0 X24.52Y25.01
M3
G1 F100 S1000
G4 P0.25
G1 S0
G0
M3
G1 X25.019Y24.511S1000F2000
M3
G1 F100 S1000
G4 P0.2
G1 S0
G0
M3
G0 X25.357Y24.849
M3
G1 F100 S1000
G4 P0.25
G1 S0
G0
M3
G1 X24.858Y25.348S1000F2000
M3
G1 F100 S1000
G4 P0.2
G1 S0
G0
M3
G0 X25.196Y25.686
M3
G1 F100 S1000
G4 P0.25
G1 S0
G0
M3
G1 X25.695Y25.187S1000F2000
M3
G1 F100 S1000
G4 P0.2
G1 S0
G0
M3
G0 X26.272Y25.286
M3
G1 F100 S1000
G4 P0.25
G1 S0
G0
M3
G1 X25.274Y26.284S1000F2000
M3
G1 F100 S1000
G4 P0.2
G1 S0
G0
M3
G0 X25.844Y26.334
M3
G1 F100 S1000
G4 P0.25
G1 S0
G0
M3
G1 X26.343Y25.835S1000F2000
M3
G1 F100 S1000
G4 P0.2
G1 S0
G0
M3
G0 X26.681Y26.172
M3
G1 F100 S1000
G4 P0.25
G1 S0
G0
M3
G1 X26.182Y26.671S1000F2000
M3
G1 F100 S1000
G4 P0.2
G1 S0
G0
M3
G0 X26.52Y27.009
M3
G1 F100 S1000
G4 P0.25
G1 S0
G0
M3
G1 X27.019Y26.511S1000F2000
M3
G1 F100 S1000
G4 P0.2
G1 S0
G0
M3
G0 X27.357Y26.848
M3
G1 F100 S1000
G4 P0.25
G1 S0
G0
M3
G1 X26.858Y27.347S1000F2000
M3
G1 F100 S1000
G4 P0.2
G1 S0
G0
M3
G0 X26.907Y27.917
M3
G1 F100 S1000
G4 P0.25
G1 S0
G0
M3
G1 X27.905Y26.919S1000F2000
M3
G1 F100 S1000
G4 P0.2
G1 S0
G0
M3
G0 X27.998Y27.49
M3
G1 F100 S1000
G4 P0.25
G1 S0
G0
M3
G1 X27.499Y27.989S1000F2000
M3
G1 F100 S1000
G4 P0.2
G1 S0
G0
M3
G0 X27.837Y28.327
M3
G1 F100 S1000
G4 P0.25
G1 S0
G0
M3
G1 X28.336Y27.828S1000F2000
M3
G1 F100 S1000
G4 P0.2
G1 S0
G0
M3
G0 X28.674Y28.166
M3
G1 F100 S1000
G4 P0.25
G1 S0
G0
M3
G1 X28.175Y28.665S1000F2000
M3
G1 F100 S1000
G4 P0.2
G1 S0
G0
M3
G0 X28.513Y29.003
M3
G1 F100 S1000
G4 P0.25
G1 S0
G0
M3
G1 X29.012Y28.504S1000F2000
M3
G1 F100 S1000
G4 P0.2
G1 S0
G0
M3
G0 X29.589Y28.602
M3
G1 F100 S1000
G4 P0.25
G1 S0
G0
M3
G1 X28.591Y29.6S1000F2000
M3
G1 F100 S1000
G4 P0.2
G1 S0
G0
M3
G0 X29.161Y29.65
M3
G1 F100 S1000
G4 P0.25
G1 S0
G0
M3
G1 X29.659Y29.151S1000F2000
M3
G1 F100 S1000
G4 P0.2
G1 S0
G0
M3
G0 X29.997Y29.489
M3
G1 F100 S1000
G4 P0.25
G1 S0
G0
M3
G1 X29.498Y29.988S1000F2000
M3
G1 F100 S1000
G4 P0.2
G1 S0
G0
M3
G0 X29.836Y30.326
M3
G1 F100 S1000
G4 P0.25
G1 S0
G0
M3
G1 X30.335Y29.827S1000F2000
M3
G1 F100 S1000
G4 P0.2
G1 S0
G0
M3
G0 X30.673Y30.165
M3
G1 F100 S1000
G4 P0.25
G1 S0
G0
M3
G1 X30.174Y30.664S1000F2000
M3
G1 F100 S1000
G4 P0.2
G1 S0
G0
M3
G0 X30.252Y31.262
M3
G1 F100 S1000
G4 P0.25
G1 S0
G0
M3
G1 X31.25Y30.264S1000F2000
M3
G1 F100 S1000
G4 P0.2
G1 S0
G0
M3
G0 X31.321Y30.813
M3
G1 F100 S1000
G4 P0.25
G1 S0
G0
M3
G1 X30.822Y31.312S1000F2000
M3
G1 F100 S1000
G4 P0.2
G1 S0
G0
M3
G0 X31.16Y31.65
M3
G1 F100 S1000
G4 P0.25
G1 S0
G0
M3
G1 X31.659Y31.151S1000F2000
M3
G1 F100 S1000
G4 P0.2
G1 S0
G0
M3
G0 X31.997Y31.489
M3
G1 F100 S1000
G4 P0.25
G1 S0
G0
M3
G1 X31.498Y31.988S1000F2000
M3
G1 F100 S1000
G4 P0.2
G1 S0
G0
M3
G0 X31.836Y32.325
M3
G1 F100 S1000
G4 P0.25
G1 S0
G0
M3
G1 X32.335Y31.826S1000F2000
M3
G1 F100 S1000
G4 P0.2
G1 S0
G0
M3
G0 X32.883Y31.898
M3
G1 F100 S1000
G4 P0.25
G1 S0
G0
M3
G1 X31.886Y32.895S1000F2000
M3
G1 F100 S1000
G4 P0.2
G1 S0
G0
M3
G0 X32.474Y32.964
M3
G1 F100 S1000
G4 P0.25
G1 S0
G0
M3
G1 X32.973Y32.465S1000F2000
M3
G1 F100 S1000
G4 P0.2
G1 S0
G0
M3
G0 X33.311Y32.803
M3
G1 F100 S1000
G4 P0.25
G1 S0
G0
M3
G1 X32.812Y33.302S1000F2000
M3
G1 F100 S1000
G4 P0.2
G1 S0
G0
M3
G0 X33.15Y33.64
M3
G1 F100 S1000
G4 P0.25
G1 S0
G0
M3
G1 X33.649Y33.141S1000F2000
M3
G1 F100 S1000
G4 P0.2
G1 S0
G0
M3
G0 X11.411Y33.548
M3
G1 F100 S1000
G4 P0.25
G1 S0
G0
M3
G1 X10S1000F2000
M3
G1 F100 S1000
G4 P0.2
G1 S0
G0
M3
G0 X10Y33.11
M3
G1 F100 S1000
G4 P0.25
G1 S0
G0
M3
G1 X10.706S1000F2000
M3
G1 F100 S1000
G4 P0.2
G1 S0
G0
M3
G0 X10.706Y32.632
M3
G1 F100 S1000
G4 P0.25
G1 S0
G0
M3
G1 X10S1000F2000
M3
G1 F100 S1000
G4 P0.2
G1 S0
G0
M3
G0 X10Y32.154
M3
G1 F100 S1000
G4 P0.25
G1 S0
G0
M3
G1 X10.706S1000F2000
M3
G1 F100 S1000
G4 P0.2
G1 S0
G0
M3
G0 X10.706Y31.676
M3
G1 F100 S1000
G4 P0.25
G1 S0
G0
M3
G1 X10S1000F2000
M3
G1 F100 S1000
G4 P0.2
G1 S0
G0
M3
G0 X10Y31.199
M3
G1 F100 S1000
G4 P0.25
G1 S0
G0
M3
G1 X11.411S1000F2000
M3
G1 F100 S1000
G4 P0.2
G1 S0
G0
M3
G0 X10.706Y30.721
M3
G1 F100 S1000
G4 P0.25
G1 S0
G0
M3
G1 X10S1000F2000
M3
G1 F100 S1000
G4 P0.2
G1 S0
G0
M3
G0 X10Y30.243
M3
G1 F100 S1000
G4 P0.25
G1 S0
G0
M3
G1 X10.706S1000F2000
M3
G1 F100 S1000
G4 P0.2
G1 S0
G0
M3
G0 X10.706Y29.765
M3
G1 F100 S1000
G4 P0.25
G1 S0
G0
M3
G1 X10S1000F2000
M3
G1 F100 S1000
G4 P0.2
G1 S0
G0
M3
G0 X10Y29.287
M3
G1 F100 S1000
G4 P0.25
G1 S0
G0
M3
G1 X10.706S1000F2000
M3
G1 F100 S1000
G4 P0.2
G1 S0
G0
M3
G0 X10Y28.809
M3
G1 F100 S1000
G4 P0.25
G1 S0
G0
M3
G1 X11.411S1000F2000
M3
G1 F100 S1000
G4 P0.2
G1 S0
G0
M3
G0 X10.706Y28.371
M3
G1 F100 S1000
G4 P0.25
G1 S0
G0
M3
G1 X10S1000F2000
M3
G1 F100 S1000
G4 P0.2
G1 S0
G0
M3
G0 X10Y27.893
M3
G1 F100 S1000
G4 P0.25
G1 S0
G0
M3
G1 X10.706S1000F2000
M3
G1 F100 S1000
G4 P0.2
G1 S0
G0
M3
G0 X10.706Y27.415
M3
G1 F100 S1000
G4 P0.25
G1 S0
G0
M3
G1 X10S1000F2000
M3
G1 F100 S1000
G4 P0.2
G1 S0
G0
M3
G0 X10Y26.937
M3
G1 F100 S1000
G4 P0.25
G1 S0
G0
M3
G1 X10.706S1000F2000
M3
G1 F100 S1000
G4 P0.2
G1 S0
G0
M3
G0 X10Y26.459
M3
G1 F100 S1000
G4 P0.25
G1 S0
G0
M3
G1 X11.411S1000F2000
M3
G1 F100 S1000
G4 P0.2
G1 S0
G0
M3
G0 X10.706Y26.021
M3
G1 F100 S1000
G4 P0.25
G1 S0
G0
M3
G1 X10S1000F2000
M3
G1 F100 S1000
G4 P0.2
G1 S0
G0
M3
G0 X10Y25.543
M3
G1 F100 S1000
G4 P0.25
G1 S0
G0
M3
G1 X10.706S1000F2000
M3
G1 F100 S1000
G4 P0.2
G1 S0
G0
M3
G0 X10.706Y25.065
M3
G1 F100 S1000
G4 P0.25
G1 S0
G0
M3
G1 X10S1000F2000
M3
G1 F100 S1000
G4 P0.2
G1 S0
G0
M3
G0 X10Y24.588
M3
G1 F100 S1000
G4 P0.25
G1 S0
G0
M3
G1 X10.706S1000F2000
M3
G1 F100 S1000
G4 P0.2
G1 S0
G0
M3
G0 X10Y24.11
M3
G1 F100 S1000
G4 P0.25
G1 S0
G0
M3
G1 X11.411S1000F2000
M3
G1 F100 S1000
G4 P0.2
G1 S0
G0
M3
G0 X10.706Y23.672
M3
G1 F100 S1000
G4 P0.25
G1 S0
G0
M3
G1 X10S1000F2000
M3
G1 F100 S1000
G4 P0.2
G1 S0
G0
M3
G0 X10Y23.194
M3
G1 F100 S1000
G4 P0.25
G1 S0
G0
M3
G1 X10.706S1000F2000
M3
G1 F100 S1000
G4 P0.2
G1 S0
G0
M3
G0 X10.706Y22.716
M3
G1 F100 S1000
G4 P0.25
G1 S0
G0
M3
G1 X10S1000F2000
M3
G1 F100 S1000
G4 P0.2
G1 S0
G0
M3
G0 X10Y22.238
M3
G1 F100 S1000
G4 P0.25
G1 S0
G0
M3
G1 X10.706S1000F2000
M3
G1 F100 S1000
G4 P0.2
G1 S0
G0
M3
G0 X10Y21.76
M3
G1 F100 S1000
G4 P0.25
G1 S0
G0
M3
G1 X11.411S1000F2000
M3
G1 F100 S1000
G4 P0.2
G1 S0
G0
M3
G0 X10.706Y21.322
M3
G1 F100 S1000
G4 P0.25
G1 S0
G0
M3
G1 X10S1000F2000
M3
G1 F100 S1000
G4 P0.2
G1 S0
G0
M3
G0 X10Y21.322
M3
G1 F100 S1000
G4 P0.25
G1 S0
G0
M3
G1 X10.706S1000F2000
M3
G1 F100 S1000
G4 P0.2
G1 S0
G0
M3
G0 X10.706Y20.844
M3
G1 F100 S1000
G4 P0.25
G1 S0
G0
M3
G1 X10S1000F2000
M3
G1 F100 S1000
G4 P0.2
G1 S0
G0
M3
G0 X10Y20.844
M3
G1 F100 S1000
G4 P0.25
G1 S0
G0
M3
G1 X10.706S1000F2000
M3
G1 F100 S1000
G4 P0.2
G1 S0
G0
M3
G0 X10.706Y20.366
M3
G1 F100 S1000
G4 P0.25
G1 S0
G0
M3
G1 X10S1000F2000
M3
G1 F100 S1000
G4 P0.2
G1 S0
G0
M3
G0 X10Y20.366
M3
G1 F100 S1000
G4 P0.25
G1 S0
G0
M3
G1 X10.706S1000F2000
M3
G1 F100 S1000
G4 P0.2
G1 S0
G0
M3
G0 X10.706Y19.888
M3
G1 F100 S1000
G4 P0.25
G1 S0
G0
M3
G1 X10S1000F2000
M3
G1 F100 S1000
G4 P0.2
G1 S0
G0
M3
G0 X10Y19.888
M3
G1 F100 S1000
G4 P0.25
G1 S0
G0
M3
G1 X10.706S1000F2000
M3
G1 F100 S1000
G4 P0.2
G1 S0
G0
M3
G0 X10Y19.41
M3
G1 F100 S1000
G4 P0.25
G1 S0
G0
M3
G1 X11.411S1000F2000
M3
G1 F100 S1000
G4 P0.2
G1 S0
G0
M3
G0 X10.706Y18.972
M3
G1 F100 S1000
G4 P0.25
G1 S0
G0
M3
G1 X10S1000F2000
M3
G1 F100 S1000
G4 P0.2
G1 S0
G0
M3
G0 X10Y18.494
M3
G1 F100 S1000
G4 P0.25
G1 S0
G0
M3
G1 X10.706S1000F2000
M3
G1 F100 S1000
G4 P0.2
G1 S0
G0
M3
G0 X10.706Y18.016
M3
G1 F100 S1000
G4 P0.25
G1 S0
G0
M3
G1 X10S1000F2000
M3
G1 F100 S1000
G4 P0.2
G1 S0
G0
M3
G0 X10Y17.538
M3
G1 F100 S1000
G4 P0.25
G1 S0
G0
M3
G1 X10.706S1000F2000
M3
G1 F100 S1000
G4 P0.2
G1 S0
G0
M3
G0 X10Y17.061
M3
G1 F100 S1000
G4 P0.25
G1 S0
G0
M3
G1 X11.411S1000F2000
M3
G1 F100 S1000
G4 P0.2
G1 S0
G0
M3
G0 X10.706Y16.622
M3
G1 F100 S1000
G4 P0.25
G1 S0
G0
M3
G1 X10S1000F2000
M3
G1 F100 S1000
G4 P0.2
G1 S0
G0
M3
G0 X10Y16.145
M3
G1 F100 S1000
G4 P0.25
G1 S0
G0
M3
G1 X10.706S1000F2000
M3
G1 F100 S1000
G4 P0.2
G1 S0
G0
M3
G0 X10.706Y15.667
M3
G1 F100 S1000
G4 P0.25
G1 S0
G0
M3
G1 X10S1000F2000
M3
G1 F100 S1000
G4 P0.2
G1 S0
G0
M3
G0 X10Y15.189
M3
G1 F100 S1000
G4 P0.25
G1 S0
G0
M3
G1 X10.706S1000F2000
M3
G1 F100 S1000
G4 P0.2
G1 S0
G0
M3
G0 X10Y14.711
M3
G1 F100 S1000
G4 P0.25
G1 S0
G0
M3
G1 X11.411S1000F2000
M3
G1 F100 S1000
G4 P0.2
G1 S0
G0
M3
G0 X10.706Y14.273
M3
G1 F100 S1000
G4 P0.25
G1 S0
G0
M3
G1 X10S1000F2000
M3
G1 F100 S1000
G4 P0.2
G1 S0
G0
M3
G0 X10Y13.795
M3
G1 F100 S1000
G4 P0.25
G1 S0
G0
M3
G1 X10.706S1000F2000
M3
G1 F100 S1000
G4 P0.2
G1 S0
G0
M3
G0 X10.706Y13.317
M3
G1 F100 S1000
G4 P0.25
G1 S0
G0
M3
G1 X10S1000F2000
M3
G1 F100 S1000
G4 P0.2
G1 S0
G0
M3
G0 X10Y12.839
M3
G1 F100 S1000
G4 P0.25
G1 S0
G0
M3
G1 X10.706S1000F2000
M3
G1 F100 S1000
G4 P0.2
G1 S0
G0
M3
G0 X11.538Y12.028
M3
G1 F100 S1000
G4 P0.25
G1 S0
G0
M3
G1 X12.037Y11.529S1000F2000
M3
G1 F100 S1000
G4 P0.2
G1 S0
G0
M3
G0 X12.39Y11.423
M3
G1 F100 S1000
G4 P0.25
G1 S0
G0
M3
G1 Y10.012S1000F2000
M3
G1 F100 S1000
G4 P0.2
G1 S0
G0
M3
G0 X14.779Y10.012
M3
G1 F100 S1000
G4 P0.25
G1 S0
G0
M3
G1 Y11.423S1000F2000
M3
G1 F100 S1000
G4 P0.2
G1 S0
G0
M3
G0 X17.129Y11.423
M3
G1 F100 S1000
G4 P0.25
G1 S0
G0
M3
G1 Y10.012S1000F2000
M3
G1 F100 S1000
G4 P0.2
G1 S0
G0
M3
G0 X19.478Y10.012
M3
G1 F100 S1000
G4 P0.25
G1 S0
G0
M3
G1 Y11.423S1000F2000
M3
G1 F100 S1000
G4 P0.2
G1 S0
G0
M3
G0 X21.828Y11.423
M3
G1 F100 S1000
G4 P0.25
G1 S0
G0
M3
G1 Y10.012S1000F2000
M3
G1 F100 S1000
G4 P0.2
G1 S0
G0
M3
G0 X28.877Y10.012
M3
G1 F100 S1000
G4 P0.25
G1 S0
G0
M3
G1 Y11.423S1000F2000
M3
G1 F100 S1000
G4 P0.2
G1 S0
G0
M3
G0 X31.227Y11.423
M3
G1 F100 S1000
G4 P0.25
G1 S0
G0
M3
G1 Y10.012S1000F2000
M3
G1 F100 S1000
G4 P0.2
G1 S0
G0
M3
G0 X29.249Y48.29
M3
G1 F100 S1000
G4 P0.25
G1 S0
G0
M3
G1 X28.889S1000F2000
G1 X28.925Y48.662
G1 X29.021Y49.103
G1 X29.175Y49.571
G1 X29.384Y50.022
G1 X29.628Y50.429
G1 X29.887Y50.768
G1 X28.491
G1 Y51.104
G1 X30.336
G1 Y50.832
G1 X30.065Y50.494
G1 X29.796Y50.062
G1 X29.559Y49.575
G1 X29.383Y49.074
G1 X29.297Y48.699
G1 X29.249Y48.29
M3
G1 F100 S1000
G4 P0.2
G1 S0
G0
M3
G0 X27.656Y48.806
M3
G1 F100 S1000
G4 P0.25
G1 S0
G0
M3
G1 X27.706Y48.919S1000F2000
G1 X27.736Y49.049
G1 Y49.194
G1 Y49.334
G1 X27.707Y49.459
G1 X27.657Y49.567
G1 X27.588Y49.66
G1 X27.505Y49.735
G1 X27.411Y49.788
G1 X27.306Y49.82
G1 X27.192Y49.83
G1 X27.078Y49.82
G1 X26.972Y49.788
G1 X26.876Y49.735
G1 X26.789Y49.66
G1 X26.717Y49.568
G1 X26.665Y49.463
G1 X26.634Y49.345
G1 X26.624Y49.214
G1 X26.643Y49.037
G1 X26.701Y48.868
G1 X26.793Y48.722
G1 X26.916Y48.616
G1 X27.057Y48.551
G1 X27.205Y48.529
G1 X27.312Y48.54
G1 X27.411Y48.574
G1 X27.503Y48.63
G1 X27.587Y48.708
G1 X27.656Y48.806
M3
G1 F100 S1000
G4 P0.2
G1 S0
G0
M3
G0 X27.988Y48.717
M3
G1 F100 S1000
G4 P0.25
G1 S0
G0
M3
G1 X27.851Y48.513S1000F2000
G1 X27.67Y48.364
G1 X27.454Y48.272
G1 X27.211Y48.241
G1 X27.003Y48.262
G1 X26.814Y48.322
G1 X26.646Y48.423
G1 X26.498Y48.563
G1 X26.377Y48.75
G1 X26.29Y48.989
G1 X26.239Y49.281
G1 X26.221Y49.624
G1 X26.24Y50.009
G1 X26.298Y50.338
G1 X26.393Y50.61
G1 X26.527Y50.826
G1 X26.671Y50.969
G1 X26.839Y51.071
G1 X27.03Y51.132
G1 X27.244Y51.153
G1 X27.405Y51.141
G1 X27.55Y51.105
G1 X27.681Y51.046
G1 X27.796Y50.964
G1 X27.892Y50.861
G1 X27.967Y50.739
G1 X28.021Y50.6
G1 X28.053Y50.443
G1 X27.705Y50.416
G1 X27.649Y50.593
G1 X27.573Y50.715
G1 X27.498Y50.781
G1 X27.414Y50.827
G1 X27.323Y50.855
G1 X27.223
G1 X27.066Y50.841
G1 X26.929Y50.771
G1 X26.781Y50.623
G1 X26.669Y50.419
G1 X26.627Y50.291
G1 X26.596Y50.139
G1 X26.577Y49.962
G1 Y49.76
G1 X26.71Y49.928
G1 X26.879Y50.046
G1 X27.066Y50.116
G1 X27.262Y50.139
G1 X27.43Y50.123
G1 X27.586Y50.075
G1 X27.728Y49.994
G1 X27.858Y49.882
G1 X27.965Y49.744
G1 X28.042Y49.586
G1 X28.088Y49.41
G1 X28.104Y49.216
G1 X28.075Y48.957
G1 X27.988Y48.717
M3
G1 F100 S1000
G4 P0.2
G1 S0
G0
M3
G0 X25.84Y48.896
M3
G1 F100 S1000
G4 P0.25
G1 S0
G0
M3
G1 X25.77Y48.735S1000F2000
G1 X25.671Y48.588
G1 X25.522Y48.436
G1 X25.347Y48.328
G1 X25.147Y48.263
G1 X24.923Y48.241
G1 X24.737Y48.255
G1 X24.569Y48.296
G1 X24.42Y48.364
G1 X24.288Y48.459
G1 X24.178Y48.577
G1 X24.094Y48.713
G1 X24.037Y48.866
G1 X24.007Y49.037
G1 X24.374Y49.068
G1 X24.401Y48.942
G1 X24.442Y48.833
G1 X24.496Y48.74
G1 X24.564Y48.664
G1 X24.728Y48.563
G1 X24.923Y48.529
G1 X25.044Y48.541
G1 X25.156Y48.577
G1 X25.258Y48.636
G1 X25.35Y48.72
G1 X25.427Y48.823
G1 X25.482Y48.942
G1 X25.515Y49.076
G1 X25.525Y49.225
G1 X25.515Y49.367
G1 X25.483Y49.493
G1 X25.431Y49.604
G1 X25.357Y49.698
G1 X25.267Y49.774
G1 X25.163Y49.828
G1 X25.046Y49.86
G1 X24.917Y49.871
G1 X24.756Y49.852
G1 X24.611Y49.794
G1 X24.49Y49.706
G1 X24.398Y49.595
G1 X24.069Y49.638
G1 X24.345Y51.102
G1 X25.763
G1 Y50.768
G1 X24.625
G1 X24.471Y50.001
G1 X24.601Y50.08
G1 X24.734Y50.136
G1 X24.871Y50.169
G1 X25.01Y50.18
G1 X25.19Y50.164
G1 X25.354Y50.116
G1 X25.505Y50.035
G1 X25.64Y49.922
G1 X25.752Y49.783
G1 X25.833Y49.626
G1 X25.881Y49.451
G1 X25.897Y49.257
G1 X25.883Y49.07
G1 X25.84Y48.896
M3
G1 F100 S1000
G4 P0.2
G1 S0
G0
M3
G0 X22.899Y49.294
M3
G1 F100 S1000
G4 P0.25
G1 S0
G0
M3
G1 Y50.579S1000F2000
G1 X22.006Y49.294
G1 X22.899
M3
G1 F100 S1000
G4 P0.2
G1 S0
G0
M3
G0 X23.249Y49.294
M3
G1 F100 S1000
G4 P0.25
G1 S0
G0
M3
G1 X23.634S1000F2000
G1 Y48.973
G1 X23.249
G1 Y48.29
G1 X22.899
G1 Y48.973
G1 X21.662
G1 Y49.294
G1 X22.963Y51.141
G1 X23.249
G1 Y49.294
M3
G1 F100 S1000
G4 P0.2
G1 S0
G0
M3
G0 X21.406Y49.264
M3
G1 F100 S1000
G4 P0.25
G1 S0
G0
M3
G1 Y49.132S1000F2000
G1 Y48.953
G1 X21.347Y48.787
G1 X21.262Y48.636
G1 X21.143Y48.499
G1 X20.998Y48.386
G1 X20.835Y48.304
G1 X20.653Y48.256
G1 X20.454Y48.24
G1 X20.275Y48.254
G1 X20.111Y48.295
G1 X19.963Y48.365
G1 X19.831Y48.463
G1 X19.72Y48.583
G1 X19.636Y48.72
G1 X19.579Y48.873
G1 X19.548Y49.043
G1 X19.898Y49.089
G1 X19.98Y48.833
G1 X20.103Y48.661
G1 X20.264Y48.562
G1 X20.456Y48.529
G1 X20.575Y48.54
G1 X20.684Y48.572
G1 X20.784Y48.626
G1 X20.873Y48.7
G1 X20.948Y48.791
G1 X21.001Y48.892
G1 X21.033Y49.003
G1 X21.044Y49.124
G1 X21.034Y49.24
G1 X21.004Y49.344
G1 X20.955Y49.438
G1 X20.886Y49.522
G1 X20.802Y49.59
G1 X20.707Y49.639
G1 X20.602Y49.669
G1 X20.486
G1 X20.374
G1 X20.239Y49.64
G1 X20.277Y49.947
G1 X20.334
G1 X20.546Y49.972
G1 X20.736Y50.06
G1 X20.815Y50.126
G1 X20.871Y50.208
G1 X20.904Y50.306
G1 X20.915Y50.419
G1 X20.883Y50.595
G1 X20.785Y50.738
G1 X20.636Y50.833
G1 X20.449Y50.865
G1 X20.261Y50.833
G1 X20.108Y50.736
G1 X19.996Y50.576
G1 X19.933Y50.351
G1 X19.583Y50.414
G1 X19.626Y50.58
G1 X19.688Y50.726
G1 X19.771Y50.852
G1 X19.875Y50.959
G1 X19.996Y51.044
G1 X20.13Y51.104
G1 X20.279Y51.14
G1 X20.441Y51.153
G1 X20.665Y51.128
G1 X20.871Y51.052
G1 X21.044Y50.934
G1 X21.171Y50.779
G1 X21.249Y50.601
G1 X21.275Y50.412
G1 X21.25Y50.235
G1 X21.176Y50.075
G1 X21.053Y49.939
G1 X20.882Y49.834
G1 X21.002Y49.797
G1 X21.107Y49.744
G1 X21.198Y49.676
G1 X21.275Y49.592
G1 X21.336Y49.494
G1 X21.38Y49.385
G1 X21.406Y49.264
M3
G1 F100 S1000
G4 P0.2
G1 S0
G0
M3
G0 X20.505Y52.653
M3
G1 F100 S1000
G4 P0.25
G1 S0
G0
M3
G1 X20.674Y52.719S1000F2000
G1 X20.811Y52.824
G1 X20.906Y52.961
G1 X20.948Y53.108
G1 X20.962Y53.311
G1 Y53.439
G1 X20.724Y53.367
G1 X20.206Y53.274
G1 X20.085Y53.237
G1 X20.006Y53.189
G1 X19.947Y53.123
G1 X19.91Y53.044
G1 X19.898Y52.957
G1 X19.925Y52.829
G1 X20.004Y52.724
G1 X20.135Y52.654
G1 X20.314Y52.63
G1 X20.505Y52.653
M3
G1 F100 S1000
G4 P0.2
G1 S0
G0
M3
G0 X20.8Y52.517
M3
G1 F100 S1000
G4 P0.25
G1 S0
G0
M3
G1 X20.617Y52.424S1000F2000
G1 X20.43Y52.373
G1 X20.231Y52.356
G1 X20.07Y52.367
G1 X19.93Y52.398
G1 X19.809Y52.45
G1 X19.708Y52.522
G1 X19.628Y52.611
G1 X19.571Y52.712
G1 X19.536Y52.824
G1 X19.525Y52.947
G1 X19.542Y53.092
G1 X19.594Y53.224
G1 X19.674Y53.338
G1 X19.775Y53.426
G1 X19.894Y53.492
G1 X20.027Y53.54
G1 X20.156Y53.567
G1 X20.536Y53.619
G1 X20.706Y53.648
G1 X20.848Y53.68
G1 X20.962Y53.714
G1 Y53.805
G1 X20.939Y53.987
G1 X20.865Y54.106
G1 X20.789Y54.158
G1 X20.698Y54.195
G1 X20.59Y54.218
G1 X20.466
G1 X20.251Y54.203
G1 X20.101Y54.138
G1 X19.999Y54.019
G1 X19.927Y53.832
G1 X19.585Y53.879
G1 X19.647Y54.077
G1 X19.739Y54.234
G1 X19.87Y54.353
G1 X20.048Y54.442
G1 X20.266Y54.496
G1 X20.517Y54.515
G1 X20.756Y54.499
G1 X20.946Y54.452
G1 X21.09Y54.382
G1 X21.189Y54.296
G1 X21.256Y54.189
G1 X21.298Y54.058
G1 X21.311Y53.932
G1 Y53.735
G1 Y53.047
G1 X21.321Y52.87
G1 Y52.738
G1 X21.338Y52.651
G1 X21.372Y52.524
G1 X21.427Y52.403
G1 X21.061
G1 X21.016Y52.521
G1 X20.991Y52.658
G1 X20.8Y52.517
M3
G1 F100 S1000
G4 P0.2
G1 S0
G0
M3
G0 X22.294Y52.914
M3
G1 F100 S1000
G4 P0.25
G1 S0
G0
M3
G1 X22.384Y52.796S1000F2000
G1 X22.488Y52.712
G1 X22.607Y52.661
G1 X22.741Y52.644
G1 X22.852Y52.656
G1 X22.955Y52.694
G1 X23.05Y52.756
G1 X23.138Y52.843
G1 X23.211Y52.955
G1 X23.263Y53.092
G1 X23.295Y53.252
G1 Y53.437
G1 Y53.626
G1 X23.265Y53.789
G1 X23.215Y53.925
G1 X23.145Y54.034
G1 X23.06Y54.119
G1 X22.967Y54.179
G1 X22.866Y54.215
G1 X22.757Y54.227
G1 X22.646Y54.214
G1 X22.543Y54.177
G1 X22.447Y54.115
G1 X22.36Y54.028
G1 X22.287Y53.917
G1 X22.234Y53.784
G1 X22.203Y53.629
G1 X22.193Y53.451
G1 Y53.278
G1 X22.218Y53.131
G1 X22.25Y53.01
G1 X22.294Y52.914
M3
G1 F100 S1000
G4 P0.2
G1 S0
G0
M3
G0 X22.197Y52.662
M3
G1 F100 S1000
G4 P0.25
G1 S0
G0
M3
G1 Y52.403S1000F2000
G1 X21.872
G1 Y55.254
G1 X22.222
G1 Y54.237
G1 X22.34Y54.358
G1 X22.474Y54.445
G1 X22.623Y54.497
G1 X22.788Y54.515
G1 X22.973Y54.496
G1 X23.148Y54.438
G1 X23.303Y54.346
G1 X23.428Y54.222
G1 X23.526Y54.069
G1 X23.601Y53.887
G1 X23.647Y53.683
G1 X23.663Y53.467
G1 X23.646Y53.216
G1 X23.597Y52.996
G1 X23.515Y52.806
G1 X23.4Y52.646
G1 X23.262Y52.519
G1 X23.111Y52.429
G1 X22.947Y52.374
G1 X22.77Y52.356
G1 X22.597Y52.375
G1 X22.444Y52.433
G1 X22.31Y52.528
G1 X22.197Y52.662
M3
G1 F100 S1000
G4 P0.2
G1 S0
G0
M3
G0 X24.061Y52.97
M3
G1 F100 S1000
G4 P0.25
G1 S0
G0
M3
G1 X24.013Y53.184S1000F2000
G1 X23.997Y53.428
G1 X24.025Y53.741
G1 X24.108Y54.013
G1 X24.17Y54.131
G1 X24.248Y54.233
G1 X24.339Y54.319
G1 X24.445Y54.389
G1 X24.682Y54.483
G1 X24.938Y54.515
G1 X25.099Y54.504
G1 X25.244Y54.472
G1 X25.374Y54.419
G1 X25.489Y54.345
G1 X25.586Y54.251
G1 X25.664Y54.139
G1 X25.723Y54.009
G1 X25.763Y53.861
G1 X25.422Y53.809
G1 X25.355Y53.991
G1 X25.25Y54.122
G1 X25.114Y54.201
G1 X24.952Y54.227
G1 X24.826Y54.215
G1 X24.712Y54.18
G1 X24.611Y54.12
G1 X24.522Y54.037
G1 X24.45Y53.929
G1 X24.398Y53.793
G1 X24.367Y53.629
G1 X24.357Y53.437
G1 Y53.244
G1 X24.397Y53.078
G1 X24.446Y52.941
G1 X24.516Y52.833
G1 X24.602Y52.75
G1 X24.7Y52.691
G1 X24.81Y52.656
G1 X24.932Y52.644
G1 X25.121Y52.676
G1 X25.277Y52.77
G1 X25.389Y52.931
G1 X25.452Y53.159
G1 X25.796Y53.115
G1 X25.757Y52.946
G1 X25.695Y52.797
G1 X25.612Y52.668
G1 X25.507Y52.557
G1 X25.384Y52.469
G1 X25.248Y52.407
G1 X25.099Y52.369
G1 X24.936Y52.356
G1 X24.735Y52.374
G1 X24.554Y52.425
G1 X24.394Y52.512
G1 X24.255Y52.633
G1 X24.142Y52.787
G1 X24.061Y52.97
M3
G1 F100 S1000
G4 P0.2
G1 S0
G0
M3
G0 X26.339Y53.248
M3
G1 F100 S1000
G4 P0.25
G1 S0
G0
M3
G1 X26.37Y53.087S1000F2000
G1 X26.423Y52.951
G1 X26.496Y52.84
G1 X26.583Y52.754
G1 X26.678Y52.693
G1 X26.781Y52.656
G1 X26.891Y52.644
G1 X27.001Y52.656
G1 X27.103Y52.691
G1 X27.196Y52.75
G1 X27.28Y52.832
G1 X27.351Y52.938
G1 X27.401Y53.069
G1 X27.431Y53.224
G1 Y53.404
G1 Y53.602
G1 X27.4Y53.772
G1 X27.349Y53.913
G1 X27.278Y54.027
G1 X27.191Y54.113
G1 X27.095Y54.175
G1 X26.99Y54.213
G1 X26.875Y54.225
G1 X26.763Y54.213
G1 X26.661Y54.177
G1 X26.568Y54.118
G1 X26.485Y54.034
G1 X26.417Y53.925
G1 X26.368Y53.789
G1 X26.338Y53.625
G1 Y53.434
G1 Y53.248
M3
G1 F100 S1000
G4 P0.2
G1 S0
G0
M3
G0 X25.997Y53.135
M3
G1 F100 S1000
G4 P0.25
G1 S0
G0
M3
G1 X25.969Y53.434S1000F2000
G1 X25.995Y53.728
G1 X26.072Y53.995
G1 X26.13Y54.113
G1 X26.201Y54.217
G1 X26.284Y54.306
G1 X26.381Y54.381
G1 X26.599Y54.481
G1 X26.842Y54.515
G1 X27.018Y54.495
G1 X27.174Y54.436
G1 X27.307Y54.345
G1 X27.412Y54.231
G1 Y55.254
G1 X27.76
G1 Y52.403
G1 X27.435
G1 Y52.663
G1 X27.325Y52.529
G1 X27.192Y52.433
G1 X27.037Y52.375
G1 X26.858Y52.356
G1 X26.621Y52.39
G1 X26.403Y52.492
G1 X26.22Y52.655
G1 X26.083Y52.872
G1 X25.997Y53.135
M3
G1 F100 S1000
G4 P0.2
G1 S0
G0
M3
G0 X28.59Y53.634
M3
G1 F100 S1000
G4 P0.25
G1 S0
G0
M3
G1 X29.743S1000F2000
G1 X29.698Y53.862
G1 X29.611Y54.025
G1 X29.521Y54.113
G1 X29.419Y54.176
G1 X29.304Y54.214
G1 X29.177Y54.227
G1 X29.061Y54.217
G1 X28.955Y54.187
G1 X28.859Y54.136
G1 X28.772Y54.066
G1 X28.699Y53.978
G1 X28.644Y53.877
G1 X28.608Y53.762
G1 X28.59Y53.634
M3
G1 F100 S1000
G4 P0.2
G1 S0
G0
M3
G0 X28.226Y53.664
M3
G1 F100 S1000
G4 P0.25
G1 S0
G0
M3
G1 X28.276Y53.881S1000F2000
G1 X28.36Y54.068
G1 X28.477Y54.227
G1 X28.621Y54.353
G1 X28.785Y54.443
G1 X28.969Y54.497
G1 X29.173Y54.515
G1 X29.371Y54.497
G1 X29.55Y54.444
G1 X29.709Y54.356
G1 X29.85Y54.233
G1 X29.965Y54.077
G1 X30.047Y53.893
G1 X30.096Y53.681
G1 X30.113Y53.439
G1 Y53.346
G1 X28.57
G1 X28.59Y53.186
G1 X28.628Y53.046
G1 X28.686Y52.925
G1 X28.763Y52.825
G1 X28.855Y52.746
G1 X28.957Y52.689
G1 X29.071Y52.655
G1 X29.195Y52.644
G1 X29.373Y52.669
G1 X29.523Y52.745
G1 X29.645Y52.876
G1 X29.739Y53.068
G1 X30.101Y53.023
G1 X30.049Y52.874
G1 X29.979Y52.742
G1 X29.89Y52.628
G1 X29.784Y52.531
G1 X29.66Y52.455
G1 X29.52Y52.4
G1 X29.365Y52.367
G1 X29.193Y52.356
G1 X28.978Y52.374
G1 X28.787Y52.426
G1 X28.619Y52.513
G1 X28.474Y52.635
G1 X28.358Y52.789
G1 X28.275Y52.97
G1 X28.225Y53.18
G1 X28.209Y53.418
G1 X28.226Y53.664
M3
G1 F100 S1000
G4 P0.2
G1 S0
G0
M3
G0 X30.33Y54.196
M3
G1 F100 S1000
G4 P0.25
G1 S0
G0
M3
G1 Y54.468S1000F2000
G1 X30.639
G1 Y54.688
G1 Y54.869
G1 X30.676Y54.997
G1 X30.746Y55.12
G1 X30.854Y55.218
G1 X31.007Y55.281
G1 X31.211Y55.302
G1 X31.367
G1 X31.538Y55.267
G1 X31.485Y54.962
G1 X31.379Y54.977
G1 X31.279
G1 X31.143Y54.964
G1 X31.053Y54.913
G1 X31.004Y54.816
G1 X30.987Y54.659
G1 Y54.468
G1 X31.39
G1 Y54.196
G1 X30.987
G1 Y52.403
G1 X30.639
G1 Y54.196
G1 X30.33
M3
G1 F100 S1000
G4 P0.2
G1 S0
G0
M3
G0 X32.028Y53.929
M3
G1 F100 S1000
G4 P0.25
G1 S0
G0
M3
G1 X31.977Y53.8S1000F2000
G1 X31.946Y53.648
G1 Y53.472
G1 Y53.283
G1 X31.977Y53.121
G1 X32.027Y52.986
G1 X32.098Y52.879
G1 X32.183Y52.798
G1 X32.279Y52.739
G1 X32.386Y52.704
G1 X32.502Y52.693
G1 X32.618Y52.704
G1 X32.724Y52.739
G1 X32.82Y52.797
G1 X32.907Y52.878
G1 X32.978Y52.984
G1 X33.029Y53.117
G1 X33.06Y53.276
G1 Y53.461
G1 Y53.639
G1 X33.028Y53.793
G1 X32.975Y53.925
G1 X32.902Y54.032
G1 X32.813Y54.117
G1 X32.716Y54.177
G1 X32.611Y54.213
G1 X32.496Y54.225
G1 X32.384Y54.213
G1 X32.28Y54.178
G1 X32.186Y54.118
G1 X32.1Y54.035
G1 X32.028Y53.929
M3
G1 F100 S1000
G4 P0.2
G1 S0
G0
M3
G0 X31.683Y53.993
M3
G1 F100 S1000
G4 P0.25
G1 S0
G0
M3
G1 X31.814Y54.214S1000F2000
G1 X31.994Y54.379
G1 X32.1Y54.438
G1 X32.215Y54.481
G1 X32.338Y54.506
G1 X32.471
G1 X32.646
G1 X32.804Y54.441
G1 X32.947Y54.348
G1 X33.074Y54.219
G1 Y54.468
G1 X33.397
G1 Y52.683
G1 Y52.459
G1 X33.372Y52.271
G1 X33.341Y52.118
G1 X33.298Y51.999
G1 X33.171Y51.819
G1 X32.987Y51.681
G1 X32.75Y51.594
G1 X32.463Y51.565
G1 X32.287Y51.575
G1 X32.129Y51.606
G1 X31.989Y51.658
G1 X31.866Y51.731
G1 X31.767Y51.825
G1 X31.697Y51.939
G1 X31.657Y52.075
G1 X31.646Y52.232
G1 X31.987Y52.181
G1 X32.027Y52.045
G1 X32.105Y51.952
G1 X32.259Y51.879
G1 X32.461Y51.854
G1 X32.677Y51.879
G1 X32.837Y51.952
G1 X32.947Y52.068
G1 X33.015Y52.224
G1 X33.027Y52.292
G1 Y52.39
G1 X33.04Y52.517
G1 Y52.673
G1 X32.919Y52.555
G1 X32.783Y52.47
G1 X32.633Y52.42
G1 X32.469Y52.403
G1 X32.268Y52.422
G1 X32.091Y52.48
G1 X31.938Y52.576
G1 X31.81Y52.71
G1 X31.708Y52.871
G1 X31.635Y53.048
G1 X31.591Y53.24
G1 X31.576Y53.447
G1 X31.603Y53.731
G1 X31.683Y53.993
M3
G1 F100 S1000
G4 P0.2
G1 S0
G0
M3
G0 X34.251Y54.231
M3
G1 F100 S1000
G4 P0.25
G1 S0
G0
M3
G1 X34.382Y54.355S1000F2000
G1 X34.528Y54.444
G1 X34.691Y54.497
G1 X34.869Y54.515
G1 X35.084Y54.492
G1 X35.268Y54.424
G1 X35.413Y54.317
G1 X35.51Y54.174
G1 X35.565Y53.979
G1 X35.583Y53.712
G1 Y52.403
G1 X35.233
G1 Y53.712
G1 X35.205Y53.938
G1 X35.119Y54.094
G1 X34.982Y54.183
G1 X34.797Y54.213
G1 X34.647Y54.193
G1 X34.505Y54.133
G1 X34.387Y54.038
G1 X34.309Y53.914
G1 X34.266Y53.75
G1 X34.251Y53.533
G1 Y52.403
G1 X33.901
G1 Y55.254
G1 X34.251
G1 Y54.231
M3
G1 F100 S1000
G4 P0.2
G1 S0
G0
M3
G0 X36.133Y54.468
M3
G1 F100 S1000
G4 P0.25
G1 S0
G0
M3
G1 X36.483S1000F2000
G1 Y52.403
G1 X36.133
G1 Y54.468
M3
G1 F100 S1000
G4 P0.2
G1 S0
G0
M3
G0 X36.133Y54.851
M3
G1 F100 S1000
G4 P0.25
G1 S0
G0
M3
G1 Y55.254S1000F2000
G1 X36.483
G1 Y54.851
G1 X36.133
M3
G1 F100 S1000
G4 P0.2
G1 S0
G0
M3
G0 X37.059Y54.847
M3
G1 F100 S1000
G4 P0.25
G1 S0
G0
M3
G1 Y55.254S1000F2000
G1 X37.409
G1 Y54.847
G1 X37.059
M3
G1 F100 S1000
G4 P0.2
G1 S0
G0
M3
G0 X37.059Y54.468
M3
G1 F100 S1000
G4 P0.25
G1 S0
G0
M3
G1 X37.409S1000F2000
G1 Y52.29
G1 Y52.114
G1 X37.384Y51.967
G1 X37.353Y51.849
G1 X37.31Y51.759
G1 X37.236Y51.674
G1 X37.141Y51.613
G1 X37.026Y51.577
G1 X36.89Y51.565
G1 X36.75
G1 X36.615Y51.602
G1 X36.682Y51.899
G1 X36.775Y51.879
G1 X36.847
G1 X36.94Y51.89
G1 X37.006Y51.943
G1 X37.029Y51.992
G1 X37.046Y52.067
G1 Y52.169
G1 X37.059Y52.298
G1 Y54.468
M3
G1 F100 S1000
G4 P0.2
G1 S0
G0
M3
G0 X37.885Y55.254
M3
G1 F100 S1000
G4 P0.25
G1 S0
G0
M3
G1 X38.236S1000F2000
G1 Y53.628
G1 X39.064Y54.468
G1 X39.517
G1 X38.728Y53.702
G1 X39.597Y52.403
G1 X39.165
G1 X38.482Y53.459
G1 X38.236Y53.222
G1 Y52.403
G1 X37.885
G1 Y55.254
M3
G1 F100 S1000
G4 P0.2
G1 S0
G0
M3
G0 X39.867Y55.254
M3
G1 F100 S1000
G4 P0.25
G1 S0
G0
M3
G1 X40.217S1000F2000
G1 Y52.403
G1 X39.867
G1 Y55.254
M3
G1 F100 S1000
G4 P0.2
G1 S0
G0
M3
G0 X40.751Y54.468
M3
G1 F100 S1000
G4 P0.25
G1 S0
G0
M3
G1 X41.064S1000F2000
G1 Y54.178
G1 X41.177Y54.315
G1 X41.323Y54.422
G1 X41.495Y54.492
G1 X41.69Y54.515
G1 X41.899Y54.491
G1 X42.067Y54.419
G1 X42.192Y54.305
G1 X42.274Y54.153
G1 X42.405Y54.311
G1 X42.556Y54.424
G1 X42.724Y54.492
G1 X42.911Y54.515
G1 X43.056Y54.504
G1 X43.183Y54.472
G1 X43.292Y54.419
G1 X43.384Y54.345
G1 X43.456Y54.248
G1 X43.508Y54.128
G1 X43.539Y53.986
G1 X43.549Y53.82
G1 Y52.403
G1 X43.201
G1 Y53.704
G1 Y53.884
G1 X43.167Y54.006
G1 X43.119Y54.09
G1 X43.044Y54.155
G1 X42.946Y54.197
G1 X42.834Y54.211
G1 X42.729
G1 X42.634Y54.175
G1 X42.549Y54.13
G1 X42.472Y54.066
G1 X42.409Y53.983
G1 X42.364Y53.878
G1 X42.337Y53.751
G1 Y53.603
G1 Y52.403
G1 X41.978
G1 Y53.745
G1 X41.957Y53.949
G1 X41.892Y54.095
G1 X41.78Y54.182
G1 X41.612Y54.211
G1 X41.47Y54.192
G1 X41.339Y54.134
G1 X41.231Y54.038
G1 X41.157Y53.906
G1 X41.115Y53.723
G1 X41.101Y53.474
G1 Y52.403
G1 X40.751
G1 Y54.468
M3
G1 F100 S1000
G4 P0.2
G1 S0
G0
M3
G0 X44.096Y54.468
M3
G1 F100 S1000
G4 P0.25
G1 S0
G0
M3
G1 X44.411S1000F2000
G1 Y54.174
G1 X44.538Y54.323
G1 X44.689Y54.43
G1 X44.866Y54.493
G1 X45.069Y54.515
G1 X45.248Y54.498
G1 X45.412Y54.448
G1 X45.549Y54.37
G1 X45.646Y54.272
G1 X45.712Y54.153
G1 X45.755Y54.013
G1 X45.77Y53.879
G1 Y53.673
G1 Y52.403
G1 X45.424
G1 Y53.659
G1 Y53.846
G1 X45.384Y53.979
G1 X45.327Y54.074
G1 X45.239Y54.148
G1 X45.126Y54.196
G1 X44.995Y54.211
G1 X44.887
G1 X44.786Y54.176
G1 X44.694Y54.132
G1 X44.609Y54.069
G1 X44.538Y53.982
G1 X44.487Y53.864
G1 X44.456Y53.713
G1 Y53.531
G1 Y52.403
G1 X44.096
G1 Y54.468
M3
G1 F100 S1000
G4 P0.2
G1 S0
G0
M3
G0 X46.653Y53.918
M3
G1 F100 S1000
G4 P0.25
G1 S0
G0
M3
G1 X46.599Y53.782S1000F2000
G1 X46.567Y53.621
G1 X46.556Y53.435
G1 X46.567Y53.25
G1 X46.599Y53.089
G1 X46.653Y52.953
G1 X46.729Y52.841
G1 X46.821Y52.755
G1 X46.925Y52.693
G1 X47.039Y52.656
G1 X47.165Y52.644
G1 X47.289Y52.656
G1 X47.403Y52.694
G1 X47.506Y52.756
G1 X47.598Y52.842
G1 X47.674Y52.955
G1 X47.728Y53.093
G1 X47.761Y53.257
G1 X47.771Y53.447
G1 X47.761Y53.627
G1 X47.728Y53.784
G1 X47.673Y53.917
G1 X47.597Y54.028
G1 X47.505Y54.114
G1 X47.402Y54.176
G1 X47.289Y54.213
G1 X47.165Y54.225
G1 X47.039Y54.213
G1 X46.925Y54.176
G1 X46.821Y54.114
G1 X46.729Y54.029
G1 X46.653Y53.918
M3
G1 F100 S1000
G4 P0.2
G1 S0
G0
M3
G0 X46.276Y53.935
M3
G1 F100 S1000
G4 P0.25
G1 S0
G0
M3
G1 X46.376Y54.129S1000F2000
G1 X46.515Y54.285
G1 X46.656Y54.386
G1 X46.811Y54.457
G1 X46.98Y54.5
G1 X47.165Y54.515
G1 X47.368Y54.497
G1 X47.552Y54.445
G1 X47.716Y54.358
G1 X47.861Y54.236
G1 X47.979Y54.083
G1 X48.064Y53.903
G1 X48.114Y53.697
G1 X48.131Y53.465
G1 Y53.276
G1 X48.101Y53.109
G1 X48.064Y52.962
G1 X48.012Y52.837
G1 X47.865Y52.635
G1 X47.663Y52.483
G1 X47.425Y52.388
G1 X47.165Y52.356
G1 X46.958Y52.374
G1 X46.773Y52.426
G1 X46.608Y52.513
G1 X46.464Y52.634
G1 X46.347Y52.789
G1 X46.263Y52.974
G1 X46.213Y53.189
G1 X46.196Y53.435
G1 X46.216Y53.704
G1 X46.276Y53.935
M3
G1 F100 S1000
G4 P0.2
G1 S0
G0
M3
G0 X48.917Y53.775
M3
G1 F100 S1000
G4 P0.25
G1 S0
G0
M3
G1 X48.884Y53.611S1000F2000
G1 X48.874Y53.424
G1 Y53.237
G1 X48.914Y53.077
G1 X48.965Y52.943
G1 X49.035Y52.835
G1 X49.12Y52.751
G1 X49.214Y52.692
G1 X49.316Y52.656
G1 X49.426Y52.644
G1 X49.538Y52.656
G1 X49.643Y52.693
G1 X49.738Y52.755
G1 X49.826Y52.841
G1 X49.898Y52.954
G1 X49.95Y53.093
G1 X49.981Y53.259
G1 X49.992Y53.453
G1 X49.982Y53.638
G1 X49.951Y53.798
G1 X49.901Y53.934
G1 X49.83Y54.044
G1 X49.744Y54.13
G1 X49.651Y54.191
G1 X49.55Y54.228
G1 X49.442Y54.241
G1 X49.333Y54.227
G1 X49.231Y54.188
G1 X49.135Y54.123
G1 X49.046Y54.031
G1 X48.971Y53.915
G1 X48.917Y53.775
M3
G1 F100 S1000
G4 P0.2
G1 S0
G0
M3
G0 X48.876Y54.2
M3
G1 F100 S1000
G4 P0.25
G1 S0
G0
M3
G1 X48.996Y54.338S1000F2000
G1 X49.13Y54.436
G1 X49.287Y54.495
G1 X49.475Y54.515
G1 X49.724Y54.481
G1 X49.941Y54.379
G1 X50.119Y54.215
G1 X50.247Y53.995
G1 X50.324Y53.735
G1 X50.35Y53.451
G1 X50.321Y53.15
G1 X50.236Y52.88
G1 X50.173Y52.761
G1 X50.096Y52.656
G1 X50.007Y52.566
G1 X49.905Y52.491
G1 X49.683Y52.39
G1 X49.449Y52.356
G1 X49.283Y52.375
G1 X49.135Y52.43
G1 X49.009Y52.514
G1 X48.907Y52.617
G1 Y51.611
G1 X48.557
G1 Y54.468
G1 X48.876
G1 Y54.2
M3
G1 F100 S1000
G4 P0.2
G1 S0
G0
M3
G0 X51.064Y53.797
M3
G1 F100 S1000
G4 P0.25
G1 S0
G0
M3
G1 X51.034Y53.633S1000F2000
G1 Y53.441
G1 Y53.254
G1 X51.066Y53.092
G1 X51.118Y52.955
G1 X51.191Y52.843
G1 X51.279Y52.756
G1 X51.375Y52.694
G1 X51.48Y52.656
G1 X51.592Y52.644
G1 X51.7Y52.656
G1 X51.8Y52.691
G1 X51.892Y52.751
G1 X51.977Y52.834
G1 X52.048Y52.941
G1 X52.098Y53.073
G1 X52.128Y53.229
G1 X52.138Y53.41
G1 X52.128Y53.604
G1 X52.096Y53.771
G1 X52.043Y53.914
G1 X51.968Y54.031
G1 X51.88Y54.122
G1 X51.783Y54.187
G1 X51.68Y54.226
G1 X51.569Y54.239
G1 X51.459Y54.226
G1 X51.358Y54.19
G1 X51.266Y54.13
G1 X51.183Y54.045
G1 X51.113Y53.935
G1 X51.064Y53.797
M3
G1 F100 S1000
G4 P0.2
G1 S0
G0
M3
G0 X50.691Y53.75
M3
G1 F100 S1000
G4 P0.25
G1 S0
G0
M3
G1 X50.772Y54.013S1000F2000
G1 X50.832Y54.129
G1 X50.905Y54.23
G1 X50.989Y54.316
G1 X51.085Y54.387
G1 X51.301Y54.483
G1 X51.536Y54.515
G1 X51.717Y54.495
G1 X51.878Y54.434
G1 X52.018Y54.333
G1 X52.138Y54.192
G1 Y54.468
G1 X52.454
G1 Y51.611
G1 X52.103
G1 Y52.623
G1 X52.006Y52.518
G1 X51.875Y52.432
G1 X51.724Y52.375
G1 X51.563Y52.356
G1 X51.386Y52.375
G1 X51.221Y52.43
G1 X51.069Y52.521
G1 X50.93Y52.65
G1 X50.814Y52.81
G1 X50.731Y52.998
G1 X50.681Y53.213
G1 X50.664Y53.455
G1 X50.691Y53.75
M3
G1 F100 S1000
G4 P0.2
G1 S0
G0
M3
G0 X52.974Y54.468
M3
G1 F100 S1000
G4 P0.25
G1 S0
G0
M3
G1 X53.289S1000F2000
G1 Y54.155
G1 X53.404Y54.337
G1 X53.511Y54.445
G1 X53.618Y54.497
G1 X53.736Y54.515
G1 X53.914Y54.487
G1 X54.096Y54.402
G1 X53.975Y54.077
G1 X53.847Y54.134
G1 X53.718Y54.153
G1 X53.609Y54.136
G1 X53.512Y54.084
G1 X53.434Y54.002
G1 X53.382Y53.892
G1 X53.338Y53.697
G1 X53.324Y53.484
G1 Y52.403
G1 X52.974
G1 Y54.468
M3
G1 F100 S1000
G4 P0.2
G1 S0
G0
M3
G0 X54.273Y54.175
M3
G1 F100 S1000
G4 P0.25
G1 S0
G0
M3
G1 X54.348Y54.283S1000F2000
G1 X54.445Y54.371
G1 X54.542Y54.426
G1 X54.668Y54.473
G1 X54.814Y54.504
G1 X54.97Y54.515
G1 X55.199Y54.497
G1 X55.397Y54.445
G1 X55.557Y54.362
G1 X55.668Y54.255
G1 X55.742Y54.115
G1 X55.789Y53.935
G1 X55.447Y53.889
G1 X55.401Y54.031
G1 X55.312Y54.137
G1 X55.177Y54.205
G1 X54.996Y54.227
G1 X54.789Y54.207
G1 X54.651Y54.147
G1 X54.574Y54.061
G1 X54.548Y53.961
G1 X54.559Y53.896
G1 X54.591Y53.838
G1 X54.646Y53.786
G1 X54.725Y53.745
G1 X54.829Y53.713
G1 X55.206Y53.608
G1 X55.35Y53.565
G1 X55.465Y53.527
G1 X55.553Y53.493
G1 X55.684Y53.415
G1 X55.783Y53.309
G1 X55.846Y53.174
G1 X55.867Y53.01
G1 X55.841Y52.84
G1 X55.765Y52.68
G1 X55.64Y52.543
G1 X55.47Y52.441
G1 X55.265Y52.377
G1 X55.034Y52.356
G1 X54.845Y52.367
G1 X54.68Y52.398
G1 X54.538Y52.45
G1 X54.421Y52.523
G1 X54.325Y52.617
G1 X54.248Y52.731
G1 X54.19Y52.865
G1 X54.152Y53.019
G1 X54.498Y53.074
G1 X54.553Y52.89
G1 X54.66Y52.755
G1 X54.82Y52.672
G1 X55.033Y52.644
G1 X55.243Y52.669
G1 X55.39Y52.742
G1 X55.478Y52.849
G1 X55.507Y52.973
G1 X55.481Y53.079
G1 X55.404Y53.159
G1 X55.355Y53.184
G1 X55.279Y53.212
G1 X55.176Y53.244
G1 X54.868Y53.325
G1 X54.72Y53.369
G1 X54.601Y53.409
G1 X54.512Y53.446
G1 X54.382Y53.531
G1 X54.287Y53.643
G1 X54.229Y53.775
G1 X54.21Y53.92
G1 X54.226Y54.053
G1 X54.273Y54.175
M3
G1 F100 S1000
G4 P0.2
G1 S0
G0
M3
G0 X56.09Y54.196
M3
G1 F100 S1000
G4 P0.25
G1 S0
G0
M3
G1 Y54.468S1000F2000
G1 X56.347
G1 Y54.979
G1 X56.695Y55.189
G1 Y54.468
G1 X57.047
G1 Y54.196
G1 X56.695
G1 Y52.988
G1 Y52.865
G1 X56.714Y52.796
G1 X56.738Y52.757
G1 X56.774Y52.728
G1 X56.825Y52.709
G1 X56.894
G1 X56.961
G1 X57.047
G1 X57.098Y52.407
G1 X56.958Y52.383
G1 X56.833
G1 X56.664
G1 X56.538Y52.436
G1 X56.448Y52.506
G1 X56.39Y52.594
G1 X56.371Y52.657
G1 X56.358Y52.747
G1 Y52.864
G1 X56.347Y53.008
G1 Y54.196
G1 X56.09
M3
G1 F100 S1000
G4 P0.2
G1 S0
G0
M3
G0 X57.39Y54.468
M3
G1 F100 S1000
G4 P0.25
G1 S0
G0
M3
G1 X57.74S1000F2000
G1 Y53.323
G1 Y53.093
G1 X57.762Y52.953
G1 X57.813Y52.83
G1 X57.902Y52.736
G1 X58.021Y52.677
G1 X58.166Y52.658
G1 X58.319Y52.678
G1 X58.462Y52.738
G1 X58.58Y52.834
G1 X58.657Y52.958
G1 X58.7Y53.128
G1 X58.715Y53.362
G1 Y54.468
G1 X59.065
G1 Y52.403
G1 X58.751
G1 Y52.706
G1 X58.62Y52.553
G1 X58.467Y52.444
G1 X58.292Y52.378
G1 X58.096Y52.356
G1 X57.919Y52.374
G1 X57.755Y52.426
G1 X57.617Y52.505
G1 X57.52Y52.602
G1 X57.454Y52.72
G1 X57.412Y52.862
G1 X57.396Y52.995
G1 Y53.188
G1 Y54.468
M3
G1 F100 S1000
G4 P0.2
G1 S0
G0
M3
G0 X59.416Y54.468
M3
G1 F100 S1000
G4 P0.25
G1 S0
G0
M3
G1 X59.786S1000F2000
G1 X60.229Y53.231
G1 X60.298Y53.027
G1 X60.361Y52.815
G1 X60.417Y52.995
G1 X60.492Y53.208
G1 X60.951Y54.468
G1 X61.31
G1 X60.529Y52.403
G1 X60.202
G1 X59.416Y54.468
M3
G1 F100 S1000
G4 P0.2
G1 S0
G0
M3
G0 X61.329Y54.468
M3
G1 F100 S1000
G4 P0.25
G1 S0
G0
M3
G1 X61.691S1000F2000
G1 X62.142Y52.833
G1 X62.249Y53.259
G1 X62.577Y54.468
G1 X62.937
G1 X63.349Y52.875
G1 X63.822Y54.468
G1 X64.162
G1 X63.517Y52.403
G1 X63.153
G1 X62.824Y53.64
G1 X62.744Y53.992
G1 X62.326Y52.403
G1 X61.961
G1 X61.329Y54.468
M3
G1 F100 S1000
G4 P0.2
G1 S0
G0
M3
G0 X64.23Y54.468
M3
G1 F100 S1000
G4 P0.25
G1 S0
G0
M3
G1 X64.668S1000F2000
G1 X64.985Y53.984
G1 X65.066Y53.857
G1 X65.129Y53.752
G1 X65.211Y53.873
G1 X65.634Y54.468
G1 X66.052
G1 X65.339Y53.496
G1 X66.107Y52.403
G1 X65.677
G1 X65.253Y53.045
G1 X65.14Y53.218
G1 X64.598Y52.403
G1 X64.174
G1 X64.928Y53.476
G1 X64.23Y54.468
M3
G1 F100 S1000
G4 P0.2
G1 S0
G0
M3
G0 X66.16Y54.468
M3
G1 F100 S1000
G4 P0.25
G1 S0
G0
M3
G1 X66.538S1000F2000
G1 X66.967Y53.272
G1 X67.047Y53.039
G1 X67.117Y52.794
G1 X67.183Y53.032
G1 X67.261Y53.264
G1 X67.702Y54.468
G1 X68.052
G1 X67.207Y52.211
G1 X67.155Y52.081
G1 X67.109Y51.977
G1 X67.07Y51.899
G1 X66.97Y51.749
G1 X66.857Y51.645
G1 X66.724Y51.585
G1 X66.569Y51.565
G1 X66.462Y51.575
G1 X66.343Y51.608
G1 X66.304Y51.936
G1 X66.412Y51.913
G1 X66.505
G1 X66.61
G1 X66.691Y51.944
G1 X66.755Y51.991
G1 X66.806Y52.053
G1 X66.849Y52.144
G1 X66.944Y52.399
G1 X66.16Y54.468
M3
G1 F100 S1000
G4 P0.2
G1 S0
G0
M3
G0 X68.203Y54.468
M3
G1 F100 S1000
G4 P0.25
G1 S0
G0
M3
G1 X69.891S1000F2000
G1 Y54.237
G1 X68.773Y52.926
G1 X68.557Y52.687
G1 X68.785Y52.7
G1 X68.999
G1 X69.953
G1 Y52.403
G1 X68.125
G1 Y52.687
G1 X69.44Y54.196
G1 X69.229
G1 X69.045Y54.184
G1 X68.203
G1 Y54.468
M3
G1 F100 S1000
G4 P0.2
G1 S0
G0
M3
G0 X70.433Y54.55
M3
G1 F100 S1000
G4 P0.25
G1 S0
G0
M3
G1 X70.708Y54.702S1000F2000
G1 X70.946Y54.884
G1 X71.134Y55.078
G1 X71.257Y55.265
G1 X71.483
G1 Y52.403
G1 X71.133
G1 Y54.633
G1 X70.987Y54.513
G1 X70.801Y54.392
G1 X70.607Y54.287
G1 X70.433Y54.211
G1 Y54.55
M3
G1 F100 S1000
G4 P0.2
G1 S0
G0
M3
G0 X72.416Y54.441
M3
G1 F100 S1000
G4 P0.25
G1 S0
G0
M3
G1 X72.447Y54.63S1000F2000
G1 X72.504Y54.795
G1 X72.586Y54.937
G1 X72.694Y55.054
G1 X72.825Y55.147
G1 X72.977Y55.213
G1 X73.149Y55.252
G1 X73.342Y55.265
G1 X73.536Y55.251
G1 X73.709Y55.208
G1 X73.861Y55.137
G1 X73.991Y55.038
G1 X74.096Y54.917
G1 X74.171Y54.783
G1 X74.215Y54.635
G1 X74.23Y54.474
G1 X74.213Y54.304
G1 X74.16Y54.137
G1 X74.067Y53.968
G1 X73.928Y53.789
G1 X73.833Y53.689
G1 X73.712Y53.573
G1 X73.564Y53.439
G1 X73.245Y53.166
G1 X73.13Y53.066
G1 X73.043Y52.987
G1 X72.984Y52.929
G1 X72.902Y52.834
G1 X72.836Y52.739
G1 X74.234
G1 Y52.403
G1 X72.35
G1 Y52.527
G1 X72.391Y52.646
G1 X72.484Y52.837
G1 X72.621Y53.025
G1 X72.815Y53.226
G1 X73.079Y53.457
G1 X73.293Y53.638
G1 X73.469Y53.798
G1 X73.607Y53.939
G1 X73.707Y54.061
G1 X73.83Y54.277
G1 X73.871Y54.482
G1 Y54.582
G1 X73.833Y54.673
G1 X73.787Y54.757
G1 X73.722Y54.833
G1 X73.642Y54.895
G1 X73.55Y54.94
G1 X73.448Y54.967
G1 X73.334
G1 X73.214
G1 X73.106Y54.938
G1 X73.012Y54.89
G1 X72.929Y54.824
G1 X72.863Y54.741
G1 X72.815Y54.643
G1 X72.786Y54.531
G1 X72.776Y54.404
G1 X72.416Y54.441
M3
G1 F100 S1000
G4 P0.2
G1 S0
G0
M3
G0 X72.093Y51.189
M3
G1 F100 S1000
G4 P0.25
G1 S0
G0
M3
G1 X72.292Y51.175S1000F2000
G1 X72.469Y51.133
G1 X72.625Y51.062
G1 X72.76Y50.962
G1 X72.869Y50.842
G1 X72.947Y50.711
G1 X72.994Y50.567
G1 X73.009Y50.412
G1 X72.987Y50.232
G1 X72.922Y50.067
G1 X72.793Y49.893
G1 X72.58Y49.684
G1 X72.438Y49.553
G1 X72.356Y49.461
G1 X72.31Y49.383
G1 X72.278Y49.295
G1 X72.258Y49.173
G1 Y48.992
G1 X71.913
G1 Y49.097
G1 X71.925Y49.289
G1 X71.969Y49.453
G1 X72.025Y49.566
G1 X72.107Y49.68
G1 X72.205Y49.783
G1 X72.359Y49.925
G1 X72.509Y50.069
G1 X72.595Y50.18
G1 X72.636Y50.28
G1 X72.65Y50.388
G1 X72.64Y50.487
G1 X72.61Y50.58
G1 X72.56Y50.667
G1 X72.49Y50.747
G1 X72.406Y50.815
G1 X72.313Y50.863
G1 X72.21Y50.892
G1 X72.099
G1 X71.992
G1 X71.894Y50.867
G1 X71.805Y50.823
G1 X71.726Y50.762
G1 X71.657Y50.682
G1 X71.602Y50.582
G1 X71.559Y50.463
G1 X71.53Y50.324
G1 X71.17Y50.367
G1 X71.206Y50.555
G1 X71.266Y50.719
G1 X71.35Y50.86
G1 X71.459Y50.978
G1 X71.588Y51.07
G1 X71.737Y51.137
G1 X71.906Y51.176
G1 X72.093Y51.189
M3
G1 F100 S1000
G4 P0.2
G1 S0
G0
M3
G0 X73.443Y50.661
M3
G1 F100 S1000
G4 P0.25
G1 S0
G0
M3
G1 X75.331Y49.863S1000F2000
G1 Y49.537
G1 X73.443Y48.73
G1 Y49.078
G1 X74.938Y49.698
G1 X73.443Y50.312
G1 Y50.661
M3
G1 F100 S1000
G4 P0.2
G1 S0
G0
M3
G0 X70.638Y50.355
M3
G1 F100 S1000
G4 P0.25
G1 S0
G0
M3
G1 Y49.957S1000F2000
G1 X70.239
G1 Y50.355
G1 X70.638
M3
G1 F100 S1000
G4 P0.2
G1 S0
G0
M3
G0 X70.638Y48.689
M3
G1 F100 S1000
G4 P0.25
G1 S0
G0
M3
G1 Y48.29S1000F2000
G1 X70.239
G1 Y48.689
G1 X70.638
M3
G1 F100 S1000
G4 P0.2
G1 S0
G0
M3
G0 X71.891Y48.689
M3
G1 F100 S1000
G4 P0.25
G1 S0
G0
M3
G1 X72.29S1000F2000
G1 Y48.29
G1 X71.891
G1 Y48.689
M3
G1 F100 S1000
G4 P0.2
G1 S0
G0
M3
G0 X68.19Y49.156
M3
G1 F100 S1000
G4 P0.25
G1 S0
G0
M3
G1 X68.242Y49.354S1000F2000
G1 X68.26Y49.552
G1 Y49.677
G1 X68.227Y49.787
G1 X68.186Y49.882
G1 X68.129Y49.962
G1 X68.059Y50.026
G1 X67.983Y50.072
G1 X67.899Y50.099
G1 X67.809
G1 X67.688
G1 X67.574Y50.045
G1 X67.466Y49.963
G1 X67.361Y49.842
G1 X67.269Y49.687
G1 X67.196Y49.502
G1 X67.149Y49.31
G1 X67.134Y49.134
G1 Y49.008
G1 X67.166Y48.897
G1 X67.205Y48.801
G1 X67.26Y48.72
G1 X67.396Y48.609
G1 X67.55Y48.572
G1 X67.662Y48.588
G1 X67.78Y48.637
G1 X67.897Y48.718
G1 X68.01Y48.831
G1 X68.11Y48.976
G1 X68.19Y49.156
M3
G1 F100 S1000
G4 P0.2
G1 S0
G0
M3
G0 X68.479Y48.916
M3
G1 F100 S1000
G4 P0.25
G1 S0
G0
M3
G1 X68.45Y48.765S1000F2000
G1 Y48.735
G1 Y48.687
G1 X68.486Y48.645
G1 X68.53Y48.617
G1 X68.583
G1 X68.702Y48.637
G1 X68.853Y48.726
G1 X69.052Y48.908
G1 X69.204Y49.143
G1 X69.301Y49.408
G1 X69.333Y49.682
G1 X69.323Y49.842
G1 X69.292Y49.996
G1 X69.24Y50.145
G1 X69.167Y50.289
G1 X69.074Y50.423
G1 X68.96Y50.543
G1 X68.826Y50.649
G1 X68.671Y50.74
G1 X68.502Y50.814
G1 X68.324Y50.867
G1 X68.138Y50.899
G1 X67.943Y50.909
G1 X67.72Y50.896
G1 X67.508Y50.856
G1 X67.305Y50.79
G1 X67.112Y50.697
G1 X66.934Y50.579
G1 X66.778Y50.437
G1 X66.642Y50.273
G1 X66.528Y50.086
G1 X66.438Y49.884
G1 X66.373Y49.674
G1 X66.334Y49.457
G1 X66.321Y49.233
G1 X66.334Y49.003
G1 X66.373Y48.79
G1 X66.438Y48.593
G1 X66.528Y48.413
G1 X66.643Y48.252
G1 X66.781Y48.113
G1 X66.943Y47.997
G1 X67.127Y47.904
G1 X67.328Y47.832
G1 X67.54Y47.781
G1 X67.762Y47.75
G1 X67.995Y47.74
G1 X68.24Y47.75
G1 X68.464Y47.783
G1 X68.667Y47.836
G1 X68.849Y47.911
G1 X69.01Y48.001
G1 X69.15Y48.101
G1 X69.268Y48.209
G1 X69.364Y48.327
G1 X69.716
G1 X69.582Y48.121
G1 X69.376Y47.911
G1 X69.112Y47.721
G1 X68.802Y47.575
G1 X68.436Y47.483
G1 X68.001Y47.452
G1 X67.586Y47.48
G1 X67.205Y47.563
G1 X66.867Y47.702
G1 X66.584Y47.896
G1 X66.359Y48.136
G1 X66.197Y48.409
G1 X66.125Y48.596
G1 X66.074Y48.791
G1 X66.044Y48.993
G1 X66.033Y49.202
G1 X66.045Y49.437
G1 X66.082Y49.665
G1 X66.143Y49.889
G1 X66.228Y50.106
G1 X66.359Y50.354
G1 X66.515Y50.572
G1 X66.696Y50.758
G1 X66.902Y50.913
G1 X67.131Y51.036
G1 X67.385Y51.123
G1 X67.661Y51.176
G1 X67.96Y51.193
G1 X68.195Y51.181
G1 X68.418Y51.144
G1 X68.629Y51.082
G1 X68.827Y50.996
G1 X69.009Y50.885
G1 X69.17Y50.75
G1 X69.311Y50.591
G1 X69.432Y50.408
G1 X69.515Y50.236
G1 X69.574Y50.057
G1 X69.609Y49.87
G1 X69.621Y49.677
G1 X69.596Y49.403
G1 X69.522Y49.144
G1 X69.398Y48.902
G1 X69.224Y48.675
G1 X69.043Y48.503
G1 X68.854Y48.381
G1 X68.656Y48.307
G1 X68.45Y48.282
G1 X68.329Y48.293
G1 X68.234Y48.323
G1 X68.162Y48.373
G1 X68.112Y48.44
G1 X68.09Y48.506
G1 X68.075Y48.607
G1 X67.941Y48.476
G1 X67.792Y48.373
G1 X67.635Y48.306
G1 X67.478Y48.284
G1 X67.307Y48.31
G1 X67.142Y48.385
G1 X66.994Y48.514
G1 X66.876Y48.697
G1 X66.8Y48.917
G1 X66.774Y49.157
G1 X66.784Y49.312
G1 X66.814Y49.467
G1 X66.863Y49.622
G1 X66.933Y49.777
G1 X67.017Y49.922
G1 X67.11Y50.048
G1 X67.214Y50.155
G1 X67.326Y50.242
G1 X67.558Y50.359
G1 X67.783Y50.398
G1 X67.949Y50.376
G1 X68.106Y50.31
G1 X68.249Y50.198
G1 X68.371Y50.04
G1 X68.437Y50.342
G1 X68.785
G1 X68.479Y48.916
M3
G1 F100 S1000
G4 P0.2
G1 S0
G0
M3
G0 X65.666Y49.599
M3
G1 F100 S1000
G4 P0.25
G1 S0
G0
M3
G1 X65.541Y49.498S1000F2000
G1 X65.414Y49.43
G1 X65.279Y49.39
G1 X65.127Y49.377
G1 X65.013
G1 X64.905Y49.404
G1 X64.768Y49.451
G1 X64.568Y49.535
G1 X64.357Y49.612
G1 X64.184Y49.638
G1 X64.063Y49.624
G1 X63.95Y49.584
G1 X63.827Y49.505
G1 X63.677Y49.373
G1 Y49.772
G1 X63.788Y49.874
G1 X63.915Y49.947
G1 X64.058Y49.991
G1 X64.217Y50.005
G1 X64.337
G1 X64.462Y49.971
G1 X64.618Y49.92
G1 X64.945Y49.789
G1 X65.029Y49.762
G1 X65.097Y49.749
G1 X65.164
G1 X65.293Y49.764
G1 X65.426Y49.82
G1 X65.554Y49.906
G1 X65.666Y50.011
G1 Y49.599
M3
G1 F100 S1000
G4 P0.2
G1 S0
G0
M3
G0 X63.014Y49.842
M3
G1 F100 S1000
G4 P0.25
G1 S0
G0
M3
G1 X62.967Y49.658S1000F2000
G1 X62.894Y49.521
G1 X62.786Y49.415
G1 X62.629Y49.321
G1 X62.813Y49.208
G1 X62.939Y49.048
G1 X62.981Y48.941
G1 X63.011Y48.805
G1 X63.029Y48.64
G1 Y48.446
G1 Y48.275
G1 X63.04Y48.05
G1 Y47.995
G1 X63.071Y47.882
G1 X63.122Y47.81
G1 X63.215Y47.77
G1 X63.37Y47.757
G1 X63.43
G1 Y47.452
G1 X63.321
G1 X63.157
G1 X63.045Y47.483
G1 X62.931Y47.542
G1 X62.839Y47.628
G1 X62.772Y47.741
G1 X62.733Y47.882
G1 X62.714Y48.084
G1 X62.704Y48.547
G1 Y48.681
G1 X62.687Y48.789
G1 X62.674Y48.87
G1 X62.627Y48.99
G1 X62.548Y49.082
G1 X62.44Y49.141
G1 X62.304Y49.163
G1 Y49.48
G1 X62.44Y49.502
G1 X62.548Y49.561
G1 X62.627Y49.652
G1 X62.674Y49.772
G1 X62.697Y49.954
G1 Y50.231
G1 X62.708Y50.379
G1 Y50.593
G1 X62.718Y50.659
G1 X62.743Y50.806
G1 X62.784Y50.921
G1 X62.837Y51.01
G1 X62.901Y51.08
G1 X62.981Y51.132
G1 X63.08Y51.17
G1 X63.177Y51.185
G1 X63.321
G1 X63.43
G1 Y50.884
G1 X63.37
G1 X63.202Y50.866
G1 X63.101Y50.811
G1 X63.052Y50.693
G1 X63.035Y50.486
G1 Y50.254
G1 Y50.07
G1 X63.023Y49.932
G1 Y49.842
M3
G1 F100 S1000
G4 P0.2
G1 S0
G0
M3
G0 X62.096Y49.48
M3
G1 F100 S1000
G4 P0.25
G1 S0
G0
M3
G1 Y49.163S1000F2000
G1 X61.961Y49.141
G1 X61.852Y49.082
G1 X61.774Y48.99
G1 X61.727Y48.871
G1 X61.703Y48.689
G1 Y48.413
G1 X61.692Y48.264
G1 Y48.05
G1 Y47.985
G1 X61.657Y47.836
G1 X61.617Y47.721
G1 X61.564Y47.633
G1 X61.499Y47.564
G1 X61.42Y47.512
G1 X61.321Y47.473
G1 X61.223Y47.457
G1 X61.079
G1 X60.97
G1 Y47.757
G1 X61.031
G1 X61.199Y47.776
G1 X61.299Y47.83
G1 X61.349Y47.949
G1 X61.365Y48.158
G1 Y48.379
G1 Y48.555
G1 X61.375Y48.687
G1 Y48.774
G1 X61.429Y48.969
G1 X61.507Y49.119
G1 X61.62Y49.234
G1 X61.772Y49.321
G1 X61.581Y49.445
G1 X61.457Y49.604
G1 X61.417Y49.707
G1 X61.388Y49.84
G1 X61.371Y50.004
G1 Y50.198
G1 Y50.501
G1 X61.36Y50.595
G1 Y50.651
G1 X61.33Y50.761
G1 X61.279Y50.833
G1 X61.185Y50.871
G1 X61.031Y50.884
G1 X60.97
G1 Y51.189
G1 X61.079
G1 X61.244
G1 X61.356Y51.158
G1 X61.469Y51.101
G1 X61.562Y51.014
G1 X61.629Y50.9
G1 X61.668Y50.76
G1 X61.686Y50.557
G1 X61.697Y50.095
G1 Y49.96
G1 X61.713Y49.853
G1 X61.727Y49.773
G1 X61.774Y49.654
G1 X61.852Y49.562
G1 X61.961Y49.503
G1 X62.096Y49.48
M3
G1 F100 S1000
G4 P0.2
G1 S0
G0
M3
G0 X60.673Y49.533
M3
G1 F100 S1000
G4 P0.25
G1 S0
G0
M3
G1 X59.897S1000F2000
G1 Y48.751
G1 X59.567
G1 Y49.533
G1 X58.791
G1 Y49.859
G1 X59.567
G1 Y50.635
G1 X59.897
G1 Y49.859
G1 X60.673
G1 Y49.533
M3
G1 F100 S1000
G4 P0.2
G1 S0
G0
M3
G0 X58.599Y47.751
M3
G1 F100 S1000
G4 P0.25
G1 S0
G0
M3
G1 Y47.499S1000F2000
G1 X56.279
G1 Y47.751
G1 X58.599
M3
G1 F100 S1000
G4 P0.2
G1 S0
G0
M3
G0 X56.006Y48.308
M3
G1 F100 S1000
G4 P0.25
G1 S0
G0
M3
G1 X55.783Y47.849S1000F2000
G1 X55.517Y47.452
G1 X55.266
G1 X55.52Y47.919
G1 X55.702Y48.386
G1 X55.811Y48.853
G1 X55.847Y49.321
G1 X55.826Y49.685
G1 X55.764Y50.046
G1 X55.684Y50.332
G1 X55.579Y50.606
G1 X55.531Y50.708
G1 X55.463Y50.839
G1 X55.374Y51
G1 X55.266Y51.189
G1 X55.517
G1 X55.688Y50.945
G1 X55.835Y50.7
G1 X55.958Y50.455
G1 X56.057Y50.209
G1 X56.123Y49.995
G1 X56.17Y49.776
G1 X56.198Y49.552
G1 Y49.323
G1 Y49.062
G1 X56.157Y48.806
G1 X56.094Y48.555
G1 X56.006Y48.308
M3
G1 F100 S1000
G4 P0.2
G1 S0
G0
M3
G0 X54.638Y47.919
M3
G1 F100 S1000
G4 P0.25
G1 S0
G0
M3
G1 X54.893Y47.452S1000F2000
G1 X54.642
G1 X54.375Y47.849
G1 X54.152Y48.308
G1 X54.064Y48.555
G1 X54.002Y48.806
G1 X53.964Y49.062
G1 X53.952Y49.323
G1 Y49.552
G1 X53.989Y49.776
G1 X54.036Y49.995
G1 X54.101Y50.209
G1 X54.201Y50.455
G1 X54.324Y50.7
G1 X54.471Y50.945
G1 X54.642Y51.189
G1 X54.893
G1 X54.785Y51.002
G1 X54.697Y50.843
G1 X54.63Y50.713
G1 X54.582Y50.612
G1 X54.476Y50.338
G1 X54.395Y50.052
G1 X54.332Y49.687
G1 X54.311Y49.321
G1 X54.348Y48.853
G1 X54.457Y48.386
G1 X54.638Y47.919
M3
G1 F100 S1000
G4 P0.2
G1 S0
G0
M3
G0 X53.184Y49.976
M3
G1 F100 S1000
G4 P0.25
G1 S0
G0
M3
G1 X53.061Y50.157S1000F2000
G1 X52.918Y50.394
G1 X52.783Y50.153
G1 X52.665Y49.976
G1 X52.435Y50.141
G1 X52.54Y50.269
G1 X52.629Y50.372
G1 X52.702Y50.452
G1 X52.758Y50.509
G1 X52.514Y50.56
G1 X52.282Y50.618
G1 X52.371Y50.894
G1 X52.638Y50.792
G1 X52.82Y50.705
G1 X52.792Y51.002
G1 Y51.11
G1 X52.782Y51.189
G1 X53.063
G1 X53.049Y50.973
G1 X53.019Y50.707
G1 X53.234Y50.804
G1 X53.478Y50.894
G1 X53.567Y50.618
G1 X53.323Y50.55
G1 X53.083Y50.509
G1 X53.226Y50.365
G1 X53.417Y50.141
G1 X53.184Y49.976
M3
G1 F100 S1000
G4 P0.2
G1 S0
G0
M3
G0 X51.014Y50.454
M3
G1 F100 S1000
G4 P0.25
G1 S0
G0
M3
G1 X51.031Y50.571S1000F2000
G1 X51.008Y50.704
G1 X50.939Y50.809
G1 X50.835Y50.879
G1 X50.708Y50.902
G1 X50.578Y50.879
G1 X50.472Y50.81
G1 X50.401Y50.709
G1 X50.378Y50.587
G1 Y50.519
G1 X50.412Y50.448
G1 X50.454Y50.373
G1 X50.514Y50.293
G1 X50.669Y50.112
G1 X50.857Y50.238
G1 X50.964Y50.347
G1 X51.014Y50.454
M3
G1 F100 S1000
G4 P0.2
G1 S0
G0
M3
G0 X50.52Y49.698
M3
G1 F100 S1000
G4 P0.25
G1 S0
G0
M3
G1 X50.282Y49.535S1000F2000
G1 X50.137Y49.384
G1 X50.062Y49.24
G1 X50.037Y49.097
G1 X50.072Y48.921
G1 X50.175Y48.737
G1 X50.252Y48.656
G1 X50.342Y48.597
G1 X50.447Y48.562
G1 X50.566Y48.551
G1 X50.727Y48.575
G1 X50.892Y48.649
G1 X51.043Y48.761
G1 X51.161Y48.903
G1 X50.52Y49.698
M3
G1 F100 S1000
G4 P0.2
G1 S0
G0
M3
G0 X50.339Y49.927
M3
G1 F100 S1000
G4 P0.25
G1 S0
G0
M3
G1 X50.178Y50.128S1000F2000
G1 X50.082Y50.287
G1 X50.034Y50.423
G1 X50.018Y50.554
G1 X50.031Y50.678
G1 X50.068Y50.794
G1 X50.131Y50.901
G1 X50.219Y51
G1 X50.326Y51.083
G1 X50.446Y51.142
G1 X50.58Y51.178
G1 X50.726Y51.189
G1 X50.865Y51.178
G1 X50.991Y51.145
G1 X51.104Y51.089
G1 X51.203Y51.011
G1 X51.284Y50.917
G1 X51.342Y50.814
G1 X51.377Y50.702
G1 X51.389Y50.581
G1 X51.355Y50.385
G1 X51.254Y50.204
G1 X51.086Y50.038
G1 X50.85Y49.887
G1 X51.362Y49.235
G1 X51.439Y49.42
G1 X51.498Y49.632
G1 X51.861Y49.554
G1 X51.752Y49.214
G1 X51.609Y48.94
G1 X51.818Y48.7
G1 X52.054Y48.502
G1 X51.819Y48.224
G1 X51.603Y48.393
G1 X51.381Y48.627
G1 X51.2Y48.458
G1 X51.004Y48.338
G1 X50.791Y48.266
G1 X50.562Y48.241
G1 X50.355Y48.26
G1 X50.17Y48.315
G1 X50.008Y48.408
G1 X49.868Y48.537
G1 X49.777Y48.661
G1 X49.712Y48.792
G1 X49.673Y48.93
G1 X49.66Y49.076
G1 X49.671Y49.205
G1 X49.703Y49.327
G1 X49.756Y49.443
G1 X49.83Y49.553
G1 X50.042Y49.753
G1 X50.339Y49.927
M3
G1 F100 S1000
G4 P0.2
G1 S0
G0
M3
G0 X49.54Y49.632
M3
G1 F100 S1000
G4 P0.25
G1 S0
G0
M3
G1 X49.188S1000F2000
G1 X48.708Y50.793
G1 X48.241Y49.632
G1 X47.882
G1 X48.568Y51.189
G1 X48.85
G1 X49.54Y49.632
M3
G1 F100 S1000
G4 P0.2
G1 S0
G0
M3
G0 X47.201Y49.186
M3
G1 F100 S1000
G4 P0.25
G1 S0
G0
M3
G1 X47.135Y49.339S1000F2000
G1 X47.037Y49.423
G1 X46.918Y49.451
G1 X46.797Y49.423
G1 X46.699Y49.338
G1 X46.661Y49.27
G1 X46.634Y49.178
G1 X46.618Y49.063
G1 Y48.924
G1 X46.634Y48.692
G1 X46.7Y48.539
G1 X46.797Y48.454
G1 X46.916Y48.426
G1 X47.038Y48.454
G1 X47.136Y48.539
G1 X47.174Y48.607
G1 X47.201Y48.698
G1 X47.217Y48.813
G1 Y48.951
G1 X47.201Y49.186
M3
G1 F100 S1000
G4 P0.2
G1 S0
G0
M3
G0 X47.484Y49.264
M3
G1 F100 S1000
G4 P0.25
G1 S0
G0
M3
G1 X47.517Y49.112S1000F2000
G1 X47.528Y48.938
G1 X47.517Y48.767
G1 X47.484Y48.618
G1 X47.428Y48.489
G1 X47.35Y48.381
G1 X47.256Y48.295
G1 X47.151Y48.234
G1 X47.036Y48.197
G1 X46.91Y48.185
G1 X46.786Y48.197
G1 X46.673Y48.233
G1 X46.57Y48.294
G1 X46.479Y48.379
G1 X46.404Y48.487
G1 X46.35Y48.62
G1 X46.318Y48.778
G1 X46.307Y48.959
G1 Y49.107
G1 X46.345Y49.243
G1 X46.393Y49.367
G1 X46.461Y49.479
G1 X46.546Y49.572
G1 X46.649Y49.639
G1 X46.77Y49.679
G1 X46.908Y49.692
G1 X47.036Y49.68
G1 X47.153Y49.644
G1 X47.258Y49.584
G1 X47.352Y49.501
G1 X47.429Y49.394
G1 X47.484Y49.264
M3
G1 F100 S1000
G4 P0.2
G1 S0
G0
M3
G0 X45.291Y50.036
M3
G1 F100 S1000
G4 P0.25
G1 S0
G0
M3
G1 X45.329Y50.104S1000F2000
G1 X45.356Y50.196
G1 X45.372Y50.311
G1 Y50.449
G1 X45.356Y50.684
G1 X45.29Y50.837
G1 X45.192Y50.92
G1 X45.072Y50.948
G1 X44.953Y50.92
G1 X44.855Y50.836
G1 X44.817Y50.767
G1 X44.79Y50.676
G1 X44.774Y50.56
G1 Y50.421
G1 X44.791Y50.188
G1 X44.856Y50.035
G1 X44.954Y49.952
G1 X45.072Y49.924
G1 X45.193Y49.952
G1 X45.291Y50.036
M3
G1 F100 S1000
G4 P0.2
G1 S0
G0
M3
G0 X45.583Y49.986
M3
G1 F100 S1000
G4 P0.25
G1 S0
G0
M3
G1 X45.505Y49.878S1000F2000
G1 X45.411Y49.792
G1 X45.306Y49.731
G1 X45.191Y49.695
G1 X45.066Y49.682
G1 X44.942Y49.694
G1 X44.829Y49.731
G1 X44.727Y49.791
G1 X44.636Y49.875
G1 X44.56Y49.983
G1 X44.506Y50.117
G1 X44.474Y50.274
G1 X44.463Y50.456
G1 X44.473Y50.603
G1 X44.502Y50.739
G1 X44.55Y50.863
G1 X44.617Y50.976
G1 X44.703Y51.069
G1 X44.805Y51.136
G1 X44.925Y51.176
G1 X45.062Y51.189
G1 X45.191Y51.178
G1 X45.308Y51.142
G1 X45.413Y51.082
G1 X45.507Y50.998
G1 X45.584Y50.891
G1 X45.639Y50.761
G1 X45.672Y50.609
G1 X45.683Y50.435
G1 X45.672Y50.265
G1 X45.638Y50.115
G1 X45.583Y49.986
M3
G1 F100 S1000
G4 P0.2
G1 S0
G0
M3
G0 X46.634Y51.189
M3
G1 F100 S1000
G4 P0.25
G1 S0
G0
M3
G1 X46.918S1000F2000
G1 X45.364Y48.185
G1 X45.074
G1 X46.634Y51.189
M3
G1 F100 S1000
G4 P0.2
G1 S0
G0
M3
G0 X42.994Y50.944
M3
G1 F100 S1000
G4 P0.25
G1 S0
G0
M3
G1 X42.811Y50.888S1000F2000
G1 X42.672Y50.781
G1 X42.584Y50.637
G1 X42.554Y50.468
G1 X42.579Y50.304
G1 X42.654Y50.169
G1 X42.789Y50.06
G1 X42.994Y49.976
G1 Y50.944
M3
G1 F100 S1000
G4 P0.2
G1 S0
G0
M3
G0 X41.705Y50.763
M3
G1 F100 S1000
G4 P0.25
G1 S0
G0
M3
G1 X41.765Y50.618S1000F2000
G1 X41.802Y50.452
G1 X41.454Y50.4
G1 X41.396Y50.609
G1 X41.28Y50.768
G1 X41.12Y50.868
G1 X40.933Y50.902
G1 X40.829
G1 X40.735Y50.867
G1 X40.65Y50.823
G1 X40.574Y50.763
G1 X40.511Y50.69
G1 X40.467Y50.609
G1 X40.44Y50.522
G1 Y50.427
G1 X40.459Y50.178
G1 X40.542Y49.863
G1 X41.154
G1 Y49.575
G1 X40.602
G1 X40.63Y49.49
G1 Y49.404
G1 X40.619Y49.23
G1 X40.558Y49.047
G1 X40.451Y48.856
G1 X40.293Y48.662
G1 X40.44Y48.694
G1 X40.573Y48.704
G1 X40.744Y48.692
G1 X40.936Y48.656
G1 X41.09Y48.621
G1 X41.217Y48.596
G1 X41.317Y48.581
G1 X41.39
G1 X41.555Y48.603
G1 X41.763Y48.685
G1 X41.876Y48.364
G1 X41.717Y48.301
G1 X41.599Y48.265
G1 X41.501Y48.247
G1 X41.403
G1 X41.321
G1 X41.238Y48.257
G1 X41.149Y48.28
G1 X40.822Y48.377
G1 X40.728Y48.401
G1 X40.637Y48.413
G1 X40.546
G1 X40.401
G1 X40.247Y48.368
G1 X40.096Y48.311
G1 X39.958Y48.236
G1 X39.824Y48.572
G1 X39.997Y48.697
G1 X40.141Y48.867
G1 X40.239Y49.079
G1 X40.271Y49.334
G1 Y49.454
G1 X40.238Y49.575
G1 X39.857
G1 Y49.863
G1 X40.157
G1 X40.104Y50.052
G1 X40.075Y50.181
G1 X40.062Y50.28
G1 Y50.377
G1 X40.076Y50.568
G1 X40.132Y50.737
G1 X40.226Y50.884
G1 X40.357Y51.009
G1 X40.484Y51.088
G1 X40.623Y51.144
G1 X40.776Y51.178
G1 X40.94Y51.189
G1 X41.109Y51.177
G1 X41.261Y51.141
G1 X41.399Y51.081
G1 X41.521Y50.996
G1 X41.624Y50.889
G1 X41.705Y50.763
M3
G1 F100 S1000
G4 P0.2
G1 S0
G0
M3
G0 X39.565Y50.674
M3
G1 F100 S1000
G4 P0.25
G1 S0
G0
M3
G1 X39.472Y50.132S1000F2000
G1 X39.262
G1 X39.166Y50.674
G1 Y51.141
G1 X39.565
G1 Y50.674
M3
G1 F100 S1000
G4 P0.2
G1 S0
G0
M3
G0 X38.919Y50.674
M3
G1 F100 S1000
G4 P0.25
G1 S0
G0
M3
G1 X38.832Y50.132S1000F2000
G1 X38.618
G1 X38.521Y50.674
G1 Y51.141
G1 X38.919
G1 Y50.674
M3
G1 F100 S1000
G4 P0.2
G1 S0
G0
M3
G0 X37.999Y50.509
M3
G1 F100 S1000
G4 P0.25
G1 S0
G0
M3
G1 X37.898Y48.998S1000F2000
G1 X37.672
G1 X37.565Y50.509
G1 Y51.141
G1 X37.999
G1 Y50.509
M3
G1 F100 S1000
G4 P0.2
G1 S0
G0
M3
G0 X36.616Y50.282
M3
G1 F100 S1000
G4 P0.25
G1 S0
G0
M3
G1 X36.565Y50.486S1000F2000
G1 X36.493Y50.631
G1 X36.406Y50.733
G1 X36.308Y50.805
G1 X36.201Y50.848
G1 X36.083Y50.863
G1 X35.969Y50.85
G1 X35.867Y50.812
G1 X35.776Y50.748
G1 X35.698Y50.659
G1 X35.619Y50.501
G1 X35.563Y50.288
G1 X35.529Y50.019
G1 X35.518Y49.696
G1 Y49.374
G1 X35.559Y49.111
G1 X35.61Y48.907
G1 X35.682Y48.762
G1 X35.769Y48.66
G1 X35.865Y48.587
G1 X35.972Y48.544
G1 X36.087Y48.529
G1 X36.203Y48.544
G1 X36.309Y48.588
G1 X36.406Y48.661
G1 X36.493Y48.763
G1 X36.565Y48.908
G1 X36.616Y49.113
G1 X36.647Y49.375
G1 X36.657Y49.696
G1 X36.647Y50.018
G1 X36.616Y50.282
M3
G1 F100 S1000
G4 P0.2
G1 S0
G0
M3
G0 X36.953Y50.37
M3
G1 F100 S1000
G4 P0.25
G1 S0
G0
M3
G1 X37.001Y50.076S1000F2000
G1 X37.017Y49.696
G1 Y49.457
G1 X36.991Y49.243
G1 X36.959Y49.052
G1 X36.914Y48.886
G1 X36.856Y48.741
G1 X36.785Y48.613
G1 X36.702Y48.503
G1 X36.606Y48.41
G1 X36.496Y48.336
G1 X36.373Y48.284
G1 X36.237Y48.252
G1 X36.087Y48.241
G1 X35.892Y48.26
G1 X35.719Y48.315
G1 X35.569Y48.408
G1 X35.44Y48.537
G1 X35.316Y48.743
G1 X35.228Y49.005
G1 X35.175Y49.322
G1 X35.158Y49.696
G1 Y49.937
G1 X35.184Y50.152
G1 X35.216Y50.343
G1 X35.262Y50.51
G1 X35.32Y50.655
G1 X35.391Y50.783
G1 X35.475Y50.893
G1 X35.571Y50.985
G1 X35.68Y51.058
G1 X35.803Y51.111
G1 X35.938Y51.142
G1 X36.087Y51.153
G1 X36.303Y51.129
G1 X36.49Y51.06
G1 X36.648Y50.947
G1 X36.776Y50.794
G1 X36.876Y50.601
G1 X36.953Y50.37
M3
G1 F100 S1000
G4 P0.2
G1 S0
G0
M3
G0 X34.403Y50.35
M3
G1 F100 S1000
G4 P0.25
G1 S0
G0
M3
G1 X34.373Y50.478S1000F2000
G1 X34.323Y50.59
G1 X34.253Y50.686
G1 X34.169Y50.763
G1 X34.076Y50.819
G1 X33.976Y50.852
G1 X33.867Y50.863
G1 X33.754Y50.851
G1 X33.649Y50.815
G1 X33.551Y50.756
G1 X33.46Y50.672
G1 X33.385Y50.57
G1 X33.331Y50.453
G1 X33.298Y50.323
G1 X33.287Y50.178
G1 X33.298Y50.049
G1 X33.328Y49.932
G1 X33.38Y49.827
G1 X33.452Y49.736
G1 X33.539Y49.661
G1 X33.635Y49.608
G1 X33.741Y49.576
G1 X33.857Y49.566
G1 X33.973Y49.576
G1 X34.079Y49.608
G1 X34.173Y49.661
G1 X34.257Y49.736
G1 X34.325Y49.829
G1 X34.374Y49.939
G1 X34.404Y50.065
G1 Y50.207
G1 Y50.35
M3
G1 F100 S1000
G4 P0.2
G1 S0
G0
M3
G0 X34.735Y50.422
M3
G1 F100 S1000
G4 P0.25
G1 S0
G0
M3
G1 X34.772Y50.237S1000F2000
G1 X34.795Y50.021
G1 Y49.774
G1 Y49.515
G1 X34.773Y49.283
G1 X34.735Y49.079
G1 X34.684Y48.904
G1 X34.617Y48.751
G1 X34.536Y48.618
G1 X34.441Y48.505
G1 X34.331Y48.411
G1 X34.208Y48.337
G1 X34.076Y48.284
G1 X33.934Y48.252
G1 X33.781Y48.241
G1 X33.622Y48.253
G1 X33.477Y48.288
G1 X33.349Y48.346
G1 X33.235Y48.427
G1 X33.139Y48.529
G1 X33.065Y48.651
G1 X33.012Y48.791
G1 X32.98Y48.949
G1 X33.317Y48.98
G1 X33.379Y48.776
G1 X33.48Y48.636
G1 X33.617Y48.556
G1 X33.789Y48.529
G1 X33.941Y48.548
G1 X34.072Y48.603
G1 X34.183Y48.689
G1 X34.271Y48.801
G1 X34.343Y48.946
G1 X34.402Y49.134
G1 X34.441Y49.346
G1 X34.454Y49.562
G1 Y49.632
G1 X34.328Y49.48
G1 X34.165Y49.361
G1 X33.976Y49.283
G1 X33.772Y49.257
G1 X33.601Y49.273
G1 X33.445Y49.321
G1 X33.302Y49.401
G1 X33.173Y49.513
G1 X33.065Y49.652
G1 X32.989Y49.811
G1 X32.943Y49.99
G1 X32.928Y50.19
G1 X32.944Y50.396
G1 X32.992Y50.581
G1 X33.071Y50.745
G1 X33.183Y50.888
G1 X33.319Y51.004
G1 X33.471Y51.086
G1 X33.64Y51.136
G1 X33.824Y51.153
G1 X33.96
G1 X34.09Y51.115
G1 X34.214Y51.068
G1 X34.333Y51.003
G1 X34.441Y50.92
G1 X34.535Y50.821
G1 X34.616Y50.707
G1 X34.683Y50.576
G1 X34.735Y50.422
M3
G1 F100 S1000
G4 P0.2
G1 S0
G0
M3
G0 X32.096Y50.41
M3
G1 F100 S1000
G4 P0.25
G1 S0
G0
M3
G1 X32.062Y50.587S1000F2000
G1 X31.962Y50.733
G1 X31.813Y50.832
G1 X31.631Y50.865
G1 X31.448Y50.833
G1 X31.298Y50.736
G1 X31.199Y50.595
G1 X31.166Y50.429
G1 X31.199Y50.245
G1 X31.296Y50.099
G1 X31.446Y50.002
G1 X31.635Y49.97
G1 X31.819Y50.002
G1 X31.966Y50.098
G1 X32.063Y50.239
G1 X32.096Y50.41
M3
G1 F100 S1000
G4 P0.2
G1 S0
G0
M3
G0 X31.746Y49.674
M3
G1 F100 S1000
G4 P0.25
G1 S0
G0
M3
G1 X31.625Y49.684S1000F2000
G1 X31.507
G1 X31.399Y49.644
G1 X31.302Y49.592
G1 X31.216Y49.521
G1 X31.145Y49.434
G1 X31.094Y49.337
G1 X31.063Y49.23
G1 Y49.113
G1 Y48.965
G1 X31.124Y48.823
G1 X31.212Y48.699
G1 X31.335Y48.606
G1 X31.481Y48.548
G1 X31.637Y48.529
G1 X31.757Y48.539
G1 X31.866Y48.57
G1 X31.964Y48.62
G1 X32.051Y48.691
G1 X32.122Y48.777
G1 X32.173Y48.874
G1 X32.204Y48.982
G1 X32.214Y49.101
G1 X32.204Y49.222
G1 X32.172Y49.332
G1 X32.12Y49.431
G1 X32.046Y49.519
G1 X31.957Y49.591
G1 X31.857Y49.643
G1 X31.746Y49.674
M3
G1 F100 S1000
G4 P0.2
G1 S0
G0
M3
G0 X32.035Y49.836
M3
G1 F100 S1000
G4 P0.25
G1 S0
G0
M3
G1 X32.159Y49.787S1000F2000
G1 X32.266Y49.724
G1 X32.359Y49.649
G1 X32.435Y49.56
G1 X32.495Y49.46
G1 X32.538Y49.351
G1 X32.563Y49.232
G1 Y49.105
G1 Y48.929
G1 X32.507Y48.768
G1 X32.427Y48.622
G1 X32.313Y48.49
G1 X32.174Y48.382
G1 X32.014Y48.304
G1 X31.834Y48.257
G1 X31.633Y48.241
G1 X31.432Y48.257
G1 X31.252Y48.304
G1 X31.092Y48.382
G1 X30.952Y48.491
G1 X30.839Y48.624
G1 X30.758Y48.772
G1 X30.71Y48.936
G1 X30.694Y49.115
G1 Y49.248
G1 X30.729Y49.37
G1 X30.773Y49.481
G1 X30.834Y49.58
G1 X30.912Y49.667
G1 X31.005Y49.738
G1 X31.113Y49.795
G1 X31.236Y49.836
G1 X31.046Y49.933
G1 X30.913Y50.064
G1 X30.834Y50.226
G1 X30.808Y50.417
G1 X30.822Y50.567
G1 X30.864Y50.704
G1 X30.934Y50.828
G1 X31.032Y50.941
G1 X31.153Y51.033
G1 X31.292Y51.1
G1 X31.45Y51.139
G1 X31.627Y51.153
G1 X31.804Y51.139
G1 X31.964Y51.098
G1 X32.105Y51.031
G1 X32.228Y50.936
G1 X32.327Y50.821
G1 X32.398Y50.695
G1 X32.441Y50.557
G1 X32.455Y50.408
G1 X32.429Y50.222
G1 X32.351Y50.063
G1 X32.22Y49.933
G1 X32.035Y49.836
M3
G1 F100 S1000
G4 P0.2
G1 S0
G0
M3
G0 X37.581Y48.689
M3
G1 F100 S1000
G4 P0.25
G1 S0
G0
M3
G1 X37.983S1000F2000
G1 Y48.29
G1 X37.581
G1 Y48.689
M3
G1 F100 S1000
G4 P0.2
G1 S0
G0
M3
G0 X43.2Y48.525
M3
G1 F100 S1000
G4 P0.25
G1 S0
G0
M3
G1 X43.386Y48.582S1000F2000
G1 X43.537Y48.702
G1 X43.637Y48.872
G1 X43.67Y49.078
G1 X43.647Y49.25
G1 X43.576Y49.384
G1 X43.435Y49.494
G1 X43.2Y49.591
G1 Y48.525
M3
G1 F100 S1000
G4 P0.2
G1 S0
G0
M3
G0 X42.994Y48.525
M3
G1 F100 S1000
G4 P0.25
G1 S0
G0
M3
G1 Y49.64S1000F2000
G1 X42.775Y49.702
G1 X42.552Y49.807
G1 X42.404Y49.918
G1 X42.294Y50.066
G1 X42.227Y50.242
G1 X42.204Y50.441
G1 X42.221Y50.619
G1 X42.27Y50.779
G1 X42.353Y50.921
G1 X42.469Y51.046
G1 X42.568Y51.116
G1 X42.688Y51.171
G1 X42.83Y51.211
G1 X42.994Y51.236
G1 Y51.403
G1 X43.2
G1 Y51.236
G1 X43.344Y51.214
G1 X43.473Y51.177
G1 X43.587Y51.125
G1 X43.684Y51.057
G1 X43.787Y50.953
G1 X43.868Y50.831
G1 X43.925Y50.692
G1 X43.96Y50.534
G1 X43.598Y50.48
G1 X43.55Y50.662
G1 X43.469Y50.796
G1 X43.353Y50.887
G1 X43.2Y50.941
G1 Y49.931
G1 X43.419Y49.873
G1 X43.55Y49.828
G1 X43.698Y49.749
G1 X43.816Y49.653
G1 X43.907Y49.54
G1 X43.975Y49.408
G1 X44.016Y49.26
G1 X44.03Y49.101
G1 X44.016Y48.927
G1 X43.972Y48.768
G1 X43.9Y48.623
G1 X43.799Y48.494
G1 X43.674Y48.387
G1 X43.533Y48.308
G1 X43.375Y48.257
G1 X43.2Y48.234
G1 Y47.88
G1 X42.994
G1 Y48.23
G1 X42.756Y48.276
G1 X42.567Y48.347
G1 X42.414Y48.458
G1 X42.283Y48.621
G1 X42.188Y48.83
G1 X42.144Y49.082
G1 X42.496Y49.148
G1 X42.552Y48.903
G1 X42.64Y48.733
G1 X42.717Y48.65
G1 X42.802Y48.588
G1 X42.894Y48.546
G1 X42.994Y48.525
M3
G1 F100 S1000
G4 P0.2
G1 S0
G0
M3
G0 X43.68Y58.458
M3
G1 F100 S1000
G4 P0.25
G1 S0
G0
M3
G1 X43.495Y58.472S1000F2000
G1 X43.327Y58.513
G1 X43.177Y58.581
G1 X43.045Y58.676
G1 X42.936Y58.794
G1 X42.852Y58.929
G1 X42.795Y59.083
G1 X42.765Y59.254
G1 X43.132Y59.285
G1 X43.159Y59.159
G1 X43.2Y59.05
G1 X43.254Y58.957
G1 X43.322Y58.881
G1 X43.486Y58.78
G1 X43.68Y58.746
G1 X43.802Y58.758
G1 X43.914Y58.794
G1 X44.016Y58.853
G1 X44.108Y58.937
G1 X44.185Y59.04
G1 X44.239Y59.158
G1 X44.272Y59.293
G1 X44.283Y59.442
G1 X44.273Y59.584
G1 X44.241Y59.71
G1 X44.189Y59.82
G1 X44.115Y59.915
G1 X44.024Y59.991
G1 X43.921Y60.045
G1 X43.804Y60.077
G1 X43.675Y60.088
G1 X43.514Y60.069
G1 X43.369Y60.011
G1 X43.248Y59.923
G1 X43.155Y59.812
G1 X42.827Y59.855
G1 X43.103Y61.319
G1 X44.52
G1 Y60.984
G1 X43.383
G1 X43.229Y60.218
G1 X43.359Y60.296
G1 X43.492Y60.352
G1 X43.629Y60.386
G1 X43.768Y60.397
G1 X43.947Y60.381
G1 X44.112Y60.332
G1 X44.262Y60.252
G1 X44.398Y60.138
G1 X44.51Y60
G1 X44.59Y59.843
G1 X44.639Y59.667
G1 X44.655Y59.473
G1 X44.641Y59.286
G1 X44.598Y59.113
G1 X44.528Y58.952
G1 X44.429Y58.804
G1 X44.279Y58.653
G1 X44.105Y58.545
G1 X43.905Y58.48
G1 X43.68Y58.458
M3
G1 F100 S1000
G4 P0.2
G1 S0
G0
M3
G0 X45.551Y58.939
M3
G1 F100 S1000
G4 P0.25
G1 S0
G0
M3
G1 X45.673Y58.833S1000F2000
G1 X45.815Y58.768
G1 X45.963Y58.746
G1 X46.07Y58.757
G1 X46.169Y58.791
G1 X46.261Y58.847
G1 X46.344Y58.925
G1 X46.414Y59.022
G1 X46.464Y59.136
G1 X46.494Y59.266
G1 Y59.411
G1 Y59.551
G1 X46.464Y59.675
G1 X46.415Y59.784
G1 X46.346Y59.877
G1 X46.262Y59.951
G1 X46.168Y60.005
G1 X46.064Y60.036
G1 X45.95Y60.047
G1 X45.835Y60.036
G1 X45.73Y60.005
G1 X45.634Y59.951
G1 X45.547Y59.877
G1 X45.475Y59.785
G1 X45.423Y59.68
G1 X45.392Y59.562
G1 X45.382Y59.431
G1 X45.401Y59.254
G1 X45.459Y59.084
G1 X45.551Y58.939
M3
G1 F100 S1000
G4 P0.2
G1 S0
G0
M3
G0 X45.255Y58.78
M3
G1 F100 S1000
G4 P0.25
G1 S0
G0
M3
G1 X45.134Y58.967S1000F2000
G1 X45.048Y59.206
G1 X44.996Y59.498
G1 X44.979Y59.841
G1 X44.998Y60.226
G1 X45.055Y60.555
G1 X45.151Y60.827
G1 X45.284Y61.043
G1 X45.429Y61.186
G1 X45.597Y61.288
G1 X45.788Y61.349
G1 X46.002Y61.369
G1 X46.163Y61.358
G1 X46.308Y61.322
G1 X46.438Y61.263
G1 X46.553Y61.181
G1 X46.65Y61.077
G1 X46.725Y60.956
G1 X46.779Y60.817
G1 X46.811Y60.66
G1 X46.463Y60.632
G1 X46.407Y60.81
G1 X46.331Y60.932
G1 X46.256Y60.997
G1 X46.172Y61.044
G1 X46.081Y61.072
G1 X45.981
G1 X45.824Y61.058
G1 X45.687Y60.988
G1 X45.539Y60.84
G1 X45.426Y60.636
G1 X45.384Y60.508
G1 X45.354Y60.356
G1 X45.335Y60.179
G1 Y59.977
G1 X45.468Y60.145
G1 X45.636Y60.263
G1 X45.824Y60.333
G1 X46.02Y60.356
G1 X46.188Y60.34
G1 X46.344Y60.292
G1 X46.486Y60.211
G1 X46.616Y60.099
G1 X46.723Y59.96
G1 X46.8Y59.803
G1 X46.846Y59.627
G1 X46.862Y59.433
G1 X46.833Y59.174
G1 X46.746Y58.934
G1 X46.609Y58.73
G1 X46.428Y58.581
G1 X46.212Y58.489
G1 X45.969Y58.458
G1 X45.76Y58.478
G1 X45.572Y58.539
G1 X45.403Y58.639
G1 X45.255Y58.78
M3
G1 F100 S1000
G4 P0.2
G1 S0
G0
M3
G0 X47.647Y58.507
M3
G1 F100 S1000
G4 P0.25
G1 S0
G0
M3
G1 X47.683Y58.878S1000F2000
G1 X47.779Y59.32
G1 X47.933Y59.788
G1 X48.142Y60.239
G1 X48.386Y60.646
G1 X48.645Y60.984
G1 X47.248
G1 Y61.321
G1 X49.094
G1 Y61.049
G1 X48.823Y60.711
G1 X48.554Y60.278
G1 X48.317Y59.791
G1 X48.141Y59.291
G1 X48.055Y58.916
G1 X48.007Y58.507
G1 X47.647
M3
G1 F100 S1000
G4 P0.2
G1 S0
G0
M3
G0 X49.882Y59.04
M3
G1 F100 S1000
G4 P0.25
G1 S0
G0
M3
G1 X49.97Y58.916S1000F2000
G1 X50.093Y58.823
G1 X50.238Y58.765
G1 X50.394Y58.746
G1 X50.514Y58.756
G1 X50.623Y58.786
G1 X50.721Y58.837
G1 X50.809Y58.908
G1 X50.88Y58.994
G1 X50.931Y59.091
G1 X50.962Y59.199
G1 Y59.318
G1 Y59.439
G1 X50.93Y59.549
G1 X50.877Y59.648
G1 X50.804Y59.736
G1 X50.714Y59.808
G1 X50.614Y59.86
G1 X50.504Y59.891
G1 X50.383Y59.901
G1 X50.265Y59.891
G1 X50.157Y59.86
G1 X50.06Y59.809
G1 X49.973Y59.738
G1 X49.902Y59.651
G1 X49.852Y59.554
G1 X49.821Y59.447
G1 Y59.329
G1 Y59.182
G1 X49.882Y59.04
M3
G1 F100 S1000
G4 P0.2
G1 S0
G0
M3
G0 X50.392Y60.187
M3
G1 F100 S1000
G4 P0.25
G1 S0
G0
M3
G1 X50.576Y60.219S1000F2000
G1 X50.724Y60.314
G1 X50.821Y60.456
G1 X50.853Y60.627
G1 X50.82Y60.804
G1 X50.72Y60.95
G1 X50.571Y61.049
G1 X50.389Y61.082
G1 X50.205Y61.049
G1 X50.056Y60.953
G1 X49.957Y60.812
G1 X49.924Y60.646
G1 X49.956Y60.462
G1 X50.054Y60.315
G1 X50.204Y60.219
G1 X50.392Y60.187
M3
G1 F100 S1000
G4 P0.2
G1 S0
G0
M3
G0 X49.994Y60.053
M3
G1 F100 S1000
G4 P0.25
G1 S0
G0
M3
G1 X49.804Y60.15S1000F2000
G1 X49.671Y60.28
G1 X49.592Y60.443
G1 X49.566Y60.634
G1 X49.58Y60.784
G1 X49.622Y60.921
G1 X49.692Y61.045
G1 X49.79Y61.157
G1 X49.911Y61.25
G1 X50.05Y61.316
G1 X50.208Y61.356
G1 X50.385Y61.369
G1 X50.562Y61.356
G1 X50.722Y61.315
G1 X50.863Y61.247
G1 X50.986Y61.153
G1 X51.085Y61.038
G1 X51.156Y60.912
G1 X51.199Y60.774
G1 X51.213Y60.625
G1 X51.187Y60.439
G1 X51.109Y60.279
G1 X50.978Y60.149
G1 X50.793Y60.053
G1 X50.916Y60.004
G1 X51.024Y59.941
G1 X51.116Y59.865
G1 X51.193Y59.777
G1 X51.253Y59.677
G1 X51.295Y59.568
G1 X51.321Y59.449
G1 Y59.322
G1 Y59.146
G1 X51.265Y58.985
G1 X51.184Y58.839
G1 X51.071Y58.707
G1 X50.932Y58.598
G1 X50.772Y58.521
G1 X50.591Y58.474
G1 X50.391Y58.458
G1 X50.19Y58.474
G1 X50.009Y58.521
G1 X49.849Y58.599
G1 X49.71Y58.708
G1 X49.597Y58.841
G1 X49.516Y58.989
G1 X49.467Y59.152
G1 X49.451Y59.331
G1 Y59.465
G1 X49.487Y59.587
G1 X49.531Y59.698
G1 X49.592Y59.797
G1 X49.67Y59.884
G1 X49.763Y59.955
G1 X49.871Y60.011
G1 X49.994Y60.053
M3
G1 F100 S1000
G4 P0.2
G1 S0
G0
M3
G0 X52.055Y60.265
M3
G1 F100 S1000
G4 P0.25
G1 S0
G0
M3
G1 X52.086Y60.148S1000F2000
G1 X52.138Y60.044
G1 X52.209Y59.953
G1 X52.296Y59.878
G1 X52.393Y59.825
G1 X52.499Y59.793
G1 X52.615Y59.783
G1 X52.731Y59.793
G1 X52.836Y59.825
G1 X52.931Y59.878
G1 X53.015Y59.953
G1 X53.083Y60.046
G1 X53.132Y60.156
G1 X53.161Y60.282
G1 X53.171Y60.424
G1 Y60.567
G1 X53.131Y60.695
G1 X53.081Y60.806
G1 X53.011Y60.903
G1 X52.926Y60.98
G1 X52.834Y61.035
G1 X52.733Y61.069
G1 X52.625Y61.08
G1 X52.512Y61.068
G1 X52.406Y61.032
G1 X52.309Y60.972
G1 X52.218Y60.889
G1 X52.142Y60.787
G1 X52.088Y60.67
G1 X52.056Y60.54
G1 X52.045Y60.395
G1 X52.055Y60.265
M3
G1 F100 S1000
G4 P0.2
G1 S0
G0
M3
G0 X51.701Y60.207
M3
G1 F100 S1000
G4 P0.25
G1 S0
G0
M3
G1 X51.685Y60.407S1000F2000
G1 X51.701Y60.613
G1 X51.749Y60.798
G1 X51.829Y60.962
G1 X51.941Y61.105
G1 X52.077Y61.221
G1 X52.229Y61.303
G1 X52.397Y61.353
G1 X52.582Y61.369
G1 X52.718
G1 X52.848Y61.332
G1 X52.972Y61.285
G1 X53.09Y61.22
G1 X53.199Y61.137
G1 X53.293Y61.038
G1 X53.374Y60.923
G1 X53.44Y60.793
G1 X53.493Y60.639
G1 X53.53Y60.454
G1 X53.553Y60.238
G1 Y59.991
G1 Y59.731
G1 X53.53Y59.5
G1 X53.493Y59.296
G1 X53.441Y59.12
G1 X53.375Y58.968
G1 X53.294Y58.835
G1 X53.198Y58.722
G1 X53.088Y58.627
G1 X52.966Y58.553
G1 X52.834Y58.501
G1 X52.692Y58.469
G1 X52.539Y58.458
G1 X52.38Y58.47
G1 X52.235Y58.505
G1 X52.106Y58.563
G1 X51.993Y58.644
G1 X51.897Y58.746
G1 X51.823Y58.867
G1 X51.77Y59.007
G1 X51.738Y59.166
G1 X52.074Y59.197
G1 X52.137Y58.993
G1 X52.238Y58.853
G1 X52.375Y58.773
G1 X52.547Y58.746
G1 X52.698Y58.765
G1 X52.83Y58.82
G1 X52.94Y58.906
G1 X53.029Y59.017
G1 X53.101Y59.162
G1 X53.159Y59.351
G1 X53.199Y59.563
G1 X53.212Y59.779
G1 Y59.849
G1 X53.086Y59.697
G1 X52.923Y59.577
G1 X52.734Y59.499
G1 X52.529Y59.473
G1 X52.359Y59.489
G1 X52.203Y59.538
G1 X52.06Y59.618
G1 X51.93Y59.73
G1 X51.823Y59.869
G1 X51.747Y60.028
G1 X51.701Y60.207
M3
G1 F100 S1000
G4 P0.2
G1 S0
G0
M3
G0 X54.287Y60.236
M3
G1 F100 S1000
G4 P0.25
G1 S0
G0
M3
G1 X54.275Y59.913S1000F2000
G1 X54.286Y59.591
G1 X54.316Y59.328
G1 X54.368Y59.124
G1 X54.44Y58.978
G1 X54.527Y58.877
G1 X54.623Y58.804
G1 X54.729Y58.761
G1 X54.845Y58.746
G1 X54.961Y58.761
G1 X55.067Y58.804
G1 X55.164Y58.877
G1 X55.251Y58.979
G1 X55.322Y59.125
G1 X55.374Y59.329
G1 X55.405Y59.592
G1 Y59.913
G1 Y60.235
G1 X55.374Y60.499
G1 X55.322Y60.703
G1 X55.251Y60.848
G1 X55.163Y60.949
G1 X55.066Y61.022
G1 X54.959Y61.065
G1 X54.841Y61.08
G1 X54.727Y61.067
G1 X54.624Y61.029
G1 X54.534Y60.965
G1 X54.456Y60.875
G1 X54.377Y60.718
G1 X54.321Y60.505
G1 X54.287Y60.236
M3
G1 F100 S1000
G4 P0.2
G1 S0
G0
M3
G0 X53.922Y60.153
M3
G1 F100 S1000
G4 P0.25
G1 S0
G0
M3
G1 X53.942Y60.369S1000F2000
G1 X53.974Y60.56
G1 X54.02Y60.727
G1 X54.078Y60.872
G1 X54.149Y61
G1 X54.233Y61.11
G1 X54.329Y61.202
G1 X54.438Y61.275
G1 X54.561Y61.328
G1 X54.696Y61.359
G1 X54.845Y61.369
G1 X55.061Y61.346
G1 X55.248Y61.277
G1 X55.406Y61.164
G1 X55.534Y61.011
G1 X55.634Y60.818
G1 X55.71Y60.587
G1 X55.759Y60.293
G1 X55.775Y59.913
G1 Y59.674
G1 X55.749Y59.46
G1 X55.717Y59.269
G1 X55.672Y59.103
G1 X55.614Y58.958
G1 X55.543Y58.83
G1 X55.46Y58.719
G1 X55.363Y58.627
G1 X55.254Y58.553
G1 X55.131Y58.5
G1 X54.995Y58.469
G1 X54.845Y58.458
G1 X54.65Y58.477
G1 X54.477Y58.532
G1 X54.326Y58.625
G1 X54.198Y58.754
G1 X54.074Y58.96
G1 X53.986Y59.222
G1 X53.933Y59.539
G1 X53.916Y59.913
G1 Y60.153
M3
G1 F100 S1000
G4 P0.2
G1 S0
G0
M3
G0 X56.323Y60.726
M3
G1 F100 S1000
G4 P0.25
G1 S0
G0
M3
G1 Y61.358S1000F2000
G1 X56.756
G1 Y60.726
G1 X56.655Y59.215
G1 X56.43
G1 X56.323Y60.726
M3
G1 F100 S1000
G4 P0.2
G1 S0
G0
M3
G0 X57.278Y60.891
M3
G1 F100 S1000
G4 P0.25
G1 S0
G0
M3
G1 Y61.358S1000F2000
G1 X57.677
G1 Y60.891
G1 X57.59Y60.348
G1 X57.376
G1 X57.278Y60.891
M3
G1 F100 S1000
G4 P0.2
G1 S0
G0
M3
G0 X57.924Y60.891
M3
G1 F100 S1000
G4 P0.25
G1 S0
G0
M3
G1 Y61.358S1000F2000
G1 X58.323
G1 Y60.891
G1 X58.229Y60.348
G1 X58.019
G1 X57.924Y60.891
M3
G1 F100 S1000
G4 P0.2
G1 S0
G0
M3
G0 X58.834Y60.785
M3
G1 F100 S1000
G4 P0.25
G1 S0
G0
M3
G1 X58.89Y60.954S1000F2000
G1 X58.984Y61.101
G1 X59.115Y61.225
G1 X59.242Y61.305
G1 X59.381Y61.361
G1 X59.533Y61.395
G1 X59.698Y61.406
G1 X59.866Y61.394
G1 X60.019Y61.358
G1 X60.157Y61.297
G1 X60.279Y61.213
G1 X60.382Y61.106
G1 X60.463Y60.98
G1 X60.522Y60.835
G1 X60.56Y60.669
G1 X60.211Y60.617
G1 X60.153Y60.825
G1 X60.037Y60.984
G1 X59.878Y61.085
G1 X59.69Y61.119
G1 X59.587
G1 X59.493Y61.084
G1 X59.408Y61.04
G1 X59.332Y60.979
G1 X59.269Y60.906
G1 X59.224Y60.826
G1 X59.198Y60.739
G1 Y60.644
G1 X59.216Y60.395
G1 X59.299Y60.08
G1 X59.912
G1 Y59.792
G1 X59.36
G1 X59.387Y59.707
G1 Y59.621
G1 X59.376Y59.447
G1 X59.316Y59.263
G1 X59.209Y59.073
G1 X59.051Y58.878
G1 X59.197Y58.91
G1 X59.331Y58.921
G1 X59.502Y58.909
G1 X59.694Y58.873
G1 X59.848Y58.838
G1 X59.975Y58.813
G1 X60.074Y58.798
G1 X60.147
G1 X60.313Y58.82
G1 X60.521Y58.902
G1 X60.633Y58.581
G1 X60.475Y58.518
G1 X60.356Y58.482
G1 X60.258Y58.464
G1 X60.161
G1 X60.079
G1 X59.996
G1 X59.906Y58.496
G1 X59.58Y58.594
G1 X59.486Y58.618
G1 X59.395Y58.629
G1 X59.303
G1 X59.159
G1 X59.005Y58.585
G1 X58.853Y58.527
G1 X58.716Y58.452
G1 X58.582Y58.789
G1 X58.754Y58.914
G1 X58.899Y59.083
G1 X58.997Y59.296
G1 X59.029Y59.551
G1 Y59.671
G1 X58.996Y59.792
G1 X58.615
G1 Y60.08
G1 X58.914
G1 X58.862Y60.268
G1 X58.833Y60.398
G1 X58.82Y60.497
G1 Y60.593
G1 X58.834Y60.785
M3
G1 F100 S1000
G4 P0.2
G1 S0
G0
M3
G0 X61.312Y60.685
M3
G1 F100 S1000
G4 P0.25
G1 S0
G0
M3
G1 X61.337Y60.521S1000F2000
G1 X61.412Y60.385
G1 X61.547Y60.277
G1 X61.751Y60.193
G1 Y61.161
G1 X61.569Y61.105
G1 X61.43Y60.998
G1 X61.341Y60.854
G1 X61.312Y60.685
M3
G1 F100 S1000
G4 P0.2
G1 S0
G0
M3
G0 X61.957Y59.808
M3
G1 F100 S1000
G4 P0.25
G1 S0
G0
M3
G1 Y58.742S1000F2000
G1 X62.144Y58.799
G1 X62.295Y58.919
G1 X62.395Y59.089
G1 X62.428Y59.294
G1 X62.404Y59.466
G1 X62.334Y59.601
G1 X62.193Y59.71
G1 X61.957Y59.808
M3
G1 F100 S1000
G4 P0.2
G1 S0
G0
M3
G0 X61.751Y59.856
M3
G1 F100 S1000
G4 P0.25
G1 S0
G0
M3
G1 X61.533Y59.919S1000F2000
G1 X61.31Y60.024
G1 X61.162Y60.135
G1 X61.052Y60.282
G1 X60.984Y60.459
G1 X60.962Y60.658
G1 X60.978Y60.835
G1 X61.028Y60.996
G1 X61.111Y61.138
G1 X61.226Y61.262
G1 X61.325Y61.333
G1 X61.446Y61.388
G1 X61.588Y61.428
G1 X61.751Y61.453
G1 Y61.62
G1 X61.957
G1 Y61.453
G1 X62.102Y61.431
G1 X62.231Y61.394
G1 X62.344Y61.341
G1 X62.442Y61.274
G1 X62.545Y61.17
G1 X62.625Y61.048
G1 X62.683Y60.908
G1 X62.718Y60.751
G1 X62.356Y60.697
G1 X62.308Y60.879
G1 X62.227Y61.013
G1 X62.11Y61.104
G1 X61.957Y61.157
G1 Y60.148
G1 X62.177Y60.089
G1 X62.308Y60.045
G1 X62.456Y59.965
G1 X62.574Y59.87
G1 X62.665Y59.757
G1 X62.732Y59.625
G1 X62.774Y59.477
G1 X62.788Y59.318
G1 X62.773Y59.144
G1 X62.73Y58.984
G1 X62.658Y58.84
G1 X62.556Y58.711
G1 X62.432Y58.604
G1 X62.291Y58.524
G1 X62.133Y58.473
G1 X61.957Y58.451
G1 Y58.097
G1 X61.751
G1 Y58.447
G1 X61.513Y58.493
G1 X61.325Y58.564
G1 X61.171Y58.675
G1 X61.041Y58.838
G1 X60.946Y59.047
G1 X60.902Y59.298
G1 X61.254Y59.364
G1 X61.31Y59.12
G1 X61.397Y58.95
G1 X61.475Y58.867
G1 X61.56Y58.805
G1 X61.652Y58.763
G1 X61.751Y58.742
G1 Y59.856
M3
G1 F100 S1000
G4 P0.2
G1 S0
G0
M3
G0 X63.614Y60.252
M3
G1 F100 S1000
G4 P0.25
G1 S0
G0
M3
G1 X63.712Y60.168S1000F2000
G1 X63.83Y60.14
G1 X63.951Y60.169
G1 X64.049Y60.253
G1 X64.087Y60.321
G1 X64.114Y60.413
G1 X64.13Y60.527
G1 Y60.665
G1 X64.113Y60.9
G1 X64.048Y61.053
G1 X63.949Y61.137
G1 X63.83Y61.165
G1 X63.711Y61.137
G1 X63.613Y61.052
G1 X63.575Y60.984
G1 X63.548Y60.892
G1 X63.532Y60.777
G1 Y60.638
G1 X63.548Y60.405
G1 X63.614Y60.252
M3
G1 F100 S1000
G4 P0.2
G1 S0
G0
M3
G0 X63.318Y60.2
M3
G1 F100 S1000
G4 P0.25
G1 S0
G0
M3
G1 X63.264Y60.333S1000F2000
G1 X63.232Y60.491
G1 X63.221Y60.673
G1 Y60.82
G1 X63.26Y60.956
G1 X63.308Y61.08
G1 X63.375Y61.192
G1 X63.46Y61.286
G1 X63.563Y61.353
G1 X63.683Y61.393
G1 X63.82Y61.406
G1 X63.949Y61.394
G1 X64.065Y61.358
G1 X64.171Y61.299
G1 X64.265Y61.215
G1 X64.342Y61.108
G1 X64.397Y60.978
G1 X64.43Y60.826
G1 X64.441Y60.652
G1 X64.429Y60.481
G1 X64.396Y60.332
G1 X64.34Y60.203
G1 X64.263Y60.095
G1 X64.168Y60.009
G1 X64.064Y59.948
G1 X63.949Y59.911
G1 X63.824Y59.899
G1 X63.7Y59.911
G1 X63.587Y59.947
G1 X63.485Y60.008
G1 X63.393Y60.092
G1 X63.318Y60.2
M3
G1 F100 S1000
G4 P0.2
G1 S0
G0
M3
G0 X65.457Y59.555
M3
G1 F100 S1000
G4 P0.25
G1 S0
G0
M3
G1 X65.419Y59.487S1000F2000
G1 X65.392Y59.395
G1 X65.375Y59.28
G1 Y59.141
G1 X65.392Y58.908
G1 X65.458Y58.756
G1 X65.555Y58.671
G1 X65.673Y58.643
G1 X65.796Y58.671
G1 X65.894Y58.756
G1 X65.932Y58.824
G1 X65.959Y58.915
G1 X65.975Y59.03
G1 Y59.168
G1 X65.959Y59.403
G1 X65.893Y59.556
G1 X65.795Y59.64
G1 X65.675Y59.668
G1 X65.555Y59.64
G1 X65.457Y59.555
M3
G1 F100 S1000
G4 P0.2
G1 S0
G0
M3
G0 X65.151Y59.584
M3
G1 F100 S1000
G4 P0.25
G1 S0
G0
M3
G1 X65.218Y59.696S1000F2000
G1 X65.304Y59.789
G1 X65.407Y59.856
G1 X65.528Y59.896
G1 X65.666Y59.909
G1 X65.794Y59.897
G1 X65.911Y59.861
G1 X66.016Y59.801
G1 X66.11Y59.717
G1 X66.187Y59.61
G1 X66.242Y59.481
G1 X66.275Y59.329
G1 X66.286Y59.154
G1 X66.275Y58.984
G1 X66.241Y58.834
G1 X66.186Y58.705
G1 X66.108Y58.597
G1 X66.014Y58.512
G1 X65.909Y58.451
G1 X65.794Y58.414
G1 X65.668Y58.402
G1 X65.544Y58.414
G1 X65.431Y58.45
G1 X65.328Y58.511
G1 X65.237Y58.595
G1 X65.162Y58.704
G1 X65.108Y58.837
G1 X65.075Y58.994
G1 X65.065Y59.176
G1 Y59.324
G1 X65.103Y59.46
G1 X65.151Y59.584
M3
G1 F100 S1000
G4 P0.2
G1 S0
G0
M3
G0 X66.639Y59.849
M3
G1 F100 S1000
G4 P0.25
G1 S0
G0
M3
G1 X67.326Y61.406S1000F2000
G1 X67.608
G1 X68.298Y59.849
G1 X67.946
G1 X67.466Y61.01
G1 X66.999Y59.849
G1 X66.639
M3
G1 F100 S1000
G4 P0.2
G1 S0
G0
M3
G0 X68.82Y59.457
M3
G1 F100 S1000
G4 P0.25
G1 S0
G0
M3
G1 X68.795Y59.314S1000F2000
G1 X68.83Y59.137
G1 X68.933Y58.954
G1 X69.009Y58.873
G1 X69.1Y58.814
G1 X69.205Y58.779
G1 X69.324Y58.768
G1 X69.484Y58.792
G1 X69.65Y58.866
G1 X69.801Y58.978
G1 X69.919Y59.119
G1 X69.277Y59.915
G1 X69.04Y59.752
G1 X68.894Y59.601
G1 X68.82Y59.457
M3
G1 F100 S1000
G4 P0.2
G1 S0
G0
M3
G0 X69.427Y60.329
M3
G1 F100 S1000
G4 P0.25
G1 S0
G0
M3
G1 X69.615Y60.455S1000F2000
G1 X69.722Y60.564
G1 X69.772Y60.671
G1 X69.789Y60.788
G1 X69.766Y60.92
G1 X69.696Y61.026
G1 X69.593Y61.095
G1 X69.466Y61.119
G1 X69.336Y61.096
G1 X69.23Y61.027
G1 X69.159Y60.926
G1 X69.135Y60.804
G1 Y60.736
G1 X69.17Y60.664
G1 X69.212Y60.589
G1 X69.272Y60.51
G1 X69.427Y60.329
M3
G1 F100 S1000
G4 P0.2
G1 S0
G0
M3
G0 X69.608Y60.103
M3
G1 F100 S1000
G4 P0.25
G1 S0
G0
M3
G1 X70.119Y59.452S1000F2000
G1 X70.197Y59.637
G1 X70.256Y59.849
G1 X70.619Y59.771
G1 X70.509Y59.431
G1 X70.366Y59.156
G1 X70.576Y58.917
G1 X70.812Y58.719
G1 X70.576Y58.441
G1 X70.361Y58.61
G1 X70.139Y58.843
G1 X69.958Y58.675
G1 X69.762Y58.555
G1 X69.549Y58.482
G1 X69.32Y58.458
G1 X69.113Y58.477
G1 X68.928Y58.532
G1 X68.766Y58.625
G1 X68.626Y58.754
G1 X68.535Y58.878
G1 X68.47Y59.009
G1 X68.431Y59.147
G1 X68.418Y59.293
G1 X68.429Y59.422
G1 X68.46Y59.544
G1 X68.514Y59.66
G1 X68.588Y59.77
G1 X68.8Y59.97
G1 X69.097Y60.144
G1 X68.936Y60.345
G1 X68.84Y60.504
G1 X68.792Y60.64
G1 X68.776Y60.77
G1 X68.788Y60.895
G1 X68.826Y61.01
G1 X68.889Y61.118
G1 X68.977Y61.217
G1 X69.084Y61.3
G1 X69.204Y61.359
G1 X69.337Y61.394
G1 X69.484Y61.406
G1 X69.623Y61.395
G1 X69.749Y61.362
G1 X69.861Y61.306
G1 X69.961Y61.227
G1 X70.042Y61.133
G1 X70.1Y61.031
G1 X70.135Y60.919
G1 X70.147Y60.798
G1 X70.113Y60.602
G1 X70.012Y60.421
G1 X69.844Y60.255
G1 X69.608Y60.103
M3
G1 F100 S1000
G4 P0.2
G1 S0
G0
M3
G0 X71.193Y60.358
M3
G1 F100 S1000
G4 P0.25
G1 S0
G0
M3
G1 X71.298Y60.485S1000F2000
G1 X71.387Y60.589
G1 X71.459Y60.669
G1 X71.516Y60.726
G1 X71.271Y60.777
G1 X71.04Y60.835
G1 X71.129Y61.111
G1 X71.396Y61.009
G1 X71.578Y60.922
G1 X71.55Y61.219
G1 Y61.326
G1 X71.539Y61.406
G1 X71.821
G1 X71.807Y61.19
G1 X71.777Y60.924
G1 X71.991Y61.021
G1 X72.235Y61.111
G1 X72.325Y60.835
G1 X72.08Y60.767
G1 X71.841Y60.726
G1 X71.984Y60.582
G1 X72.175Y60.358
G1 X71.942Y60.193
G1 X71.819Y60.374
G1 X71.675Y60.611
G1 X71.54Y60.369
G1 X71.423Y60.193
G1 X71.193Y60.358
M3
G1 F100 S1000
G4 P0.2
G1 S0
G0
M3
G0 X72.794Y60.212
M3
G1 F100 S1000
G4 P0.25
G1 S0
G0
M3
G1 X72.859Y60.426S1000F2000
G1 X72.959Y60.672
G1 X73.082Y60.917
G1 X73.229Y61.162
G1 X73.4Y61.406
G1 X73.651
G1 X73.543Y61.219
G1 X73.455Y61.06
G1 X73.387Y60.93
G1 X73.339Y60.829
G1 X73.233Y60.555
G1 X73.153Y60.269
G1 X73.09Y59.904
G1 X73.069Y59.538
G1 X73.106Y59.07
G1 X73.215Y58.603
G1 X73.396Y58.136
G1 X73.651Y57.669
G1 X73.4
G1 X73.132Y58.066
G1 X72.91Y58.524
G1 X72.822Y58.772
G1 X72.759Y59.023
G1 X72.722Y59.279
G1 X72.709Y59.54
G1 Y59.768
G1 X72.747Y59.993
G1 X72.794Y60.212
M3
G1 F100 S1000
G4 P0.2
G1 S0
G0
M3
G0 X74.442Y60.549
M3
G1 F100 S1000
G4 P0.25
G1 S0
G0
M3
G1 X74.337Y60.823S1000F2000
G1 X74.289Y60.925
G1 X74.221Y61.056
G1 X74.132Y61.217
G1 X74.024Y61.406
G1 X74.275
G1 X74.445Y61.162
G1 X74.592Y60.917
G1 X74.716Y60.672
G1 X74.815Y60.426
G1 X74.881Y60.212
G1 X74.927Y59.993
G1 X74.955Y59.768
G1 Y59.54
G1 Y59.279
G1 X74.915Y59.023
G1 X74.852Y58.772
G1 X74.764Y58.524
G1 X74.541Y58.066
G1 X74.275Y57.669
G1 X74.024
G1 X74.278Y58.136
G1 X74.46Y58.603
G1 X74.569Y59.07
G1 X74.605Y59.538
G1 X74.584Y59.902
G1 X74.521Y60.263
G1 X74.442Y60.549
M3
G1 F100 S1000
G4 P0.2
G1 S0
G0
M3
G0 X74.026Y62.581
M3
G1 F100 S1000
G4 P0.25
G1 S0
G0
M3
G1 X73.83S1000F2000
G1 X73.638
G1 X73.465Y62.606
G1 X73.311Y62.649
G1 X73.174Y62.709
G1 X73.056Y62.786
G1 X72.956Y62.878
G1 X72.874Y62.986
G1 X72.811Y63.109
G1 X72.763Y63.252
G1 X72.729Y63.418
G1 X72.709Y63.609
G1 Y63.823
G1 Y65.47
G1 X73.079
G1 Y63.825
G1 Y63.652
G1 X73.096Y63.503
G1 X73.118Y63.378
G1 X73.148Y63.278
G1 X73.242Y63.122
G1 X73.385Y63.007
G1 X73.572Y62.935
G1 X73.797Y62.911
G1 X73.99Y62.923
G1 X74.153Y62.959
G1 X74.286Y63.017
G1 X74.39Y63.1
G1 X74.467Y63.216
G1 X74.522Y63.376
G1 X74.556Y63.579
G1 X74.567Y63.825
G1 Y65.47
G1 X74.944
G1 Y63.823
G1 Y63.62
G1 X74.92Y63.438
G1 X74.889Y63.278
G1 X74.847Y63.141
G1 X74.788Y63.02
G1 X74.71Y62.912
G1 X74.613Y62.815
G1 X74.496Y62.73
G1 X74.359Y62.66
G1 X74.202Y62.611
G1 X74.026Y62.581
M3
G1 F100 S1000
G4 P0.2
G1 S0
G0
M3
G0 X71.329Y62.62
M3
G1 F100 S1000
G4 P0.25
G1 S0
G0
M3
G1 X70.952S1000F2000
G1 Y65.134
G1 X70.013
G1 Y65.47
G1 X72.272
G1 Y65.134
G1 X71.329
G1 Y62.62
M3
G1 F100 S1000
G4 P0.2
G1 S0
G0
M3
G0 X69.569Y62.996
M3
G1 F100 S1000
G4 P0.25
G1 S0
G0
M3
G1 X69.41Y62.817S1000F2000
G1 X69.195Y62.683
G1 X68.935Y62.599
G1 X68.645Y62.571
G1 X68.29Y62.599
G1 X67.997Y62.684
G1 X67.873Y62.747
G1 X67.764Y62.825
G1 X67.668Y62.917
G1 X67.587Y63.023
G1 X67.521Y63.14
G1 X67.473Y63.265
G1 X67.443Y63.396
G1 X67.43Y63.536
G1 X67.786Y63.567
G1 X67.828Y63.372
G1 X67.904Y63.216
G1 X68.021Y63.092
G1 X68.19Y62.994
G1 X68.397Y62.931
G1 X68.628Y62.909
G1 X68.831Y62.925
G1 X69.009Y62.974
G1 X69.153Y63.05
G1 X69.255Y63.15
G1 X69.316Y63.267
G1 X69.336Y63.394
G1 X69.316Y63.519
G1 X69.258Y63.628
G1 X69.155Y63.72
G1 X69.001Y63.796
G1 X68.927Y63.822
G1 X68.817Y63.853
G1 X68.673Y63.891
G1 X68.312Y63.982
G1 X68.16Y64.027
G1 X68.037Y64.071
G1 X67.943Y64.113
G1 X67.765Y64.233
G1 X67.639Y64.379
G1 X67.564Y64.547
G1 X67.539Y64.733
G1 X67.57Y64.942
G1 X67.661Y65.137
G1 X67.812Y65.302
G1 X68.019Y65.422
G1 X68.268Y65.495
G1 X68.542Y65.519
G1 X68.841Y65.494
G1 X69.101Y65.417
G1 X69.316Y65.291
G1 X69.474Y65.117
G1 X69.574Y64.905
G1 X69.614Y64.667
G1 X69.252Y64.64
G1 X69.229Y64.767
G1 X69.188Y64.877
G1 X69.13Y64.971
G1 X69.055Y65.049
G1 X68.961Y65.109
G1 X68.846Y65.152
G1 X68.712Y65.178
G1 X68.558
G1 X68.398
G1 X68.262Y65.155
G1 X68.149Y65.116
G1 X68.059Y65.061
G1 X67.991Y64.995
G1 X67.942Y64.923
G1 X67.912Y64.844
G1 Y64.759
G1 X67.93Y64.619
G1 X68.013Y64.506
G1 X68.09Y64.456
G1 X68.21Y64.406
G1 X68.374Y64.354
G1 X68.582Y64.303
G1 X68.794Y64.252
G1 X68.97Y64.205
G1 X69.11Y64.161
G1 X69.213Y64.121
G1 X69.43Y63.991
G1 X69.581Y63.83
G1 X69.67Y63.641
G1 X69.699Y63.425
G1 X69.667Y63.204
G1 X69.569Y62.996
M3
G1 F100 S1000
G4 P0.2
G1 S0
G0
M3
G0 X66.418Y64.335
M3
G1 F100 S1000
G4 P0.25
G1 S0
G0
M3
G1 X66.511Y64.437S1000F2000
G1 X66.568Y64.56
G1 X66.587Y64.693
G1 Y64.789
G1 X66.55Y64.877
G1 X66.504Y64.956
G1 X66.44Y65.025
G1 X66.356Y65.082
G1 X66.251Y65.123
G1 X66.124Y65.147
G1 X65.976
G1 X65.074
G1 Y64.212
G1 X65.885
G1 X66.115Y64.226
G1 X66.289Y64.266
G1 X66.418Y64.335
M3
G1 F100 S1000
G4 P0.2
G1 S0
G0
M3
G0 X66.779Y64.181
M3
G1 F100 S1000
G4 P0.25
G1 S0
G0
M3
G1 X66.668Y64.087S1000F2000
G1 X66.53Y64.011
G1 X66.365Y63.954
G1 X66.173Y63.917
G1 X66.305Y63.845
G1 X66.4Y63.775
G1 X66.561Y63.604
G1 X66.713Y63.396
G1 X67.209Y62.62
G1 X66.735
G1 X66.357Y63.213
G1 X66.207Y63.439
G1 X66.085Y63.606
G1 X65.984Y63.721
G1 X65.894Y63.796
G1 X65.808Y63.842
G1 X65.722Y63.872
G1 X65.637Y63.882
G1 X65.512
G1 X65.074
G1 Y62.62
G1 X64.697
G1 Y65.47
G1 X65.961
G1 X66.296Y65.451
G1 X66.54Y65.394
G1 X66.719Y65.287
G1 X66.857Y65.122
G1 X66.946Y64.918
G1 X66.976Y64.693
G1 X66.964Y64.547
G1 X66.927Y64.413
G1 X66.865Y64.291
G1 X66.779Y64.181
M3
G1 F100 S1000
G4 P0.2
G1 S0
G0
M3
G0 X63.786Y64.047
M3
G1 F100 S1000
G4 P0.25
G1 S0
G0
M3
G1 X63.756Y64.371S1000F2000
G1 X63.668Y64.652
G1 X63.603Y64.774
G1 X63.523Y64.882
G1 X63.43Y64.975
G1 X63.324Y65.053
G1 X63.207Y65.116
G1 X63.084Y65.161
G1 X62.953Y65.187
G1 X62.816
G1 X62.614
G1 X62.43Y65.124
G1 X62.263Y65.034
G1 X62.115Y64.908
G1 X61.994Y64.745
G1 X61.907Y64.548
G1 X61.855Y64.314
G1 X61.837Y64.045
G1 X61.855Y63.783
G1 X61.906Y63.554
G1 X61.992Y63.356
G1 X62.113Y63.191
G1 X62.26Y63.061
G1 X62.426Y62.968
G1 X62.611Y62.912
G1 X62.816Y62.894
G1 X63.012Y62.913
G1 X63.197Y62.97
G1 X63.015Y63.068
G1 X62.823Y63.133
G1 X62.915Y63.407
G1 X63.213Y63.293
G1 X63.453Y63.135
G1 X63.599Y63.306
G1 X63.703Y63.515
G1 X63.765Y63.762
G1 X63.786Y64.047
M3
G1 F100 S1000
G4 P0.2
G1 S0
G0
M3
G0 X64.175Y64.047
M3
G1 F100 S1000
G4 P0.25
G1 S0
G0
M3
G1 X64.148Y63.713S1000F2000
G1 X64.068Y63.414
G1 X63.934Y63.151
G1 X63.745Y62.925
G1 X63.997Y62.768
G1 X64.229Y62.661
G1 X64.118Y62.398
G1 X63.812Y62.541
G1 X63.506Y62.748
G1 X63.343Y62.671
G1 X63.172Y62.615
G1 X62.993Y62.582
G1 X62.806Y62.571
G1 X62.617Y62.583
G1 X62.437Y62.618
G1 X62.266Y62.676
G1 X62.104Y62.758
G1 X61.955Y62.861
G1 X61.825Y62.982
G1 X61.713Y63.123
G1 X61.619Y63.283
G1 X61.544Y63.457
G1 X61.491Y63.643
G1 X61.459Y63.838
G1 X61.448Y64.045
G1 X61.459Y64.251
G1 X61.491Y64.448
G1 X61.545Y64.635
G1 X61.62Y64.813
G1 X61.714Y64.976
G1 X61.827Y65.118
G1 X61.958Y65.239
G1 X62.107Y65.34
G1 X62.269Y65.419
G1 X62.441Y65.476
G1 X62.623Y65.51
G1 X62.814Y65.521
G1 X63.006Y65.509
G1 X63.189Y65.474
G1 X63.362Y65.415
G1 X63.525Y65.333
G1 X63.674Y65.23
G1 X63.805Y65.108
G1 X63.916Y64.968
G1 X64.009Y64.808
G1 X64.081Y64.634
G1 X64.133Y64.449
G1 X64.164Y64.254
G1 X64.175Y64.047
M3
G1 F100 S1000
G4 P0.2
G1 S0
G0
M3
G0 X60.694Y64.518
M3
G1 F100 S1000
G4 P0.25
G1 S0
G0
M3
G1 Y64.634S1000F2000
G1 X60.681Y64.8
G1 X60.613Y64.941
G1 X60.508Y65.046
G1 X60.375Y65.109
G1 X60.239Y65.128
G1 X60.023
G1 X59.294
G1 Y64.115
G1 X60.031
G1 X60.2
G1 X60.343Y64.149
G1 X60.46Y64.192
G1 X60.55Y64.251
G1 X60.617Y64.326
G1 X60.665Y64.415
G1 X60.694Y64.518
M3
G1 F100 S1000
G4 P0.2
G1 S0
G0
M3
G0 X61.078Y64.471
M3
G1 F100 S1000
G4 P0.25
G1 S0
G0
M3
G1 X61.034Y64.31S1000F2000
G1 X60.962Y64.163
G1 X60.861Y64.03
G1 X60.722Y63.92
G1 X60.536Y63.842
G1 X60.304Y63.794
G1 X60.025Y63.779
G1 X59.294
G1 Y62.62
G1 X58.916
G1 Y65.47
G1 X59.992
G1 X60.242
G1 X60.425Y65.443
G1 X60.618Y65.392
G1 X60.777Y65.31
G1 X60.905Y65.192
G1 X61.006Y65.035
G1 X61.071Y64.849
G1 X61.092Y64.646
G1 X61.078Y64.471
M3
G1 F100 S1000
G4 P0.2
G1 S0
G0
M3
G0 X58.003Y64.369
M3
G1 F100 S1000
G4 P0.25
G1 S0
G0
M3
G1 X57.915Y64.651S1000F2000
G1 X57.849Y64.773
G1 X57.77Y64.881
G1 X57.677Y64.975
G1 X57.571Y65.053
G1 X57.454Y65.116
G1 X57.33Y65.161
G1 X57.2Y65.187
G1 X57.062
G1 X56.869
G1 X56.69Y65.127
G1 X56.524Y65.042
G1 X56.373Y64.921
G1 X56.247Y64.761
G1 X56.156Y64.554
G1 X56.102Y64.301
G1 X56.084Y64.002
G1 X56.101Y63.758
G1 X56.153Y63.542
G1 X56.24Y63.352
G1 X56.361Y63.19
G1 X56.509Y63.061
G1 X56.674Y62.968
G1 X56.856Y62.912
G1 X57.056Y62.894
G1 X57.26Y62.913
G1 X57.445Y62.969
G1 X57.61Y63.062
G1 X57.757Y63.193
G1 X57.878Y63.359
G1 X57.964Y63.556
G1 X58.015Y63.784
G1 X58.033Y64.043
G1 X58.003Y64.369
M3
G1 F100 S1000
G4 P0.2
G1 S0
G0
M3
G0 X58.38Y64.446
M3
G1 F100 S1000
G4 P0.25
G1 S0
G0
M3
G1 X58.411Y64.249S1000F2000
G1 X58.421Y64.041
G1 X58.411Y63.83
G1 X58.378Y63.63
G1 X58.323Y63.442
G1 X58.246Y63.265
G1 X58.15Y63.105
G1 X58.035Y62.965
G1 X57.902Y62.845
G1 X57.751Y62.747
G1 X57.587Y62.67
G1 X57.417Y62.615
G1 X57.241Y62.582
G1 X57.058Y62.571
G1 X56.862Y62.583
G1 X56.677Y62.62
G1 X56.503Y62.68
G1 X56.339Y62.766
G1 X56.19Y62.872
G1 X56.06Y62.995
G1 X55.95Y63.137
G1 X55.859Y63.296
G1 X55.787Y63.467
G1 X55.736Y63.643
G1 X55.705Y63.823
G1 Y64.008
G1 X55.719Y64.344
G1 X55.79Y64.641
G1 X55.91Y64.899
G1 X56.076Y65.119
G1 X56.281Y65.295
G1 X56.513Y65.421
G1 X56.773Y65.496
G1 X57.06Y65.521
G1 X57.253Y65.509
G1 X57.436Y65.474
G1 X57.609Y65.415
G1 X57.772Y65.332
G1 X57.921Y65.229
G1 X58.051Y65.107
G1 X58.163Y64.966
G1 X58.255Y64.806
G1 X58.328Y64.632
G1 X58.38Y64.446
M3
G1 F100 S1000
G4 P0.2
G1 S0
G0
M3
G0 X55.185Y65.47
M3
G1 F100 S1000
G4 P0.25
G1 S0
G0
M3
G1 Y62.62S1000F2000
G1 X54.798
G1 X53.3Y64.86
G1 Y62.62
G1 X52.939
G1 Y65.47
G1 X53.326
G1 X54.823Y63.232
G1 Y65.47
G1 X55.185
M3
G1 F100 S1000
G4 P0.2
G1 S0
G0
M3
G0 X52.346Y65.47
M3
G1 F100 S1000
G4 P0.25
G1 S0
G0
M3
G1 Y62.62S1000F2000
G1 X51.982
G1 Y65.006
G1 X51.154Y62.62
G1 X50.813
G1 X49.989Y65.047
G1 Y62.62
G1 X49.625
G1 Y65.47
G1 X50.193
G1 X50.868Y63.452
G1 X50.949Y63.206
G1 X51.004Y63.03
G1 X51.066Y63.222
G1 X51.156Y63.487
G1 X51.838Y65.47
G1 X52.346
M3
G1 F100 S1000
G4 P0.2
G1 S0
G0
M3
G0 X47.768Y65.47
M3
G1 F100 S1000
G4 P0.25
G1 S0
G0
M3
G1 Y62.956S1000F2000
G1 X49.172
G1 Y62.62
G1 X47.391
G1 Y65.47
G1 X47.768
M3
G1 F100 S1000
G4 P0.2
G1 S0
G0
M3
G0 X47.027Y65.47
M3
G1 F100 S1000
G4 P0.25
G1 S0
G0
M3
G1 X45.831Y64.315S1000F2000
G1 X47.08Y62.62
G1 X46.582
G1 X45.567Y64.063
G1 X45.1Y63.608
G1 Y62.62
G1 X44.723
G1 Y65.47
G1 X45.1
G1 Y64.057
G1 X46.516Y65.47
G1 X47.027
M3
G1 F100 S1000
G4 P0.2
G1 S0
G0
M3
G0 X44.246Y65.47
M3
G1 F100 S1000
G4 P0.25
G1 S0
G0
M3
G1 Y63.528S1000F2000
G1 X44.225Y63.21
G1 X44.16Y62.974
G1 X44.048Y62.801
G1 X43.886Y62.674
G1 X43.682Y62.597
G1 X43.445Y62.571
G1 X43.269Y62.585
G1 X43.114Y62.625
G1 X42.981Y62.692
G1 X42.871Y62.787
G1 X42.784Y62.908
G1 X42.723Y63.055
G1 X42.688Y63.229
G1 Y63.429
G1 X43.019Y63.475
G1 X43.032Y63.325
G1 X43.057Y63.2
G1 X43.093Y63.101
G1 X43.142Y63.028
G1 X43.272Y62.938
G1 X43.443Y62.907
G1 X43.575Y62.924
G1 X43.688Y62.973
G1 X43.775Y63.049
G1 X43.83Y63.15
G1 X43.859Y63.295
G1 X43.869Y63.506
G1 Y65.47
G1 X44.246
M3
G1 F100 S1000
G4 P0.2
G1 S0
G0
M3
G0 X42.273Y65.47
M3
G1 F100 S1000
G4 P0.25
G1 S0
G0
M3
G1 Y62.62S1000F2000
G1 X41.895
G1 Y65.47
G1 X42.273
M3
G1 F100 S1000
G4 P0.2
G1 S0
G0
M3
G0 X41.212Y65.47
M3
G1 F100 S1000
G4 P0.25
G1 S0
G0
M3
G1 Y62.62S1000F2000
G1 X40.834
G1 Y63.963
G1 X39.353
G1 Y62.62
G1 X38.975
G1 Y65.47
G1 X39.353
G1 Y64.3
G1 X40.834
G1 Y65.47
G1 X41.212
M3
G1 F100 S1000
G4 P0.2
G1 S0
G0
M3
