; LightBurn 1.4.00
; GRBL device profile, absolute coords
; Bounds: X10 Y10 to X580 Y407.24
G00 G17 G40 G21 G54
G90
M4
; Cut @ 1999.998 mm/min, 100% power
M8
G0 X10Y10.02
M3
G0 Z0
M3
G1 F100 S1000
G4 P0.25
G1 S0
G0
M3
; Layer C00
G1 X59.617Y59.551S1000F2000
G1 X10Y10.02
M3
G1 F100 S1000
G4 P0.2
G1 S0
G0
M3
G0 X10Y10.029
M3
G1 F100 S1000
G4 P0.25
G1 S0
G0
M3
G1 X10.061Y59.68S1000F2000
G1 X10Y10.029
M3
G1 F100 S1000
G4 P0.2
G1 S0
G0
M3
G0 X10Y10.03
M3
G1 F100 S1000
G4 P0.25
G1 S0
G0
M3
G1 X59.651S1000F2000
M3
G1 F100 S1000
G4 P0.2
G1 S0
G0
M3
G0 X59.689Y10.025
M3
G1 F100 S1000
G4 P0.25
G1 S0
G0
M3
G1 Y13.004S1000F2000
M3
G1 F100 S1000
G4 P0.2
G1 S0
G0
M3
G0 X58.764Y11.514
M3
G1 F100 S1000
G4 P0.25
G1 S0
G0
M3
G1 Y10.025S1000F2000
M3
G1 F100 S1000
G4 P0.2
G1 S0
G0
M3
G0 X57.755Y10.025
M3
G1 F100 S1000
G4 P0.25
G1 S0
G0
M3
G1 Y11.514S1000F2000
M3
G1 F100 S1000
G4 P0.2
G1 S0
G0
M3
G0 X56.746Y11.514
M3
G1 F100 S1000
G4 P0.25
G1 S0
G0
M3
G1 Y10.025S1000F2000
M3
G1 F100 S1000
G4 P0.2
G1 S0
G0
M3
G0 X55.737Y10.025
M3
G1 F100 S1000
G4 P0.25
G1 S0
G0
M3
G1 Y11.514S1000F2000
M3
G1 F100 S1000
G4 P0.2
G1 S0
G0
M3
G0 X53.804Y11.514
M3
G1 F100 S1000
G4 P0.25
G1 S0
G0
M3
G1 Y10.025S1000F2000
M3
G1 F100 S1000
G4 P0.2
G1 S0
G0
M3
G0 X52.795Y10.025
M3
G1 F100 S1000
G4 P0.25
G1 S0
G0
M3
G1 Y11.514S1000F2000
M3
G1 F100 S1000
G4 P0.2
G1 S0
G0
M3
G0 X51.786Y11.514
M3
G1 F100 S1000
G4 P0.25
G1 S0
G0
M3
G1 Y10.025S1000F2000
M3
G1 F100 S1000
G4 P0.2
G1 S0
G0
M3
G0 X50.777Y10.025
M3
G1 F100 S1000
G4 P0.25
G1 S0
G0
M3
G1 Y11.514S1000F2000
M3
G1 F100 S1000
G4 P0.2
G1 S0
G0
M3
G0 X48.843Y11.514
M3
G1 F100 S1000
G4 P0.25
G1 S0
G0
M3
G1 Y10.025S1000F2000
M3
G1 F100 S1000
G4 P0.2
G1 S0
G0
M3
G0 X47.834Y10.025
M3
G1 F100 S1000
G4 P0.25
G1 S0
G0
M3
G1 Y11.514S1000F2000
M3
G1 F100 S1000
G4 P0.2
G1 S0
G0
M3
G0 X46.825Y11.514
M3
G1 F100 S1000
G4 P0.25
G1 S0
G0
M3
G1 Y10.025S1000F2000
M3
G1 F100 S1000
G4 P0.2
G1 S0
G0
M3
G0 X45.816Y10.025
M3
G1 F100 S1000
G4 P0.25
G1 S0
G0
M3
G1 Y11.514S1000F2000
M3
G1 F100 S1000
G4 P0.2
G1 S0
G0
M3
G0 X43.883Y11.514
M3
G1 F100 S1000
G4 P0.25
G1 S0
G0
M3
G1 Y10.025S1000F2000
M3
G1 F100 S1000
G4 P0.2
G1 S0
G0
M3
G0 X42.874Y10.025
M3
G1 F100 S1000
G4 P0.25
G1 S0
G0
M3
G1 Y11.514S1000F2000
M3
G1 F100 S1000
G4 P0.2
G1 S0
G0
M3
G0 X41.865Y11.514
M3
G1 F100 S1000
G4 P0.25
G1 S0
G0
M3
G1 Y10.025S1000F2000
M3
G1 F100 S1000
G4 P0.2
G1 S0
G0
M3
G0 X40.856Y10.025
M3
G1 F100 S1000
G4 P0.25
G1 S0
G0
M3
G1 Y11.514S1000F2000
M3
G1 F100 S1000
G4 P0.2
G1 S0
G0
M3
G0 X38.922Y11.514
M3
G1 F100 S1000
G4 P0.25
G1 S0
G0
M3
G1 Y10.025S1000F2000
M3
G1 F100 S1000
G4 P0.2
G1 S0
G0
M3
G0 X38.922Y10.025
M3
G1 F100 S1000
G4 P0.25
G1 S0
G0
M3
G1 Y11.514S1000F2000
M3
G1 F100 S1000
G4 P0.2
G1 S0
G0
M3
G0 X37.913Y11.514
M3
G1 F100 S1000
G4 P0.25
G1 S0
G0
M3
G1 Y10.025S1000F2000
M3
G1 F100 S1000
G4 P0.2
G1 S0
G0
M3
G0 X37.913Y10.025
M3
G1 F100 S1000
G4 P0.25
G1 S0
G0
M3
G1 Y11.514S1000F2000
M3
G1 F100 S1000
G4 P0.2
G1 S0
G0
M3
G0 X36.904Y11.514
M3
G1 F100 S1000
G4 P0.25
G1 S0
G0
M3
G1 Y10.025S1000F2000
M3
G1 F100 S1000
G4 P0.2
G1 S0
G0
M3
G0 X36.904Y10.025
M3
G1 F100 S1000
G4 P0.25
G1 S0
G0
M3
G1 Y11.514S1000F2000
M3
G1 F100 S1000
G4 P0.2
G1 S0
G0
M3
G0 X35.895Y11.514
M3
G1 F100 S1000
G4 P0.25
G1 S0
G0
M3
G1 Y10.025S1000F2000
M3
G1 F100 S1000
G4 P0.2
G1 S0
G0
M3
G0 X35.895Y10.025
M3
G1 F100 S1000
G4 P0.25
G1 S0
G0
M3
G1 Y11.514S1000F2000
M3
G1 F100 S1000
G4 P0.2
G1 S0
G0
M3
G0 X33.962Y11.514
M3
G1 F100 S1000
G4 P0.25
G1 S0
G0
M3
G1 Y10.025S1000F2000
M3
G1 F100 S1000
G4 P0.2
G1 S0
G0
M3
G0 X32.953Y10.025
M3
G1 F100 S1000
G4 P0.25
G1 S0
G0
M3
G1 Y11.514S1000F2000
M3
G1 F100 S1000
G4 P0.2
G1 S0
G0
M3
G0 X31.944Y11.514
M3
G1 F100 S1000
G4 P0.25
G1 S0
G0
M3
G1 Y10.025S1000F2000
M3
G1 F100 S1000
G4 P0.2
G1 S0
G0
M3
G0 X30.935Y10.025
M3
G1 F100 S1000
G4 P0.25
G1 S0
G0
M3
G1 Y11.514S1000F2000
M3
G1 F100 S1000
G4 P0.2
G1 S0
G0
M3
G0 X29.001Y11.514
M3
G1 F100 S1000
G4 P0.25
G1 S0
G0
M3
G1 Y10.025S1000F2000
M3
G1 F100 S1000
G4 P0.2
G1 S0
G0
M3
G0 X30.01Y10.025
M3
G1 F100 S1000
G4 P0.25
G1 S0
G0
M3
G1 Y13.004S1000F2000
M3
G1 F100 S1000
G4 P0.2
G1 S0
G0
M3
G0 X27.992Y11.514
M3
G1 F100 S1000
G4 P0.25
G1 S0
G0
M3
G1 Y10.025S1000F2000
M3
G1 F100 S1000
G4 P0.2
G1 S0
G0
M3
G0 X26.983Y10.025
M3
G1 F100 S1000
G4 P0.25
G1 S0
G0
M3
G1 Y11.514S1000F2000
M3
G1 F100 S1000
G4 P0.2
G1 S0
G0
M3
G0 X25.974Y11.514
M3
G1 F100 S1000
G4 P0.25
G1 S0
G0
M3
G1 Y10.025S1000F2000
M3
G1 F100 S1000
G4 P0.2
G1 S0
G0
M3
G0 X25.05Y10.025
M3
G1 F100 S1000
G4 P0.25
G1 S0
G0
M3
G1 Y13.004S1000F2000
M3
G1 F100 S1000
G4 P0.2
G1 S0
G0
M3
G0 X24.041Y11.514
M3
G1 F100 S1000
G4 P0.25
G1 S0
G0
M3
G1 Y10.025S1000F2000
M3
G1 F100 S1000
G4 P0.2
G1 S0
G0
M3
G0 X23.032Y10.025
M3
G1 F100 S1000
G4 P0.25
G1 S0
G0
M3
G1 Y11.514S1000F2000
M3
G1 F100 S1000
G4 P0.2
G1 S0
G0
M3
G0 X22.023Y11.514
M3
G1 F100 S1000
G4 P0.25
G1 S0
G0
M3
G1 Y10.025S1000F2000
M3
G1 F100 S1000
G4 P0.2
G1 S0
G0
M3
G0 X21.014Y10.025
M3
G1 F100 S1000
G4 P0.25
G1 S0
G0
M3
G1 Y11.514S1000F2000
M3
G1 F100 S1000
G4 P0.2
G1 S0
G0
M3
G0 X19.08Y11.514
M3
G1 F100 S1000
G4 P0.25
G1 S0
G0
M3
G1 Y10.025S1000F2000
M3
G1 F100 S1000
G4 P0.2
G1 S0
G0
M3
G0 X18.071Y10.025
M3
G1 F100 S1000
G4 P0.25
G1 S0
G0
M3
G1 Y11.514S1000F2000
M3
G1 F100 S1000
G4 P0.2
G1 S0
G0
M3
G0 X17.062Y11.514
M3
G1 F100 S1000
G4 P0.25
G1 S0
G0
M3
G1 Y10.025S1000F2000
M3
G1 F100 S1000
G4 P0.2
G1 S0
G0
M3
G0 X16.053Y10.025
M3
G1 F100 S1000
G4 P0.25
G1 S0
G0
M3
G1 Y11.514S1000F2000
M3
G1 F100 S1000
G4 P0.2
G1 S0
G0
M3
G0 X14.036Y11.514
M3
G1 F100 S1000
G4 P0.25
G1 S0
G0
M3
G1 Y10.025S1000F2000
M3
G1 F100 S1000
G4 P0.2
G1 S0
G0
M3
G0 X13.027Y10.025
M3
G1 F100 S1000
G4 P0.25
G1 S0
G0
M3
G1 Y11.514S1000F2000
M3
G1 F100 S1000
G4 P0.2
G1 S0
G0
M3
G0 X12.874Y11.802
M3
G1 F100 S1000
G4 P0.25
G1 S0
G0
M3
G1 X11.82Y12.855S1000F2000
M3
G1 F100 S1000
G4 P0.2
G1 S0
G0
M3
G0 X11.49Y13.052
M3
G1 F100 S1000
G4 P0.25
G1 S0
G0
M3
G1 X10S1000F2000
M3
G1 F100 S1000
G4 P0.2
G1 S0
G0
M3
G0 X10Y12.043
M3
G1 F100 S1000
G4 P0.25
G1 S0
G0
M3
G1 X11.49S1000F2000
M3
G1 F100 S1000
G4 P0.2
G1 S0
G0
M3
G0 X11.009Y11.514
M3
G1 F100 S1000
G4 P0.25
G1 S0
G0
M3
G1 Y10.025S1000F2000
M3
G1 F100 S1000
G4 P0.2
G1 S0
G0
M3
G0 X12.018Y10.025
M3
G1 F100 S1000
G4 P0.25
G1 S0
G0
M3
G1 Y11.514S1000F2000
M3
G1 F100 S1000
G4 P0.2
G1 S0
G0
M3
G0 X11.49Y11.034
M3
G1 F100 S1000
G4 P0.25
G1 S0
G0
M3
G1 X10S1000F2000
M3
G1 F100 S1000
G4 P0.2
G1 S0
G0
M3
G0 X13.587Y12.515
M3
G1 F100 S1000
G4 P0.25
G1 S0
G0
M3
G1 X12.534Y13.568S1000F2000
M3
G1 F100 S1000
G4 P0.2
G1 S0
G0
M3
G0 X11.49Y14.06
M3
G1 F100 S1000
G4 P0.25
G1 S0
G0
M3
G1 X10S1000F2000
M3
G1 F100 S1000
G4 P0.2
G1 S0
G0
M3
G0 X10Y14.985
M3
G1 F100 S1000
G4 P0.25
G1 S0
G0
M3
G1 X12.979S1000F2000
M3
G1 F100 S1000
G4 P0.2
G1 S0
G0
M3
G0 X13.961Y14.995
M3
G1 F100 S1000
G4 P0.25
G1 S0
G0
M3
G1 X15.014Y13.942S1000F2000
M3
G1 F100 S1000
G4 P0.2
G1 S0
G0
M3
G0 X16.232Y14.151
M3
G1 F100 S1000
G4 P0.25
G1 S0
G0
M3
G1 X14.125Y16.257S1000F2000
M3
G1 F100 S1000
G4 P0.2
G1 S0
G0
M3
G0 X15.387Y16.422
M3
G1 F100 S1000
G4 P0.25
G1 S0
G0
M3
G1 X16.441Y15.368S1000F2000
M3
G1 F100 S1000
G4 P0.2
G1 S0
G0
M3
G0 X17.154Y16.082
M3
G1 F100 S1000
G4 P0.25
G1 S0
G0
M3
G1 X16.101Y17.135S1000F2000
M3
G1 F100 S1000
G4 P0.2
G1 S0
G0
M3
G0 X16.814Y17.848
M3
G1 F100 S1000
G4 P0.25
G1 S0
G0
M3
G1 X17.868Y16.795S1000F2000
M3
G1 F100 S1000
G4 P0.2
G1 S0
G0
M3
G0 X18.581Y17.509
M3
G1 F100 S1000
G4 P0.25
G1 S0
G0
M3
G1 X17.528Y18.562S1000F2000
M3
G1 F100 S1000
G4 P0.2
G1 S0
G0
M3
G0 X17.692Y19.825
M3
G1 F100 S1000
G4 P0.25
G1 S0
G0
M3
G1 X19.799Y17.718S1000F2000
M3
G1 F100 S1000
G4 P0.2
G1 S0
G0
M3
G0 X19.948Y18.876
M3
G1 F100 S1000
G4 P0.25
G1 S0
G0
M3
G1 X18.895Y19.929S1000F2000
M3
G1 F100 S1000
G4 P0.2
G1 S0
G0
M3
G0 X19.608Y20.643
M3
G1 F100 S1000
G4 P0.25
G1 S0
G0
M3
G1 X20.662Y19.59S1000F2000
M3
G1 F100 S1000
G4 P0.2
G1 S0
G0
M3
G0 X21.375Y20.303
M3
G1 F100 S1000
G4 P0.25
G1 S0
G0
M3
G1 X20.322Y21.356S1000F2000
M3
G1 F100 S1000
G4 P0.2
G1 S0
G0
M3
G0 X21.035Y22.07
M3
G1 F100 S1000
G4 P0.25
G1 S0
G0
M3
G1 X22.088Y21.017S1000F2000
M3
G1 F100 S1000
G4 P0.2
G1 S0
G0
M3
G0 X23.306Y21.226
M3
G1 F100 S1000
G4 P0.25
G1 S0
G0
M3
G1 X21.2Y23.332S1000F2000
M3
G1 F100 S1000
G4 P0.2
G1 S0
G0
M3
G0 X22.403Y23.437
M3
G1 F100 S1000
G4 P0.25
G1 S0
G0
M3
G1 X23.456Y22.384S1000F2000
M3
G1 F100 S1000
G4 P0.2
G1 S0
G0
M3
G0 X24.169Y23.098
M3
G1 F100 S1000
G4 P0.25
G1 S0
G0
M3
G1 X23.116Y24.151S1000F2000
M3
G1 F100 S1000
G4 P0.2
G1 S0
G0
M3
G0 X23.829Y24.864
M3
G1 F100 S1000
G4 P0.25
G1 S0
G0
M3
G1 X24.883Y23.81S1000F2000
M3
G1 F100 S1000
G4 P0.2
G1 S0
G0
M3
G0 X25.596Y24.524
M3
G1 F100 S1000
G4 P0.25
G1 S0
G0
M3
G1 X24.543Y25.578S1000F2000
M3
G1 F100 S1000
G4 P0.2
G1 S0
G0
M3
G0 X24.707Y26.84
M3
G1 F100 S1000
G4 P0.25
G1 S0
G0
M3
G1 X26.814Y24.733S1000F2000
M3
G1 F100 S1000
G4 P0.2
G1 S0
G0
M3
G0 X26.963Y25.891
M3
G1 F100 S1000
G4 P0.25
G1 S0
G0
M3
G1 X25.91Y26.945S1000F2000
M3
G1 F100 S1000
G4 P0.2
G1 S0
G0
M3
G0 X26.624Y27.658
M3
G1 F100 S1000
G4 P0.25
G1 S0
G0
M3
G1 X27.677Y26.605S1000F2000
M3
G1 F100 S1000
G4 P0.2
G1 S0
G0
M3
G0 X28.39Y27.318
M3
G1 F100 S1000
G4 P0.25
G1 S0
G0
M3
G1 X27.337Y28.371S1000F2000
M3
G1 F100 S1000
G4 P0.2
G1 S0
G0
M3
G0 X28.05Y29.085
M3
G1 F100 S1000
G4 P0.25
G1 S0
G0
M3
G1 X29.104Y28.032S1000F2000
M3
G1 F100 S1000
G4 P0.2
G1 S0
G0
M3
G0 X30.322Y28.241
M3
G1 F100 S1000
G4 P0.25
G1 S0
G0
M3
G1 X28.215Y30.348S1000F2000
M3
G1 F100 S1000
G4 P0.2
G1 S0
G0
M3
G0 X29.418Y30.452
M3
G1 F100 S1000
G4 P0.25
G1 S0
G0
M3
G1 X30.471Y29.399S1000F2000
M3
G1 F100 S1000
G4 P0.2
G1 S0
G0
M3
G0 X30.471Y29.399
M3
G1 F100 S1000
G4 P0.25
G1 S0
G0
M3
G1 X29.418Y30.452S1000F2000
M3
G1 F100 S1000
G4 P0.2
G1 S0
G0
M3
G0 X30.131Y31.166
M3
G1 F100 S1000
G4 P0.25
G1 S0
G0
M3
G1 X31.184Y30.113S1000F2000
M3
G1 F100 S1000
G4 P0.2
G1 S0
G0
M3
G0 X31.184Y30.113
M3
G1 F100 S1000
G4 P0.25
G1 S0
G0
M3
G1 X30.131Y31.166S1000F2000
M3
G1 F100 S1000
G4 P0.2
G1 S0
G0
M3
G0 X30.845Y31.879
M3
G1 F100 S1000
G4 P0.25
G1 S0
G0
M3
G1 X31.898Y30.826S1000F2000
M3
G1 F100 S1000
G4 P0.2
G1 S0
G0
M3
G0 X31.898Y30.826
M3
G1 F100 S1000
G4 P0.25
G1 S0
G0
M3
G1 X30.845Y31.879S1000F2000
M3
G1 F100 S1000
G4 P0.2
G1 S0
G0
M3
G0 X31.558Y32.593
M3
G1 F100 S1000
G4 P0.25
G1 S0
G0
M3
G1 X32.611Y31.54S1000F2000
M3
G1 F100 S1000
G4 P0.2
G1 S0
G0
M3
G0 X32.611Y31.54
M3
G1 F100 S1000
G4 P0.25
G1 S0
G0
M3
G1 X31.558Y32.593S1000F2000
M3
G1 F100 S1000
G4 P0.2
G1 S0
G0
M3
G0 X31.723Y33.855
M3
G1 F100 S1000
G4 P0.25
G1 S0
G0
M3
G1 X33.829Y31.749S1000F2000
M3
G1 F100 S1000
G4 P0.2
G1 S0
G0
M3
G0 X33.979Y32.907
M3
G1 F100 S1000
G4 P0.25
G1 S0
G0
M3
G1 X32.925Y33.96S1000F2000
M3
G1 F100 S1000
G4 P0.2
G1 S0
G0
M3
G0 X33.639Y34.674
M3
G1 F100 S1000
G4 P0.25
G1 S0
G0
M3
G1 X34.692Y33.62S1000F2000
M3
G1 F100 S1000
G4 P0.2
G1 S0
G0
M3
G0 X35.405Y34.333
M3
G1 F100 S1000
G4 P0.25
G1 S0
G0
M3
G1 X34.352Y35.387S1000F2000
M3
G1 F100 S1000
G4 P0.2
G1 S0
G0
M3
G0 X35.066Y36.1
M3
G1 F100 S1000
G4 P0.25
G1 S0
G0
M3
G1 X36.119Y35.047S1000F2000
M3
G1 F100 S1000
G4 P0.2
G1 S0
G0
M3
G0 X37.337Y35.256
M3
G1 F100 S1000
G4 P0.25
G1 S0
G0
M3
G1 X35.23Y37.363S1000F2000
M3
G1 F100 S1000
G4 P0.2
G1 S0
G0
M3
G0 X36.433Y37.468
M3
G1 F100 S1000
G4 P0.25
G1 S0
G0
M3
G1 X37.486Y36.414S1000F2000
M3
G1 F100 S1000
G4 P0.2
G1 S0
G0
M3
G0 X38.2Y37.128
M3
G1 F100 S1000
G4 P0.25
G1 S0
G0
M3
G1 X37.146Y38.181S1000F2000
M3
G1 F100 S1000
G4 P0.2
G1 S0
G0
M3
G0 X37.86Y38.894
M3
G1 F100 S1000
G4 P0.25
G1 S0
G0
M3
G1 X38.913Y37.841S1000F2000
M3
G1 F100 S1000
G4 P0.2
G1 S0
G0
M3
G0 X39.626Y38.555
M3
G1 F100 S1000
G4 P0.25
G1 S0
G0
M3
G1 X38.573Y39.608S1000F2000
M3
G1 F100 S1000
G4 P0.2
G1 S0
G0
M3
G0 X38.738Y40.87
M3
G1 F100 S1000
G4 P0.25
G1 S0
G0
M3
G1 X40.844Y38.763S1000F2000
M3
G1 F100 S1000
G4 P0.2
G1 S0
G0
M3
G0 X40.994Y39.922
M3
G1 F100 S1000
G4 P0.25
G1 S0
G0
M3
G1 X39.94Y40.975S1000F2000
M3
G1 F100 S1000
G4 P0.2
G1 S0
G0
M3
G0 X40.654Y41.688
M3
G1 F100 S1000
G4 P0.25
G1 S0
G0
M3
G1 X41.707Y40.635S1000F2000
M3
G1 F100 S1000
G4 P0.2
G1 S0
G0
M3
G0 X42.421Y41.349
M3
G1 F100 S1000
G4 P0.25
G1 S0
G0
M3
G1 X41.367Y42.402S1000F2000
M3
G1 F100 S1000
G4 P0.2
G1 S0
G0
M3
G0 X42.081Y43.116
M3
G1 F100 S1000
G4 P0.25
G1 S0
G0
M3
G1 X43.134Y42.063S1000F2000
M3
G1 F100 S1000
G4 P0.2
G1 S0
G0
M3
G0 X44.352Y42.271
M3
G1 F100 S1000
G4 P0.25
G1 S0
G0
M3
G1 X42.245Y44.377S1000F2000
M3
G1 F100 S1000
G4 P0.2
G1 S0
G0
M3
G0 X43.448Y44.483
M3
G1 F100 S1000
G4 P0.25
G1 S0
G0
M3
G1 X44.501Y43.43S1000F2000
M3
G1 F100 S1000
G4 P0.2
G1 S0
G0
M3
G0 X45.215Y44.143
M3
G1 F100 S1000
G4 P0.25
G1 S0
G0
M3
G1 X44.162Y45.196S1000F2000
M3
G1 F100 S1000
G4 P0.2
G1 S0
G0
M3
G0 X44.875Y45.91
M3
G1 F100 S1000
G4 P0.25
G1 S0
G0
M3
G1 X45.928Y44.856S1000F2000
M3
G1 F100 S1000
G4 P0.2
G1 S0
G0
M3
G0 X46.642Y45.569
M3
G1 F100 S1000
G4 P0.25
G1 S0
G0
M3
G1 X45.588Y46.623S1000F2000
M3
G1 F100 S1000
G4 P0.2
G1 S0
G0
M3
G0 X45.693Y47.826
M3
G1 F100 S1000
G4 P0.25
G1 S0
G0
M3
G1 X47.8Y45.72S1000F2000
M3
G1 F100 S1000
G4 P0.2
G1 S0
G0
M3
G0 X47.996Y46.924
M3
G1 F100 S1000
G4 P0.25
G1 S0
G0
M3
G1 X46.942Y47.977S1000F2000
M3
G1 F100 S1000
G4 P0.2
G1 S0
G0
M3
G0 X47.656Y48.691
M3
G1 F100 S1000
G4 P0.25
G1 S0
G0
M3
G1 X48.709Y47.638S1000F2000
M3
G1 F100 S1000
G4 P0.2
G1 S0
G0
M3
G0 X49.423Y48.351
M3
G1 F100 S1000
G4 P0.25
G1 S0
G0
M3
G1 X48.369Y49.404S1000F2000
M3
G1 F100 S1000
G4 P0.2
G1 S0
G0
M3
G0 X49.083Y50.118
M3
G1 F100 S1000
G4 P0.25
G1 S0
G0
M3
G1 X50.136Y49.064S1000F2000
M3
G1 F100 S1000
G4 P0.2
G1 S0
G0
M3
G0 X51.354Y49.273
M3
G1 F100 S1000
G4 P0.25
G1 S0
G0
M3
G1 X49.247Y51.379S1000F2000
M3
G1 F100 S1000
G4 P0.2
G1 S0
G0
M3
G0 X50.45Y51.485
M3
G1 F100 S1000
G4 P0.25
G1 S0
G0
M3
G1 X51.503Y50.431S1000F2000
M3
G1 F100 S1000
G4 P0.2
G1 S0
G0
M3
G0 X52.217Y51.144
M3
G1 F100 S1000
G4 P0.25
G1 S0
G0
M3
G1 X51.163Y52.198S1000F2000
M3
G1 F100 S1000
G4 P0.2
G1 S0
G0
M3
G0 X51.877Y52.911
M3
G1 F100 S1000
G4 P0.25
G1 S0
G0
M3
G1 X52.93Y51.858S1000F2000
M3
G1 F100 S1000
G4 P0.2
G1 S0
G0
M3
G0 X53.643Y52.572
M3
G1 F100 S1000
G4 P0.25
G1 S0
G0
M3
G1 X52.59Y53.625S1000F2000
M3
G1 F100 S1000
G4 P0.2
G1 S0
G0
M3
G0 X52.755Y54.887
M3
G1 F100 S1000
G4 P0.25
G1 S0
G0
M3
G1 X54.861Y52.78S1000F2000
M3
G1 F100 S1000
G4 P0.2
G1 S0
G0
M3
G0 X55.011Y53.939
M3
G1 F100 S1000
G4 P0.25
G1 S0
G0
M3
G1 X53.958Y54.992S1000F2000
M3
G1 F100 S1000
G4 P0.2
G1 S0
G0
M3
G0 X54.671Y55.705
M3
G1 F100 S1000
G4 P0.25
G1 S0
G0
M3
G1 X55.724Y54.652S1000F2000
M3
G1 F100 S1000
G4 P0.2
G1 S0
G0
M3
G0 X56.438Y55.366
M3
G1 F100 S1000
G4 P0.25
G1 S0
G0
M3
G1 X55.384Y56.419S1000F2000
M3
G1 F100 S1000
G4 P0.2
G1 S0
G0
M3
G0 X56.098Y57.132
M3
G1 F100 S1000
G4 P0.25
G1 S0
G0
M3
G1 X57.151Y56.079S1000F2000
M3
G1 F100 S1000
G4 P0.2
G1 S0
G0
M3
G0 X58.309Y56.229
M3
G1 F100 S1000
G4 P0.25
G1 S0
G0
M3
G1 X56.203Y58.336S1000F2000
M3
G1 F100 S1000
G4 P0.2
G1 S0
G0
M3
G0 X57.446Y58.48
M3
G1 F100 S1000
G4 P0.25
G1 S0
G0
M3
G1 X58.499Y57.427S1000F2000
M3
G1 F100 S1000
G4 P0.2
G1 S0
G0
M3
G0 X59.212Y58.14
M3
G1 F100 S1000
G4 P0.25
G1 S0
G0
M3
G1 X58.159Y59.194S1000F2000
M3
G1 F100 S1000
G4 P0.2
G1 S0
G0
M3
G0 X58.872Y59.907
M3
G1 F100 S1000
G4 P0.25
G1 S0
G0
M3
G1 X59.926Y58.853S1000F2000
M3
G1 F100 S1000
G4 P0.2
G1 S0
G0
M3
G0 X12.979Y59.714
M3
G1 F100 S1000
G4 P0.25
G1 S0
G0
M3
G1 X10S1000F2000
M3
G1 F100 S1000
G4 P0.2
G1 S0
G0
M3
G0 X10Y58.789
M3
G1 F100 S1000
G4 P0.25
G1 S0
G0
M3
G1 X11.49S1000F2000
M3
G1 F100 S1000
G4 P0.2
G1 S0
G0
M3
G0 X11.49Y57.78
M3
G1 F100 S1000
G4 P0.25
G1 S0
G0
M3
G1 X10S1000F2000
M3
G1 F100 S1000
G4 P0.2
G1 S0
G0
M3
G0 X10Y56.771
M3
G1 F100 S1000
G4 P0.25
G1 S0
G0
M3
G1 X11.49S1000F2000
M3
G1 F100 S1000
G4 P0.2
G1 S0
G0
M3
G0 X11.49Y55.762
M3
G1 F100 S1000
G4 P0.25
G1 S0
G0
M3
G1 X10S1000F2000
M3
G1 F100 S1000
G4 P0.2
G1 S0
G0
M3
G0 X10Y54.753
M3
G1 F100 S1000
G4 P0.25
G1 S0
G0
M3
G1 X12.979S1000F2000
M3
G1 F100 S1000
G4 P0.2
G1 S0
G0
M3
G0 X11.49Y53.744
M3
G1 F100 S1000
G4 P0.25
G1 S0
G0
M3
G1 X10S1000F2000
M3
G1 F100 S1000
G4 P0.2
G1 S0
G0
M3
G0 X10Y52.735
M3
G1 F100 S1000
G4 P0.25
G1 S0
G0
M3
G1 X11.49S1000F2000
M3
G1 F100 S1000
G4 P0.2
G1 S0
G0
M3
G0 X11.49Y51.726
M3
G1 F100 S1000
G4 P0.25
G1 S0
G0
M3
G1 X10S1000F2000
M3
G1 F100 S1000
G4 P0.2
G1 S0
G0
M3
G0 X10Y50.718
M3
G1 F100 S1000
G4 P0.25
G1 S0
G0
M3
G1 X11.49S1000F2000
M3
G1 F100 S1000
G4 P0.2
G1 S0
G0
M3
G0 X10Y49.709
M3
G1 F100 S1000
G4 P0.25
G1 S0
G0
M3
G1 X12.979S1000F2000
M3
G1 F100 S1000
G4 P0.2
G1 S0
G0
M3
G0 X11.49Y48.784
M3
G1 F100 S1000
G4 P0.25
G1 S0
G0
M3
G1 X10S1000F2000
M3
G1 F100 S1000
G4 P0.2
G1 S0
G0
M3
G0 X10Y47.775
M3
G1 F100 S1000
G4 P0.25
G1 S0
G0
M3
G1 X11.49S1000F2000
M3
G1 F100 S1000
G4 P0.2
G1 S0
G0
M3
G0 X11.49Y46.766
M3
G1 F100 S1000
G4 P0.25
G1 S0
G0
M3
G1 X10S1000F2000
M3
G1 F100 S1000
G4 P0.2
G1 S0
G0
M3
G0 X10Y45.757
M3
G1 F100 S1000
G4 P0.25
G1 S0
G0
M3
G1 X11.49S1000F2000
M3
G1 F100 S1000
G4 P0.2
G1 S0
G0
M3
G0 X10Y44.748
M3
G1 F100 S1000
G4 P0.25
G1 S0
G0
M3
G1 X12.979S1000F2000
M3
G1 F100 S1000
G4 P0.2
G1 S0
G0
M3
G0 X11.49Y43.823
M3
G1 F100 S1000
G4 P0.25
G1 S0
G0
M3
G1 X10S1000F2000
M3
G1 F100 S1000
G4 P0.2
G1 S0
G0
M3
G0 X10Y42.814
M3
G1 F100 S1000
G4 P0.25
G1 S0
G0
M3
G1 X11.49S1000F2000
M3
G1 F100 S1000
G4 P0.2
G1 S0
G0
M3
G0 X11.49Y41.806
M3
G1 F100 S1000
G4 P0.25
G1 S0
G0
M3
G1 X10S1000F2000
M3
G1 F100 S1000
G4 P0.2
G1 S0
G0
M3
G0 X10Y40.797
M3
G1 F100 S1000
G4 P0.25
G1 S0
G0
M3
G1 X11.49S1000F2000
M3
G1 F100 S1000
G4 P0.2
G1 S0
G0
M3
G0 X10Y39.788
M3
G1 F100 S1000
G4 P0.25
G1 S0
G0
M3
G1 X12.979S1000F2000
M3
G1 F100 S1000
G4 P0.2
G1 S0
G0
M3
G0 X11.49Y38.863
M3
G1 F100 S1000
G4 P0.25
G1 S0
G0
M3
G1 X10S1000F2000
M3
G1 F100 S1000
G4 P0.2
G1 S0
G0
M3
G0 X10Y37.854
M3
G1 F100 S1000
G4 P0.25
G1 S0
G0
M3
G1 X11.49S1000F2000
M3
G1 F100 S1000
G4 P0.2
G1 S0
G0
M3
G0 X11.49Y36.845
M3
G1 F100 S1000
G4 P0.25
G1 S0
G0
M3
G1 X10S1000F2000
M3
G1 F100 S1000
G4 P0.2
G1 S0
G0
M3
G0 X10Y35.836
M3
G1 F100 S1000
G4 P0.25
G1 S0
G0
M3
G1 X11.49S1000F2000
M3
G1 F100 S1000
G4 P0.2
G1 S0
G0
M3
G0 X10Y34.827
M3
G1 F100 S1000
G4 P0.25
G1 S0
G0
M3
G1 X12.979S1000F2000
M3
G1 F100 S1000
G4 P0.2
G1 S0
G0
M3
G0 X11.49Y33.902
M3
G1 F100 S1000
G4 P0.25
G1 S0
G0
M3
G1 X10S1000F2000
M3
G1 F100 S1000
G4 P0.2
G1 S0
G0
M3
G0 X10Y33.902
M3
G1 F100 S1000
G4 P0.25
G1 S0
G0
M3
G1 X11.49S1000F2000
M3
G1 F100 S1000
G4 P0.2
G1 S0
G0
M3
G0 X11.49Y32.893
M3
G1 F100 S1000
G4 P0.25
G1 S0
G0
M3
G1 X10S1000F2000
M3
G1 F100 S1000
G4 P0.2
G1 S0
G0
M3
G0 X10Y32.893
M3
G1 F100 S1000
G4 P0.25
G1 S0
G0
M3
G1 X11.49S1000F2000
M3
G1 F100 S1000
G4 P0.2
G1 S0
G0
M3
G0 X11.49Y31.885
M3
G1 F100 S1000
G4 P0.25
G1 S0
G0
M3
G1 X10S1000F2000
M3
G1 F100 S1000
G4 P0.2
G1 S0
G0
M3
G0 X10Y31.885
M3
G1 F100 S1000
G4 P0.25
G1 S0
G0
M3
G1 X11.49S1000F2000
M3
G1 F100 S1000
G4 P0.2
G1 S0
G0
M3
G0 X11.49Y30.876
M3
G1 F100 S1000
G4 P0.25
G1 S0
G0
M3
G1 X10S1000F2000
M3
G1 F100 S1000
G4 P0.2
G1 S0
G0
M3
G0 X10Y30.876
M3
G1 F100 S1000
G4 P0.25
G1 S0
G0
M3
G1 X11.49S1000F2000
M3
G1 F100 S1000
G4 P0.2
G1 S0
G0
M3
G0 X10Y29.867
M3
G1 F100 S1000
G4 P0.25
G1 S0
G0
M3
G1 X12.979S1000F2000
M3
G1 F100 S1000
G4 P0.2
G1 S0
G0
M3
G0 X11.49Y28.942
M3
G1 F100 S1000
G4 P0.25
G1 S0
G0
M3
G1 X10S1000F2000
M3
G1 F100 S1000
G4 P0.2
G1 S0
G0
M3
G0 X10Y27.933
M3
G1 F100 S1000
G4 P0.25
G1 S0
G0
M3
G1 X11.49S1000F2000
M3
G1 F100 S1000
G4 P0.2
G1 S0
G0
M3
G0 X11.49Y26.924
M3
G1 F100 S1000
G4 P0.25
G1 S0
G0
M3
G1 X10S1000F2000
M3
G1 F100 S1000
G4 P0.2
G1 S0
G0
M3
G0 X10Y25.915
M3
G1 F100 S1000
G4 P0.25
G1 S0
G0
M3
G1 X11.49S1000F2000
M3
G1 F100 S1000
G4 P0.2
G1 S0
G0
M3
G0 X10Y24.906
M3
G1 F100 S1000
G4 P0.25
G1 S0
G0
M3
G1 X12.979S1000F2000
M3
G1 F100 S1000
G4 P0.2
G1 S0
G0
M3
G0 X11.49Y23.981
M3
G1 F100 S1000
G4 P0.25
G1 S0
G0
M3
G1 X10S1000F2000
M3
G1 F100 S1000
G4 P0.2
G1 S0
G0
M3
G0 X10Y22.973
M3
G1 F100 S1000
G4 P0.25
G1 S0
G0
M3
G1 X11.49S1000F2000
M3
G1 F100 S1000
G4 P0.2
G1 S0
G0
M3
G0 X11.49Y21.964
M3
G1 F100 S1000
G4 P0.25
G1 S0
G0
M3
G1 X10S1000F2000
M3
G1 F100 S1000
G4 P0.2
G1 S0
G0
M3
G0 X10Y20.955
M3
G1 F100 S1000
G4 P0.25
G1 S0
G0
M3
G1 X11.49S1000F2000
M3
G1 F100 S1000
G4 P0.2
G1 S0
G0
M3
G0 X10Y19.946
M3
G1 F100 S1000
G4 P0.25
G1 S0
G0
M3
G1 X12.979S1000F2000
M3
G1 F100 S1000
G4 P0.2
G1 S0
G0
M3
G0 X11.49Y19.021
M3
G1 F100 S1000
G4 P0.25
G1 S0
G0
M3
G1 X10S1000F2000
M3
G1 F100 S1000
G4 P0.2
G1 S0
G0
M3
G0 X10Y18.012
M3
G1 F100 S1000
G4 P0.25
G1 S0
G0
M3
G1 X11.49S1000F2000
M3
G1 F100 S1000
G4 P0.2
G1 S0
G0
M3
G0 X11.49Y17.003
M3
G1 F100 S1000
G4 P0.25
G1 S0
G0
M3
G1 X10S1000F2000
M3
G1 F100 S1000
G4 P0.2
G1 S0
G0
M3
G0 X10Y15.994
M3
G1 F100 S1000
G4 P0.25
G1 S0
G0
M3
G1 X11.49S1000F2000
M3
G1 F100 S1000
G4 P0.2
G1 S0
G0
M3
G0 X13.247Y14.282
M3
G1 F100 S1000
G4 P0.25
G1 S0
G0
M3
G1 X14.3Y13.229S1000F2000
M3
G1 F100 S1000
G4 P0.2
G1 S0
G0
M3
G0 X15.045Y13.004
M3
G1 F100 S1000
G4 P0.25
G1 S0
G0
M3
G1 Y10.025S1000F2000
M3
G1 F100 S1000
G4 P0.2
G1 S0
G0
M3
G0 X20.089Y10.025
M3
G1 F100 S1000
G4 P0.25
G1 S0
G0
M3
G1 Y13.004S1000F2000
M3
G1 F100 S1000
G4 P0.2
G1 S0
G0
M3
G0 X34.971Y13.004
M3
G1 F100 S1000
G4 P0.25
G1 S0
G0
M3
G1 Y10.025S1000F2000
M3
G1 F100 S1000
G4 P0.2
G1 S0
G0
M3
G0 X39.931Y10.025
M3
G1 F100 S1000
G4 P0.25
G1 S0
G0
M3
G1 Y13.004S1000F2000
M3
G1 F100 S1000
G4 P0.2
G1 S0
G0
M3
G0 X44.892Y13.004
M3
G1 F100 S1000
G4 P0.25
G1 S0
G0
M3
G1 Y10.025S1000F2000
M3
G1 F100 S1000
G4 P0.2
G1 S0
G0
M3
G0 X49.852Y10.025
M3
G1 F100 S1000
G4 P0.25
G1 S0
G0
M3
G1 Y13.004S1000F2000
M3
G1 F100 S1000
G4 P0.2
G1 S0
G0
M3
G0 X54.812Y13.004
M3
G1 F100 S1000
G4 P0.25
G1 S0
G0
M3
G1 Y10.025S1000F2000
M3
G1 F100 S1000
G4 P0.2
G1 S0
G0
M3
G0 X50.636Y90.837
M3
G1 F100 S1000
G4 P0.25
G1 S0
G0
M3
G1 X49.877S1000F2000
G1 X49.899Y91.21
G1 X49.953Y91.621
G1 X50.039Y92.068
G1 X50.156Y92.553
G1 X50.304Y93.051
G1 X50.481Y93.541
G1 X50.687Y94.021
G1 X50.922Y94.493
G1 X51.175Y94.941
G1 X51.437Y95.353
G1 X51.706Y95.728
G1 X51.983Y96.067
G1 X49.035
G1 Y96.777
G1 X52.931
G1 Y96.202
G1 X52.645Y95.871
G1 X52.359Y95.49
G1 X52.075Y95.059
G1 X51.792Y94.577
G1 X51.526Y94.066
G1 X51.292Y93.548
G1 X51.09Y93.023
G1 X50.92Y92.491
G1 X50.819Y92.105
G1 X50.738Y91.7
G1 X50.677Y91.277
G1 X50.636Y90.837
M3
G1 F100 S1000
G4 P0.2
G1 S0
G0
M3
G0 X47.274Y91.925
M3
G1 F100 S1000
G4 P0.25
G1 S0
G0
M3
G1 X47.379Y92.165S1000F2000
G1 X47.443Y92.438
G1 X47.464Y92.746
G1 X47.443Y93.041
G1 X47.38Y93.304
G1 X47.277Y93.533
G1 X47.131Y93.729
G1 X46.954Y93.886
G1 X46.755Y93.998
G1 X46.535Y94.066
G1 X46.294Y94.088
G1 X46.053Y94.066
G1 X45.831Y93.998
G1 X45.628Y93.886
G1 X45.444Y93.729
G1 X45.291Y93.535
G1 X45.182Y93.314
G1 X45.117Y93.064
G1 X45.095Y92.787
G1 X45.105Y92.598
G1 X45.135Y92.413
G1 X45.186Y92.233
G1 X45.257Y92.056
G1 X45.346Y91.892
G1 X45.452Y91.749
G1 X45.573Y91.626
G1 X45.711Y91.524
G1 X45.858Y91.445
G1 X46.009Y91.387
G1 X46.164Y91.353
G1 X46.322Y91.342
G1 X46.548Y91.365
G1 X46.758Y91.436
G1 X46.95Y91.554
G1 X47.127Y91.719
G1 X47.274Y91.925
M3
G1 F100 S1000
G4 P0.2
G1 S0
G0
M3
G0 X47.975Y91.738
M3
G1 F100 S1000
G4 P0.25
G1 S0
G0
M3
G1 X47.841Y91.509S1000F2000
G1 X47.685Y91.308
G1 X47.506Y91.136
G1 X47.304Y90.993
G1 X47.083Y90.88
G1 X46.848Y90.799
G1 X46.598Y90.75
G1 X46.335Y90.734
G1 X45.894Y90.777
G1 X45.496Y90.904
G1 X45.141Y91.116
G1 X44.828Y91.414
G1 X44.691Y91.597
G1 X44.573Y91.808
G1 X44.473Y92.047
G1 X44.391Y92.313
G1 X44.327Y92.607
G1 X44.282Y92.928
G1 X44.254Y93.277
G1 Y93.653
G1 Y94.074
G1 X44.285Y94.466
G1 X44.336Y94.828
G1 X44.406Y95.16
G1 X44.497Y95.462
G1 X44.608Y95.734
G1 X44.739Y95.977
G1 X44.89Y96.19
G1 X45.195Y96.492
G1 X45.55Y96.707
G1 X45.953Y96.837
G1 X46.404Y96.88
G1 X46.744Y96.855
G1 X47.051Y96.78
G1 X47.325Y96.656
G1 X47.568Y96.482
G1 X47.772Y96.263
G1 X47.931Y96.007
G1 X48.044Y95.713
G1 X48.112Y95.381
G1 X47.377Y95.324
G1 X47.323Y95.527
G1 X47.258Y95.7
G1 X47.183Y95.843
G1 X47.098Y95.956
G1 X46.94Y96.094
G1 X46.764Y96.193
G1 X46.57Y96.252
G1 X46.359Y96.272
G1 X46.188Y96.26
G1 X46.028Y96.223
G1 X45.878Y96.161
G1 X45.739Y96.075
G1 X45.574Y95.933
G1 X45.427Y95.762
G1 X45.299Y95.562
G1 X45.189Y95.332
G1 X45.101Y95.062
G1 X45.036Y94.74
G1 X44.996Y94.366
G1 X44.98Y93.94
G1 X45.121Y94.131
G1 X45.277Y94.295
G1 X45.447Y94.432
G1 X45.633Y94.544
G1 X45.828Y94.63
G1 X46.028Y94.692
G1 X46.232Y94.729
G1 X46.441Y94.741
G1 X46.797Y94.707
G1 X47.125Y94.605
G1 X47.426Y94.435
G1 X47.7Y94.197
G1 X47.927Y93.905
G1 X48.089Y93.574
G1 X48.187Y93.202
G1 X48.219Y92.791
G1 X48.204Y92.513
G1 X48.158Y92.244
G1 X48.082Y91.986
G1 X47.975Y91.738
M3
G1 F100 S1000
G4 P0.2
G1 S0
G0
M3
G0 X43.441Y92.116
M3
G1 F100 S1000
G4 P0.25
G1 S0
G0
M3
G1 X43.292Y91.776S1000F2000
G1 X43.084Y91.465
G1 X42.932Y91.294
G1 X42.768Y91.145
G1 X42.59Y91.02
G1 X42.399Y90.917
G1 X42.195Y90.837
G1 X41.978Y90.78
G1 X41.747Y90.746
G1 X41.503Y90.734
G1 X41.112Y90.763
G1 X40.758Y90.849
G1 X40.441Y90.993
G1 X40.163Y91.194
G1 X39.931Y91.443
G1 X39.755Y91.729
G1 X39.634Y92.052
G1 X39.57Y92.413
G1 X40.346Y92.479
G1 X40.403Y92.213
G1 X40.489Y91.983
G1 X40.603Y91.787
G1 X40.746Y91.627
G1 X40.911Y91.502
G1 X41.092Y91.413
G1 X41.29Y91.36
G1 X41.503Y91.342
G1 X41.76Y91.367
G1 X41.996Y91.442
G1 X42.211Y91.568
G1 X42.406Y91.744
G1 X42.568Y91.962
G1 X42.684Y92.212
G1 X42.753Y92.495
G1 X42.776Y92.811
G1 X42.754Y93.111
G1 X42.687Y93.377
G1 X42.576Y93.61
G1 X42.421Y93.809
G1 X42.23Y93.969
G1 X42.011Y94.083
G1 X41.765Y94.152
G1 X41.491Y94.174
G1 X41.317
G1 X41.151Y94.134
G1 X40.994Y94.083
G1 X40.846Y94.012
G1 X40.71Y93.925
G1 X40.59Y93.826
G1 X40.485Y93.715
G1 X40.395Y93.591
G1 X39.701Y93.682
G1 X40.284Y96.773
G1 X43.277
G1 Y96.067
G1 X40.875
G1 X40.551Y94.449
G1 X40.825Y94.615
G1 X41.106Y94.733
G1 X41.394Y94.804
G1 X41.688Y94.827
G1 X42.067Y94.793
G1 X42.415Y94.691
G1 X42.732Y94.52
G1 X43.018Y94.281
G1 X43.255Y93.989
G1 X43.425Y93.657
G1 X43.526Y93.287
G1 X43.56Y92.877
G1 X43.53Y92.483
G1 X43.441Y92.116
M3
G1 F100 S1000
G4 P0.2
G1 S0
G0
M3
G0 X37.23Y92.955
M3
G1 F100 S1000
G4 P0.25
G1 S0
G0
M3
G1 Y95.669S1000F2000
G1 X35.346Y92.955
G1 X37.23
M3
G1 F100 S1000
G4 P0.2
G1 S0
G0
M3
G0 X37.969Y92.955
M3
G1 F100 S1000
G4 P0.25
G1 S0
G0
M3
G1 X38.782S1000F2000
G1 Y92.278
G1 X37.969
G1 Y90.837
G1 X37.23
G1 Y92.278
G1 X34.619
G1 Y92.955
G1 X37.366Y96.855
G1 X37.969
G1 Y92.955
M3
G1 F100 S1000
G4 P0.2
G1 S0
G0
M3
G0 X34.08Y92.894
M3
G1 F100 S1000
G4 P0.25
G1 S0
G0
M3
G1 X34.098Y92.614S1000F2000
G1 X34.062Y92.235
G1 X33.955Y91.886
G1 X33.775Y91.567
G1 X33.524Y91.278
G1 X33.217Y91.038
G1 X32.873Y90.867
G1 X32.491Y90.764
G1 X32.07Y90.73
G1 X31.691Y90.76
G1 X31.345Y90.848
G1 X31.033Y90.996
G1 X30.755Y91.202
G1 X30.521Y91.456
G1 X30.344Y91.744
G1 X30.222Y92.067
G1 X30.157Y92.426
G1 X30.896Y92.524
G1 X30.971Y92.232
G1 X31.068Y91.984
G1 X31.188Y91.779
G1 X31.329Y91.619
G1 X31.491Y91.498
G1 X31.669Y91.411
G1 X31.863Y91.359
G1 X32.074Y91.342
G1 X32.325Y91.364
G1 X32.555Y91.432
G1 X32.765Y91.545
G1 X32.955Y91.703
G1 X33.112Y91.894
G1 X33.224Y92.107
G1 X33.292Y92.342
G1 X33.314Y92.598
G1 X33.293Y92.841
G1 X33.231Y93.062
G1 X33.127Y93.261
G1 X32.982Y93.438
G1 X32.804Y93.582
G1 X32.604Y93.685
G1 X32.381Y93.747
G1 X32.136Y93.768
G1 X31.901Y93.747
G1 X31.615Y93.686
G1 X31.697Y94.335
G1 X31.763
G1 X31.816
G1 X32.046
G1 X32.264Y94.388
G1 X32.471Y94.465
G1 X32.666Y94.573
G1 X32.831Y94.712
G1 X32.949Y94.886
G1 X33.02Y95.092
G1 X33.043Y95.332
G1 X33.026Y95.527
G1 X32.975Y95.704
G1 X32.889Y95.863
G1 X32.768Y96.005
G1 X32.621Y96.122
G1 X32.453Y96.206
G1 X32.266Y96.256
G1 X32.058Y96.272
G1 X31.852Y96.255
G1 X31.663Y96.204
G1 X31.492Y96.12
G1 X31.34Y96.001
G1 X31.209Y95.849
G1 X31.104Y95.663
G1 X31.024Y95.442
G1 X30.97Y95.188
G1 X30.231Y95.32
G1 X30.32Y95.67
G1 X30.453Y95.979
G1 X30.628Y96.246
G1 X30.847Y96.471
G1 X31.102Y96.65
G1 X31.386Y96.778
G1 X31.699Y96.854
G1 X32.042Y96.88
G1 X32.283Y96.867
G1 X32.515Y96.827
G1 X32.737Y96.761
G1 X32.949Y96.668
G1 X33.144Y96.553
G1 X33.315Y96.418
G1 X33.461Y96.265
G1 X33.583Y96.092
G1 X33.679Y95.906
G1 X33.748Y95.715
G1 X33.789Y95.518
G1 X33.803Y95.316
G1 X33.79Y95.125
G1 X33.75Y94.943
G1 X33.685Y94.77
G1 X33.593Y94.605
G1 X33.476Y94.454
G1 X33.334Y94.318
G1 X33.166Y94.199
G1 X32.974Y94.096
G1 X33.225Y94.018
G1 X33.448Y93.907
G1 X33.64Y93.763
G1 X33.803Y93.585
G1 X33.932Y93.379
G1 X34.024Y93.149
G1 X34.08Y92.894
M3
G1 F100 S1000
G4 P0.2
G1 S0
G0
M3
G0 X31.982Y100.01
M3
G1 F100 S1000
G4 P0.25
G1 S0
G0
M3
G1 X32.178Y100.045S1000F2000
G1 X32.362Y100.103
G1 X32.534Y100.185
G1 X32.689Y100.287
G1 X32.823Y100.406
G1 X32.934Y100.543
G1 X33.023Y100.696
G1 X33.075Y100.836
G1 X33.112Y101.006
G1 X33.134Y101.206
G1 Y101.435
G1 Y101.706
G1 X32.916Y101.627
G1 X32.639Y101.554
G1 X32.312Y101.487
G1 X31.724Y101.393
G1 X31.546Y101.357
G1 X31.401Y101.319
G1 X31.29Y101.279
G1 X31.123Y101.178
G1 X30.999Y101.039
G1 X30.922Y100.872
G1 X30.896Y100.688
G1 X30.91Y100.546
G1 X30.952Y100.417
G1 X31.022Y100.3
G1 X31.12Y100.195
G1 X31.245Y100.109
G1 X31.396Y100.047
G1 X31.572Y100.011
G1 X31.775Y99.998
G1 X31.982Y100.01
M3
G1 F100 S1000
G4 P0.2
G1 S0
G0
M3
G0 X32.413Y99.563
M3
G1 F100 S1000
G4 P0.25
G1 S0
G0
M3
G1 X32.22Y99.5S1000F2000
G1 X32.02Y99.455
G1 X31.812Y99.428
G1 X31.598
G1 X31.26Y99.441
G1 X30.963Y99.507
G1 X30.708Y99.617
G1 X30.494Y99.77
G1 X30.325Y99.958
G1 X30.205Y100.17
G1 X30.132Y100.407
G1 X30.108Y100.667
G1 Y100.824
G1 X30.144Y100.974
G1 X30.19Y101.117
G1 X30.254Y101.252
G1 X30.422Y101.491
G1 X30.636Y101.677
G1 X30.887Y101.818
G1 X31.167Y101.919
G1 X31.29Y101.948
G1 X31.44Y101.976
G1 X31.618Y102.003
G1 X32.242Y102.086
G1 X32.601Y102.147
G1 X32.901Y102.214
G1 X33.142Y102.285
G1 Y102.478
G1 Y102.687
G1 X33.094Y102.863
G1 X33.028Y103.005
G1 X32.937Y103.114
G1 X32.778Y103.224
G1 X32.585Y103.302
G1 X32.357Y103.349
G1 X32.095Y103.365
G1 X31.851Y103.353
G1 X31.642Y103.319
G1 X31.467Y103.262
G1 X31.325Y103.182
G1 X31.209Y103.073
G1 X31.109Y102.929
G1 X31.025Y102.75
G1 X30.958Y102.535
G1 X30.235Y102.634
G1 X30.293Y102.855
G1 X30.366Y103.053
G1 X30.455Y103.229
G1 X30.56Y103.383
G1 X30.685Y103.517
G1 X30.836Y103.635
G1 X31.011Y103.737
G1 X31.212Y103.822
G1 X31.434Y103.89
G1 X31.673Y103.938
G1 X31.929Y103.967
G1 X32.202
G1 X32.468
G1 X32.708Y103.943
G1 X32.921Y103.902
G1 X33.109Y103.845
G1 X33.272Y103.775
G1 X33.412Y103.697
G1 X33.528Y103.61
G1 X33.622Y103.514
G1 X33.762Y103.289
G1 X33.852Y103.011
G1 X33.868Y102.898
G1 X33.88Y102.747
G1 Y102.557
G1 Y102.33
G1 Y101.345
G1 X33.892Y100.877
G1 Y100.504
G1 X33.916Y100.225
G1 X33.936Y100.041
G1 X34.007Y99.774
G1 X34.123Y99.518
G1 X33.351
G1 X33.257Y99.767
G1 X33.203Y100.056
G1 X33Y99.894
G1 X32.801Y99.758
G1 X32.605Y99.648
G1 X32.413Y99.563
M3
G1 F100 S1000
G4 P0.2
G1 S0
G0
M3
G0 X35.953Y100.598
M3
G1 F100 S1000
G4 P0.25
G1 S0
G0
M3
G1 X36.143Y100.348S1000F2000
G1 X36.364Y100.17
G1 X36.615Y100.063
G1 X36.898Y100.027
G1 X37.132Y100.053
G1 X37.349Y100.132
G1 X37.55Y100.264
G1 X37.735Y100.448
G1 X37.89Y100.684
G1 X38Y100.972
G1 X38.066Y101.311
G1 X38.088Y101.702
G1 X38.067Y102.101
G1 X38.004Y102.444
G1 X37.898Y102.731
G1 X37.749Y102.962
G1 X37.571Y103.14
G1 X37.375Y103.267
G1 X37.162Y103.343
G1 X36.931Y103.369
G1 X36.697Y103.342
G1 X36.479Y103.263
G1 X36.278Y103.132
G1 X36.093Y102.948
G1 X35.939Y102.714
G1 X35.828Y102.433
G1 X35.762Y102.105
G1 X35.74Y101.731
G1 X35.753Y101.366
G1 X35.793Y101.055
G1 X35.86Y100.799
G1 X35.953Y100.598
M3
G1 F100 S1000
G4 P0.2
G1 S0
G0
M3
G0 X35.748Y100.064
M3
G1 F100 S1000
G4 P0.25
G1 S0
G0
M3
G1 Y99.518S1000F2000
G1 X35.063
G1 Y105.536
G1 X35.802
G1 Y103.389
G1 X36.052Y103.646
G1 X36.334Y103.829
G1 X36.649Y103.94
G1 X36.996Y103.976
G1 X37.195
G1 X37.388Y103.936
G1 X37.575Y103.885
G1 X37.758Y103.814
G1 X37.929Y103.725
G1 X38.085Y103.619
G1 X38.225Y103.497
G1 X38.349Y103.358
G1 X38.556Y103.035
G1 X38.712Y102.65
G1 X38.811Y102.221
G1 X38.844Y101.763
G1 X38.809Y101.235
G1 X38.705Y100.77
G1 X38.532Y100.369
G1 X38.289Y100.031
G1 X37.998Y99.763
G1 X37.68Y99.572
G1 X37.333Y99.458
G1 X36.959Y99.419
G1 X36.594Y99.46
G1 X36.271Y99.581
G1 X35.989Y99.782
G1 X35.748Y100.064
M3
G1 F100 S1000
G4 P0.2
G1 S0
G0
M3
G0 X39.685Y100.716
M3
G1 F100 S1000
G4 P0.25
G1 S0
G0
M3
G1 X39.583Y101.167S1000F2000
G1 X39.549Y101.681
G1 X39.564Y102.023
G1 X39.608Y102.343
G1 X39.681Y102.641
G1 X39.783Y102.917
G1 X39.915Y103.165
G1 X40.078Y103.38
G1 X40.272Y103.562
G1 X40.495Y103.711
G1 X40.74Y103.827
G1 X40.995Y103.91
G1 X41.26Y103.96
G1 X41.536Y103.976
G1 X41.875Y103.954
G1 X42.182Y103.886
G1 X42.456Y103.774
G1 X42.698Y103.617
G1 X42.903Y103.419
G1 X43.068Y103.182
G1 X43.193Y102.908
G1 X43.277Y102.597
G1 X42.558Y102.486
G1 X42.497Y102.692
G1 X42.416Y102.871
G1 X42.315Y103.023
G1 X42.195Y103.147
G1 X42.058Y103.244
G1 X41.907Y103.313
G1 X41.743Y103.355
G1 X41.565Y103.369
G1 X41.299Y103.344
G1 X41.059Y103.269
G1 X40.845Y103.144
G1 X40.658Y102.968
G1 X40.505Y102.739
G1 X40.396Y102.452
G1 X40.33Y102.106
G1 X40.309Y101.702
G1 X40.33Y101.293
G1 X40.393Y100.943
G1 X40.498Y100.654
G1 X40.645Y100.425
G1 X40.826Y100.251
G1 X41.033Y100.127
G1 X41.266Y100.052
G1 X41.524Y100.027
G1 X41.732Y100.044
G1 X41.923Y100.094
G1 X42.096Y100.177
G1 X42.25Y100.294
G1 X42.383Y100.445
G1 X42.489Y100.632
G1 X42.568Y100.856
G1 X42.62Y101.115
G1 X43.347Y101.02
G1 X43.264Y100.665
G1 X43.135Y100.351
G1 X42.959Y100.077
G1 X42.737Y99.844
G1 X42.478Y99.658
G1 X42.19Y99.526
G1 X41.875Y99.446
G1 X41.532Y99.419
G1 X41.106Y99.456
G1 X40.725Y99.566
G1 X40.387Y99.748
G1 X40.093Y100.004
G1 X39.855Y100.329
G1 X39.685Y100.716
M3
G1 F100 S1000
G4 P0.2
G1 S0
G0
M3
G0 X44.493Y101.301
M3
G1 F100 S1000
G4 P0.25
G1 S0
G0
M3
G1 X44.56Y100.962S1000F2000
G1 X44.67Y100.675
G1 X44.824Y100.442
G1 X45.009Y100.26
G1 X45.209Y100.131
G1 X45.426Y100.053
G1 X45.658Y100.027
G1 X45.891Y100.052
G1 X46.106Y100.126
G1 X46.302Y100.25
G1 X46.481Y100.423
G1 X46.629Y100.647
G1 X46.735Y100.923
G1 X46.798Y101.252
G1 X46.82Y101.632
G1 X46.798Y102.05
G1 X46.733Y102.408
G1 X46.626Y102.707
G1 X46.475Y102.946
G1 X46.292Y103.129
G1 X46.09Y103.26
G1 X45.867Y103.338
G1 X45.625Y103.365
G1 X45.389Y103.339
G1 X45.173Y103.264
G1 X44.977Y103.138
G1 X44.802Y102.962
G1 X44.657Y102.732
G1 X44.554Y102.444
G1 X44.492Y102.098
G1 X44.471Y101.694
G1 X44.493Y101.301
M3
G1 F100 S1000
G4 P0.2
G1 S0
G0
M3
G0 X43.727Y101.369
M3
G1 F100 S1000
G4 P0.25
G1 S0
G0
M3
G1 X43.712Y101.694S1000F2000
G1 X43.725Y102.013
G1 X43.766Y102.316
G1 X43.834Y102.605
G1 X43.929Y102.878
G1 X44.052Y103.128
G1 X44.201Y103.348
G1 X44.378Y103.536
G1 X44.582Y103.693
G1 X44.806Y103.817
G1 X45.043Y103.905
G1 X45.293Y103.959
G1 X45.555Y103.976
G1 X45.747Y103.966
G1 X45.928Y103.935
G1 X46.098Y103.883
G1 X46.257Y103.81
G1 X46.404Y103.721
G1 X46.536Y103.619
G1 X46.654Y103.504
G1 X46.758Y103.377
G1 Y105.536
G1 X47.493
G1 Y99.518
G1 X46.807
G1 Y100.068
G1 X46.576Y99.784
G1 X46.295Y99.582
G1 X45.966Y99.46
G1 X45.588Y99.419
G1 X45.333Y99.437
G1 X45.088Y99.491
G1 X44.853Y99.581
G1 X44.629Y99.707
G1 X44.423Y99.865
G1 X44.241Y100.051
G1 X44.084Y100.266
G1 X43.952Y100.509
G1 X43.847Y100.777
G1 X43.772Y101.063
G1 X43.727Y101.369
M3
G1 F100 S1000
G4 P0.2
G1 S0
G0
M3
G0 X49.245Y102.117
M3
G1 F100 S1000
G4 P0.25
G1 S0
G0
M3
G1 X51.68S1000F2000
G1 X51.644Y102.374
G1 X51.585Y102.598
G1 X51.504Y102.787
G1 X51.401Y102.942
G1 X51.211Y103.128
G1 X50.995Y103.262
G1 X50.753Y103.342
G1 X50.485Y103.369
G1 X50.241Y103.347
G1 X50.017Y103.283
G1 X49.813Y103.177
G1 X49.629Y103.028
G1 X49.475Y102.843
G1 X49.36Y102.63
G1 X49.283Y102.387
G1 X49.245Y102.117
M3
G1 F100 S1000
G4 P0.2
G1 S0
G0
M3
G0 X48.476Y102.18
M3
G1 F100 S1000
G4 P0.25
G1 S0
G0
M3
G1 X48.582Y102.638S1000F2000
G1 X48.759Y103.034
G1 X49.007Y103.369
G1 X49.311Y103.634
G1 X49.658Y103.824
G1 X50.046Y103.938
G1 X50.477Y103.976
G1 X50.894Y103.939
G1 X51.271Y103.827
G1 X51.608Y103.641
G1 X51.906Y103.381
G1 X52.148Y103.053
G1 X52.321Y102.665
G1 X52.425Y102.216
G1 X52.46Y101.706
G1 Y101.509
G1 X49.204
G1 X49.245Y101.171
G1 X49.326Y100.875
G1 X49.448Y100.621
G1 X49.611Y100.409
G1 X49.805Y100.242
G1 X50.021Y100.122
G1 X50.26Y100.051
G1 X50.522Y100.027
G1 X50.718Y100.04
G1 X50.899Y100.08
G1 X51.065Y100.147
G1 X51.216Y100.24
G1 X51.352Y100.363
G1 X51.473Y100.518
G1 X51.58Y100.704
G1 X51.672Y100.922
G1 X52.435Y100.827
G1 X52.326Y100.512
G1 X52.177Y100.233
G1 X51.991Y99.992
G1 X51.766Y99.789
G1 X51.505Y99.627
G1 X51.21Y99.512
G1 X50.881Y99.442
G1 X50.518Y99.419
G1 X50.064Y99.456
G1 X49.66Y99.567
G1 X49.306Y99.751
G1 X49.001Y100.008
G1 X48.756Y100.333
G1 X48.581Y100.716
G1 X48.476Y101.159
G1 X48.441Y101.661
G1 X48.476Y102.18
M3
G1 F100 S1000
G4 P0.2
G1 S0
G0
M3
G0 X52.919Y103.303
M3
G1 F100 S1000
G4 P0.25
G1 S0
G0
M3
G1 Y103.878S1000F2000
G1 X53.572
G1 Y104.342
G1 Y104.547
G1 X53.591Y104.724
G1 X53.616Y104.873
G1 X53.65Y104.994
G1 X53.713Y105.131
G1 X53.797Y105.255
G1 X53.901Y105.364
G1 X54.025Y105.46
G1 X54.173Y105.538
G1 X54.348Y105.594
G1 X54.55Y105.628
G1 X54.779Y105.639
G1 X55.107Y105.62
G1 X55.468Y105.565
G1 X55.358Y104.92
G1 X55.134Y104.951
G1 X54.922Y104.961
G1 X54.766
G1 X54.635Y104.926
G1 X54.528Y104.881
G1 X54.446Y104.818
G1 X54.385Y104.73
G1 X54.341Y104.612
G1 X54.315Y104.461
G1 Y104.28
G1 Y103.878
G1 X55.156
G1 Y103.303
G1 X54.307
G1 Y99.518
G1 X53.572
G1 Y103.303
G1 X52.919
M3
G1 F100 S1000
G4 P0.2
G1 S0
G0
M3
G0 X56.504Y102.74
M3
G1 F100 S1000
G4 P0.25
G1 S0
G0
M3
G1 X56.396Y102.467S1000F2000
G1 X56.331Y102.146
G1 X56.31Y101.776
G1 X56.331Y101.376
G1 X56.395Y101.034
G1 X56.501Y100.75
G1 X56.65Y100.524
G1 X56.832Y100.351
G1 X57.034Y100.228
G1 X57.258Y100.154
G1 X57.504Y100.13
G1 X57.749Y100.154
G1 X57.972Y100.228
G1 X58.175Y100.35
G1 X58.358Y100.522
G1 X58.509Y100.746
G1 X58.617Y101.025
G1 X58.681Y101.36
G1 X58.703Y101.751
G1 X58.681Y102.127
G1 X58.614Y102.453
G1 X58.503Y102.73
G1 X58.348Y102.958
G1 X58.161Y103.136
G1 X57.956Y103.263
G1 X57.733Y103.339
G1 X57.492Y103.365
G1 X57.255Y103.34
G1 X57.036Y103.264
G1 X56.836Y103.139
G1 X56.654Y102.964
G1 X56.504Y102.74
M3
G1 F100 S1000
G4 P0.2
G1 S0
G0
M3
G0 X55.776Y102.874
M3
G1 F100 S1000
G4 P0.25
G1 S0
G0
M3
G1 X55.902Y103.123S1000F2000
G1 X56.053Y103.341
G1 X56.229Y103.53
G1 X56.431Y103.689
G1 X56.655Y103.815
G1 X56.897Y103.904
G1 X57.159Y103.958
G1 X57.439Y103.976
G1 X57.808Y103.937
G1 X58.143Y103.82
G1 X58.444Y103.625
G1 X58.711Y103.352
G1 Y103.878
G1 X59.393
G1 Y100.109
G1 X59.38Y99.637
G1 X59.341Y99.239
G1 X59.276Y98.916
G1 X59.185Y98.666
G1 X59.067Y98.465
G1 X58.917Y98.286
G1 X58.738Y98.129
G1 X58.529Y97.995
G1 X58.291Y97.887
G1 X58.027Y97.81
G1 X57.738Y97.764
G1 X57.422Y97.749
G1 X57.051Y97.77
G1 X56.717Y97.836
G1 X56.421Y97.946
G1 X56.162Y98.1
G1 X55.953Y98.297
G1 X55.806Y98.539
G1 X55.721Y98.826
G1 X55.698Y99.157
G1 X56.416Y99.05
G1 X56.449Y98.895
G1 X56.502Y98.763
G1 X56.574Y98.653
G1 X56.667Y98.565
G1 X56.817Y98.476
G1 X56.992Y98.412
G1 X57.193Y98.373
G1 X57.418Y98.36
G1 X57.66Y98.373
G1 X57.873Y98.412
G1 X58.056Y98.476
G1 X58.21Y98.565
G1 X58.339Y98.678
G1 X58.444Y98.812
G1 X58.527Y98.966
G1 X58.588Y99.14
G1 X58.613Y99.284
G1 X58.63Y99.49
G1 Y99.758
G1 X58.641Y100.089
G1 X58.384Y99.839
G1 X58.097Y99.661
G1 X57.781Y99.554
G1 X57.434Y99.518
G1 X57.01Y99.558
G1 X56.637Y99.68
G1 X56.315Y99.883
G1 X56.043Y100.167
G1 X55.827Y100.507
G1 X55.673Y100.88
G1 X55.581Y101.285
G1 X55.55Y101.722
G1 X55.564Y102.028
G1 X55.607Y102.322
G1 X55.677Y102.604
G1 X55.776Y102.874
M3
G1 F100 S1000
G4 P0.2
G1 S0
G0
M3
G0 X61.197Y103.377
M3
G1 F100 S1000
G4 P0.25
G1 S0
G0
M3
G1 X61.472Y103.639S1000F2000
G1 X61.782Y103.826
G1 X62.125Y103.939
G1 X62.502Y103.976
G1 X62.736Y103.964
G1 X62.955Y103.929
G1 X63.157Y103.869
G1 X63.344Y103.785
G1 X63.509Y103.681
G1 X63.65Y103.558
G1 X63.765Y103.417
G1 X63.855Y103.258
G1 X63.922Y103.071
G1 X63.97Y102.845
G1 X63.999Y102.582
G1 Y102.281
G1 Y99.518
G1 X63.27
G1 Y102.281
G1 X63.255Y102.539
G1 X63.21Y102.76
G1 X63.135Y102.942
G1 X63.03Y103.087
G1 X62.897Y103.198
G1 X62.74Y103.277
G1 X62.557Y103.324
G1 X62.35Y103.34
G1 X62.188Y103.329
G1 X62.031Y103.297
G1 X61.879Y103.244
G1 X61.732Y103.17
G1 X61.598Y103.077
G1 X61.484Y102.969
G1 X61.392Y102.846
G1 X61.32Y102.708
G1 X61.266Y102.548
G1 X61.227Y102.361
G1 X61.204Y102.146
G1 Y101.903
G1 Y99.518
G1 X60.458
G1 Y105.536
G1 X61.197
G1 Y103.377
M3
G1 F100 S1000
G4 P0.2
G1 S0
G0
M3
G0 X65.17Y103.878
M3
G1 F100 S1000
G4 P0.25
G1 S0
G0
M3
G1 X65.909S1000F2000
G1 Y99.518
G1 X65.17
G1 Y103.878
M3
G1 F100 S1000
G4 P0.2
G1 S0
G0
M3
G0 X65.17Y104.686
M3
G1 F100 S1000
G4 P0.25
G1 S0
G0
M3
G1 Y105.536S1000F2000
G1 X65.909
G1 Y104.686
G1 X65.17
M3
G1 F100 S1000
G4 P0.2
G1 S0
G0
M3
G0 X67.124Y104.678
M3
G1 F100 S1000
G4 P0.25
G1 S0
G0
M3
G1 Y105.536S1000F2000
G1 X67.863
G1 Y104.678
G1 X67.124
M3
G1 F100 S1000
G4 P0.2
G1 S0
G0
M3
G0 X67.124Y103.878
M3
G1 F100 S1000
G4 P0.25
G1 S0
G0
M3
G1 X67.863S1000F2000
G1 Y99.28
G1 X67.85Y98.908
G1 X67.811Y98.597
G1 X67.745Y98.348
G1 X67.654Y98.159
G1 X67.498Y97.979
G1 X67.299Y97.851
G1 X67.055Y97.774
G1 X66.767Y97.749
G1 X66.472Y97.768
G1 X66.188Y97.827
G1 X66.328Y98.455
G1 X66.526Y98.412
G1 X66.677Y98.397
G1 X66.782
G1 X66.874Y98.435
G1 X66.951Y98.481
G1 X67.013Y98.547
G1 X67.062Y98.65
G1 X67.096Y98.809
G1 X67.117Y99.025
G1 Y99.296
G1 Y103.878
M3
G1 F100 S1000
G4 P0.2
G1 S0
G0
M3
G0 X68.869Y105.536
M3
G1 F100 S1000
G4 P0.25
G1 S0
G0
M3
G1 X69.608S1000F2000
G1 Y102.104
G1 X71.357Y103.878
G1 X72.314
G1 X70.647Y102.26
G1 X72.482Y99.518
G1 X71.571
G1 X70.13Y101.747
G1 X69.608Y101.246
G1 Y99.518
G1 X68.869
G1 Y105.536
M3
G1 F100 S1000
G4 P0.2
G1 S0
G0
M3
G0 X73.053Y105.536
M3
G1 F100 S1000
G4 P0.25
G1 S0
G0
M3
G1 X73.791S1000F2000
G1 Y99.518
G1 X73.053
G1 Y105.536
M3
G1 F100 S1000
G4 P0.2
G1 S0
G0
M3
G0 X74.919Y103.878
M3
G1 F100 S1000
G4 P0.25
G1 S0
G0
M3
G1 X75.58S1000F2000
G1 Y103.266
G1 X75.691Y103.418
G1 X75.819Y103.555
G1 X75.964Y103.676
G1 X76.126Y103.781
G1 X76.302Y103.867
G1 X76.49Y103.927
G1 X76.69Y103.964
G1 X76.901Y103.976
G1 X77.133Y103.964
G1 X77.342Y103.926
G1 X77.53Y103.863
G1 X77.696Y103.775
G1 X77.839Y103.664
G1 X77.96Y103.534
G1 X78.058Y103.383
G1 X78.133Y103.213
G1 X78.267Y103.392
G1 X78.411Y103.547
G1 X78.565Y103.678
G1 X78.728Y103.785
G1 X78.901Y103.869
G1 X79.084Y103.929
G1 X79.277Y103.964
G1 X79.48Y103.976
G1 X79.785Y103.954
G1 X80.053Y103.886
G1 X80.284Y103.774
G1 X80.477Y103.617
G1 X80.63Y103.413
G1 X80.739Y103.161
G1 X80.804Y102.86
G1 X80.826Y102.511
G1 Y99.518
G1 X80.091
G1 Y102.264
G1 Y102.47
G1 X80.073Y102.646
G1 X80.051Y102.79
G1 X80.019Y102.903
G1 X79.918Y103.079
G1 X79.759Y103.217
G1 X79.553Y103.306
G1 X79.315Y103.336
G1 X79.095Y103.317
G1 X78.895Y103.259
G1 X78.713Y103.164
G1 X78.552Y103.03
G1 X78.419Y102.854
G1 X78.324Y102.632
G1 X78.267Y102.365
G1 X78.248Y102.051
G1 Y99.518
G1 X77.509
G1 Y102.351
G1 X77.498Y102.581
G1 X77.464Y102.782
G1 X77.407Y102.951
G1 X77.328Y103.089
G1 X77.224Y103.197
G1 X77.09Y103.274
G1 X76.928Y103.32
G1 X76.737Y103.336
G1 X76.584Y103.326
G1 X76.437Y103.295
G1 X76.296Y103.243
G1 X76.16Y103.172
G1 X76.037Y103.08
G1 X75.932Y102.969
G1 X75.845Y102.84
G1 X75.777Y102.691
G1 X75.725Y102.516
G1 X75.687Y102.305
G1 X75.665Y102.06
G1 Y101.78
G1 Y99.518
G1 X74.919
G1 Y103.878
M3
G1 F100 S1000
G4 P0.2
G1 S0
G0
M3
G0 X81.981Y103.878
M3
G1 F100 S1000
G4 P0.25
G1 S0
G0
M3
G1 X82.646S1000F2000
G1 Y103.258
G1 X82.773Y103.426
G1 X82.913Y103.572
G1 X83.066Y103.696
G1 X83.233Y103.797
G1 X83.413Y103.875
G1 X83.607Y103.931
G1 X83.813Y103.965
G1 X84.034Y103.976
G1 X84.227
G1 X84.412Y103.941
G1 X84.589Y103.897
G1 X84.758Y103.835
G1 X84.913Y103.758
G1 X85.047Y103.671
G1 X85.16Y103.573
G1 X85.253Y103.463
G1 X85.392Y103.212
G1 X85.483Y102.917
G1 X85.501Y102.795
G1 X85.514Y102.635
G1 Y102.436
G1 Y102.199
G1 Y99.518
G1 X84.785
G1 Y102.17
G1 Y102.381
G1 X84.763Y102.565
G1 X84.736Y102.719
G1 X84.699Y102.845
G1 X84.647Y102.951
G1 X84.579Y103.046
G1 X84.494Y103.13
G1 X84.393Y103.202
G1 X84.154Y103.302
G1 X83.878Y103.336
G1 X83.65Y103.317
G1 X83.438Y103.261
G1 X83.242Y103.167
G1 X83.063Y103.036
G1 X82.913Y102.853
G1 X82.806Y102.602
G1 X82.741Y102.284
G1 X82.72Y101.899
G1 Y99.518
G1 X81.981
G1 Y103.878
M3
G1 F100 S1000
G4 P0.2
G1 S0
G0
M3
G0 X87.379Y102.716
M3
G1 F100 S1000
G4 P0.25
G1 S0
G0
M3
G1 X87.265Y102.43S1000F2000
G1 X87.196Y102.09
G1 X87.174Y101.698
G1 X87.196Y101.305
G1 X87.265Y100.966
G1 X87.379Y100.678
G1 X87.539Y100.444
G1 X87.733Y100.261
G1 X87.952Y100.131
G1 X88.193Y100.053
G1 X88.459Y100.027
G1 X88.722Y100.053
G1 X88.963Y100.132
G1 X89.18Y100.263
G1 X89.374Y100.446
G1 X89.534Y100.683
G1 X89.648Y100.974
G1 X89.717Y101.321
G1 X89.739Y101.722
G1 X89.716Y102.102
G1 X89.648Y102.433
G1 X89.533Y102.715
G1 X89.372Y102.948
G1 X89.177Y103.13
G1 X88.96Y103.26
G1 X88.72Y103.339
G1 X88.459Y103.365
G1 X88.193Y103.339
G1 X87.952Y103.261
G1 X87.733Y103.131
G1 X87.539Y102.95
G1 X87.379Y102.716
M3
G1 F100 S1000
G4 P0.2
G1 S0
G0
M3
G0 X86.677Y102.966
M3
G1 F100 S1000
G4 P0.25
G1 S0
G0
M3
G1 X86.793Y103.161S1000F2000
G1 X86.93Y103.336
G1 X87.087Y103.492
G1 X87.384Y103.704
G1 X87.711Y103.855
G1 X88.07Y103.946
G1 X88.459Y103.976
G1 X88.888Y103.939
G1 X89.276Y103.829
G1 X89.622Y103.645
G1 X89.928Y103.387
G1 X90.178Y103.064
G1 X90.356Y102.686
G1 X90.463Y102.251
G1 X90.499Y101.759
G1 X90.483Y101.361
G1 X90.436Y101.008
G1 X90.357Y100.699
G1 X90.246Y100.435
G1 X90.106Y100.208
G1 X89.936Y100.007
G1 X89.738Y99.833
G1 X89.512Y99.686
G1 X89.265Y99.569
G1 X89.007Y99.486
G1 X88.738Y99.436
G1 X88.459Y99.419
G1 X88.023Y99.456
G1 X87.631Y99.566
G1 X87.283Y99.75
G1 X86.979Y100.006
G1 X86.732Y100.332
G1 X86.555Y100.723
G1 X86.449Y101.178
G1 X86.414Y101.698
G1 X86.425Y101.991
G1 X86.456Y102.264
G1 X86.509Y102.518
G1 X86.582Y102.752
G1 X86.677Y102.966
M3
G1 F100 S1000
G4 P0.2
G1 S0
G0
M3
G0 X92.157Y102.415
M3
G1 F100 S1000
G4 P0.25
G1 S0
G0
M3
G1 X92.089Y102.069S1000F2000
G1 X92.067Y101.673
G1 X92.088Y101.28
G1 X92.152Y100.941
G1 X92.258Y100.658
G1 X92.407Y100.429
G1 X92.587Y100.253
G1 X92.784Y100.128
G1 X92.999Y100.052
G1 X93.233Y100.027
G1 X93.47Y100.053
G1 X93.69Y100.131
G1 X93.892Y100.261
G1 X94.076Y100.444
G1 X94.23Y100.681
G1 X94.339Y100.975
G1 X94.405Y101.326
G1 X94.427Y101.735
G1 X94.406Y102.125
G1 X94.341Y102.463
G1 X94.234Y102.749
G1 X94.084Y102.983
G1 X93.905Y103.164
G1 X93.708Y103.294
G1 X93.495Y103.371
G1 X93.265Y103.397
G1 X93.036Y103.37
G1 X92.82Y103.287
G1 X92.618Y103.149
G1 X92.43Y102.956
G1 X92.271Y102.71
G1 X92.157Y102.415
M3
G1 F100 S1000
G4 P0.2
G1 S0
G0
M3
G0 X92.071Y103.311
M3
G1 F100 S1000
G4 P0.25
G1 S0
G0
M3
G1 X92.194Y103.467S1000F2000
G1 X92.324Y103.602
G1 X92.463Y103.716
G1 X92.609Y103.81
G1 X92.766Y103.883
G1 X92.94Y103.935
G1 X93.13Y103.966
G1 X93.335Y103.976
G1 X93.606Y103.958
G1 X93.861Y103.904
G1 X94.099Y103.815
G1 X94.32Y103.689
G1 X94.521Y103.53
G1 X94.695Y103.342
G1 X94.843Y103.125
G1 X94.965Y102.878
G1 X95.06Y102.61
G1 X95.128Y102.33
G1 X95.169Y102.036
G1 X95.183Y101.731
G1 X95.167Y101.404
G1 X95.122Y101.095
G1 X95.047Y100.802
G1 X94.942Y100.526
G1 X94.809Y100.274
G1 X94.648Y100.053
G1 X94.46Y99.863
G1 X94.244Y99.705
G1 X94.013Y99.58
G1 X93.775Y99.491
G1 X93.531Y99.437
G1 X93.282Y99.419
G1 X93.102Y99.429
G1 X92.931Y99.458
G1 X92.77Y99.507
G1 X92.619Y99.575
G1 X92.351Y99.752
G1 X92.136Y99.969
G1 Y97.847
G1 X91.397
G1 Y103.878
G1 X92.071
G1 Y103.311
M3
G1 F100 S1000
G4 P0.2
G1 S0
G0
M3
G0 X96.69Y102.462
M3
G1 F100 S1000
G4 P0.25
G1 S0
G0
M3
G1 X96.627Y102.115S1000F2000
G1 X96.607Y101.71
G1 X96.629Y101.316
G1 X96.695Y100.974
G1 X96.805Y100.684
G1 X96.96Y100.448
G1 X97.145Y100.264
G1 X97.348Y100.132
G1 X97.568Y100.053
G1 X97.805Y100.027
G1 X98.033Y100.052
G1 X98.245Y100.127
G1 X98.44Y100.252
G1 X98.618Y100.427
G1 X98.767Y100.653
G1 X98.874Y100.932
G1 X98.938Y101.262
G1 X98.959Y101.644
G1 X98.936Y102.053
G1 X98.869Y102.407
G1 X98.757Y102.707
G1 X98.6Y102.954
G1 X98.412Y103.146
G1 X98.209Y103.283
G1 X97.99Y103.366
G1 X97.756Y103.393
G1 X97.525Y103.368
G1 X97.312Y103.291
G1 X97.118Y103.164
G1 X96.941Y102.985
G1 X96.795Y102.752
G1 X96.69Y102.462
M3
G1 F100 S1000
G4 P0.2
G1 S0
G0
M3
G0 X95.975Y102.648
M3
G1 F100 S1000
G4 P0.25
G1 S0
G0
M3
G1 X96.075Y102.917S1000F2000
G1 X96.202Y103.162
G1 X96.354Y103.375
G1 X96.532Y103.557
G1 X96.736Y103.707
G1 X96.958Y103.825
G1 X97.19Y103.909
G1 X97.433Y103.959
G1 X97.686Y103.976
G1 X98.069Y103.934
G1 X98.409Y103.806
G1 X98.705Y103.593
G1 X98.959Y103.295
G1 Y103.878
G1 X99.624
G1 Y97.847
G1 X98.885
G1 Y99.982
G1 X98.79Y99.866
G1 X98.678Y99.76
G1 X98.549Y99.665
G1 X98.403Y99.579
G1 X98.245Y99.509
G1 X98.083Y99.459
G1 X97.916Y99.429
G1 X97.744
G1 X97.369Y99.458
G1 X97.022Y99.574
G1 X96.701Y99.768
G1 X96.407Y100.039
G1 X96.162Y100.378
G1 X95.987Y100.774
G1 X95.882Y101.228
G1 X95.847Y101.739
G1 X95.861Y102.059
G1 X95.904Y102.362
G1 X95.975Y102.648
M3
G1 F100 S1000
G4 P0.2
G1 S0
G0
M3
G0 X100.722Y103.878
M3
G1 F100 S1000
G4 P0.25
G1 S0
G0
M3
G1 X101.387S1000F2000
G1 Y103.217
G1 X101.512Y103.429
G1 X101.631Y103.602
G1 X101.747Y103.735
G1 X101.857Y103.828
G1 X101.967Y103.893
G1 X102.083Y103.939
G1 X102.204Y103.967
G1 X102.331
G1 X102.518
G1 X102.708Y103.917
G1 X102.898Y103.842
G1 X103.09Y103.738
G1 X102.836Y103.053
G1 X102.7Y103.123
G1 X102.565Y103.173
G1 X102.429Y103.203
G1 X102.294
G1 X102.176
G1 X102.064Y103.176
G1 X101.958Y103.131
G1 X101.859Y103.067
G1 X101.769Y102.987
G1 X101.694Y102.893
G1 X101.632Y102.785
G1 X101.584Y102.663
G1 X101.491Y102.25
G1 X101.461Y101.8
G1 Y99.518
G1 X100.722
G1 Y103.878
M3
G1 F100 S1000
G4 P0.2
G1 S0
G0
M3
G0 X103.465Y103.26
M3
G1 F100 S1000
G4 P0.25
G1 S0
G0
M3
G1 X103.623Y103.487S1000F2000
G1 X103.829Y103.672
G1 X104.032Y103.79
G1 X104.299Y103.888
G1 X104.607Y103.954
G1 X104.937Y103.976
G1 X105.186
G1 X105.419Y103.939
G1 X105.636Y103.893
G1 X105.838Y103.828
G1 X106.019Y103.748
G1 X106.175Y103.654
G1 X106.306Y103.548
G1 X106.411Y103.428
G1 X106.496Y103.291
G1 X106.567Y103.133
G1 X106.623Y102.954
G1 X106.665Y102.753
G1 X105.943Y102.654
G1 X105.907Y102.813
G1 X105.847Y102.954
G1 X105.764Y103.076
G1 X105.658Y103.18
G1 X105.527Y103.262
G1 X105.373Y103.321
G1 X105.194Y103.357
G1 X104.99Y103.369
G1 X104.754Y103.358
G1 X104.554Y103.327
G1 X104.391Y103.274
G1 X104.264Y103.2
G1 X104.169Y103.113
G1 X104.101Y103.018
G1 X104.06Y102.916
G1 X104.046Y102.806
G1 X104.069Y102.67
G1 X104.137Y102.548
G1 X104.253Y102.439
G1 X104.42Y102.351
G1 X104.502Y102.323
G1 X104.638Y102.283
G1 X104.829Y102.229
G1 X105.435Y102.062
G1 X105.738Y101.971
G1 X105.982Y101.89
G1 X106.167Y101.819
G1 X106.313Y101.745
G1 X106.443Y101.655
G1 X106.556Y101.551
G1 X106.653Y101.431
G1 X106.73Y101.296
G1 X106.785Y101.146
G1 X106.819Y100.98
G1 X106.83Y100.799
G1 X106.816Y100.617
G1 X106.776Y100.44
G1 X106.708Y100.269
G1 X106.614Y100.103
G1 X106.494Y99.949
G1 X106.351Y99.813
G1 X106.183Y99.697
G1 X105.992Y99.598
G1 X105.782Y99.52
G1 X105.559Y99.464
G1 X105.322Y99.431
G1 X105.073Y99.419
G1 X104.673Y99.441
G1 X104.324Y99.508
G1 X104.025Y99.618
G1 X103.777Y99.772
G1 X103.575Y99.97
G1 X103.413Y100.211
G1 X103.291Y100.494
G1 X103.209Y100.819
G1 X103.94Y100.934
G1 X103.984Y100.727
G1 X104.056Y100.546
G1 X104.155Y100.391
G1 X104.282Y100.261
G1 X104.437Y100.159
G1 X104.619Y100.085
G1 X104.83Y100.042
G1 X105.068Y100.027
G1 X105.307Y100.04
G1 X105.512Y100.079
G1 X105.684Y100.144
G1 X105.824Y100.234
G1 X105.932Y100.342
G1 X106.009Y100.46
G1 X106.055Y100.586
G1 X106.07Y100.721
G1 X106.057Y100.839
G1 X106.016Y100.944
G1 X105.948Y101.036
G1 X105.853Y101.115
G1 X105.748Y101.167
G1 X105.588Y101.227
G1 X105.371Y101.293
G1 X104.722Y101.464
G1 X104.409Y101.557
G1 X104.159Y101.642
G1 X103.97Y101.72
G1 X103.823Y101.802
G1 X103.694Y101.899
G1 X103.585Y102.01
G1 X103.494Y102.135
G1 X103.423Y102.271
G1 X103.372Y102.414
G1 X103.342Y102.563
G1 X103.332Y102.72
G1 X103.365Y103.001
G1 X103.465Y103.26
M3
G1 F100 S1000
G4 P0.2
G1 S0
G0
M3
G0 X107.302Y103.303
M3
G1 F100 S1000
G4 P0.25
G1 S0
G0
M3
G1 Y103.878S1000F2000
G1 X107.844
G1 Y104.957
G1 X108.578Y105.401
G1 Y103.878
G1 X109.322
G1 Y103.303
G1 X108.578
G1 Y100.754
G1 Y100.61
G1 X108.588Y100.494
G1 X108.6Y100.406
G1 X108.617Y100.347
G1 X108.669Y100.266
G1 X108.745Y100.203
G1 X108.852Y100.163
G1 X108.997Y100.15
G1 X109.14
G1 X109.322Y100.179
G1 X109.428Y99.526
G1 X109.133Y99.477
G1 X108.87Y99.46
G1 X108.68
G1 X108.513Y99.492
G1 X108.368Y99.532
G1 X108.246Y99.588
G1 X108.143Y99.656
G1 X108.057Y99.735
G1 X107.987Y99.824
G1 X107.934Y99.922
G1 X107.894Y100.055
G1 X107.866Y100.244
G1 X107.849Y100.491
G1 Y100.795
G1 Y103.303
G1 X107.302
M3
G1 F100 S1000
G4 P0.2
G1 S0
G0
M3
G0 X110.046Y103.878
M3
G1 F100 S1000
G4 P0.25
G1 S0
G0
M3
G1 X110.785S1000F2000
G1 Y101.46
G1 Y101.194
G1 X110.796Y100.975
G1 X110.81Y100.804
G1 X110.83Y100.68
G1 X110.875Y100.542
G1 X110.939Y100.42
G1 X111.022Y100.313
G1 X111.126Y100.222
G1 X111.245Y100.149
G1 X111.378Y100.097
G1 X111.524Y100.066
G1 X111.684Y100.056
G1 X111.848Y100.066
G1 X112.006Y100.098
G1 X112.16Y100.152
G1 X112.308Y100.226
G1 X112.443Y100.319
G1 X112.557Y100.427
G1 X112.649Y100.551
G1 X112.72Y100.69
G1 X112.773Y100.853
G1 X112.811Y101.05
G1 X112.834Y101.279
G1 Y101.542
G1 Y103.878
G1 X113.58
G1 Y99.518
G1 X112.92
G1 Y100.158
G1 X112.787Y99.985
G1 X112.642Y99.835
G1 X112.486Y99.708
G1 X112.319Y99.604
G1 X112.14Y99.523
G1 X111.95Y99.466
G1 X111.749Y99.431
G1 X111.536Y99.419
G1 X111.346
G1 X111.163Y99.456
G1 X110.986Y99.503
G1 X110.816Y99.567
G1 X110.659Y99.646
G1 X110.524Y99.734
G1 X110.411Y99.832
G1 X110.319Y99.939
G1 X110.181Y100.188
G1 X110.091Y100.487
G1 X110.071Y100.611
G1 X110.057Y100.768
G1 Y100.956
G1 X110.046Y101.176
G1 Y103.878
M3
G1 F100 S1000
G4 P0.2
G1 S0
G0
M3
G0 X114.323Y103.878
M3
G1 F100 S1000
G4 P0.25
G1 S0
G0
M3
G1 X115.103S1000F2000
G1 X116.039Y101.267
G1 X116.185Y100.836
G1 X116.318Y100.388
G1 X116.436Y100.768
G1 X116.593Y101.217
G1 X117.562Y103.878
G1 X118.322
G1 X116.671Y99.518
G1 X115.982
G1 X114.323Y103.878
M3
G1 F100 S1000
G4 P0.2
G1 S0
G0
M3
G0 X118.361Y103.878
M3
G1 F100 S1000
G4 P0.25
G1 S0
G0
M3
G1 X119.124S1000F2000
G1 X120.077Y100.425
G1 X120.302Y101.324
G1 X120.996Y103.878
G1 X121.756
G1 X122.408Y101.349
G1 X122.626Y100.515
G1 X123.624Y103.878
G1 X124.342
G1 X122.979Y99.518
G1 X122.211
G1 X121.518Y102.129
G1 X121.349Y102.872
G1 X120.467Y99.518
G1 X119.695
G1 X118.361Y103.878
M3
G1 F100 S1000
G4 P0.2
G1 S0
G0
M3
G0 X124.486Y103.878
M3
G1 F100 S1000
G4 P0.25
G1 S0
G0
M3
G1 X125.41S1000F2000
G1 X126.079Y102.855
G1 X126.249Y102.588
G1 X126.383Y102.367
G1 X126.556Y102.623
G1 X127.45Y103.878
G1 X128.333
G1 X126.826Y101.825
G1 X128.448Y99.518
G1 X127.54
G1 X126.645Y100.873
G1 X126.407Y101.238
G1 X125.262Y99.518
G1 X124.367
G1 X125.96Y101.784
G1 X124.486Y103.878
M3
G1 F100 S1000
G4 P0.2
G1 S0
G0
M3
G0 X128.561Y103.878
M3
G1 F100 S1000
G4 P0.25
G1 S0
G0
M3
G1 X129.357S1000F2000
G1 X130.264Y101.353
G1 X130.432Y100.86
G1 X130.58Y100.343
G1 X130.72Y100.846
G1 X130.884Y101.337
G1 X131.816Y103.878
G1 X132.555
G1 X130.896Y99.444
G1 X130.77Y99.113
G1 X130.659Y98.837
G1 X130.563Y98.618
G1 X130.482Y98.455
G1 X130.38Y98.284
G1 X130.27Y98.138
G1 X130.154Y98.016
G1 X130.03Y97.919
G1 X129.897Y97.844
G1 X129.751Y97.791
G1 X129.593Y97.759
G1 X129.423Y97.749
G1 X129.197Y97.771
G1 X128.946Y97.839
G1 X128.864Y98.533
G1 X129.091Y98.483
G1 X129.287Y98.467
G1 X129.509Y98.487
G1 X129.681Y98.549
G1 X129.816Y98.648
G1 X129.924Y98.779
G1 X129.964Y98.855
G1 X130.015Y98.972
G1 X130.077Y99.13
G1 X130.215Y99.51
G1 X128.561Y103.878
M3
G1 F100 S1000
G4 P0.2
G1 S0
G0
M3
G0 X132.873Y103.878
M3
G1 F100 S1000
G4 P0.25
G1 S0
G0
M3
G1 X136.437S1000F2000
G1 Y103.389
G1 X134.076Y100.622
G1 X133.62Y100.117
G1 X134.102Y100.145
G1 X134.552
G1 X136.568
G1 Y99.518
G1 X132.709
G1 Y100.117
G1 X135.484Y103.303
G1 X135.04Y103.284
G1 X134.651
G1 X132.873
G1 Y103.878
M3
G1 F100 S1000
G4 P0.2
G1 S0
G0
M3
G0 X137.58Y104.05
M3
G1 F100 S1000
G4 P0.25
G1 S0
G0
M3
G1 X137.88Y104.204S1000F2000
G1 X138.161Y104.372
G1 X138.422Y104.557
G1 X138.664Y104.756
G1 X138.879Y104.962
G1 X139.06Y105.165
G1 X139.207Y105.364
G1 X139.321Y105.561
G1 X139.797
G1 Y99.518
G1 X139.058
G1 Y104.227
G1 X138.749Y103.972
G1 X138.358Y103.718
G1 X137.947Y103.495
G1 X137.58Y103.336
G1 Y104.05
M3
G1 F100 S1000
G4 P0.2
G1 S0
G0
M3
G0 X141.767Y103.82
M3
G1 F100 S1000
G4 P0.25
G1 S0
G0
M3
G1 X141.833Y104.22S1000F2000
G1 X141.953Y104.569
G1 X142.126Y104.867
G1 X142.354Y105.115
G1 X142.63Y105.31
G1 X142.95Y105.45
G1 X143.314Y105.533
G1 X143.721Y105.561
G1 X144.132Y105.531
G1 X144.497Y105.441
G1 X144.817Y105.291
G1 X145.092Y105.081
G1 X145.313Y104.826
G1 X145.471Y104.543
G1 X145.566Y104.231
G1 X145.597Y103.89
G1 X145.56Y103.532
G1 X145.449Y103.18
G1 X145.253Y102.822
G1 X144.959Y102.445
G1 X144.759Y102.234
G1 X144.503Y101.987
G1 X144.189Y101.704
G1 X143.82Y101.386
G1 X143.517Y101.129
G1 X143.273Y100.917
G1 X143.09Y100.75
G1 X142.966Y100.628
G1 X142.793Y100.429
G1 X142.654Y100.228
G1 X145.605
G1 Y99.518
G1 X141.627
G1 X141.645Y99.78
G1 X141.714Y100.031
G1 X141.801Y100.234
G1 X141.911Y100.434
G1 X142.044Y100.634
G1 X142.2Y100.832
G1 X142.386Y101.036
G1 X142.609Y101.256
G1 X142.869Y101.492
G1 X143.618Y102.124
G1 X143.989Y102.464
G1 X144.281Y102.762
G1 X144.493Y103.018
G1 X144.644Y103.249
G1 X144.751Y103.475
G1 X144.816Y103.694
G1 X144.838Y103.906
G1 X144.818Y104.117
G1 X144.759Y104.311
G1 X144.661Y104.488
G1 X144.524Y104.647
G1 X144.355Y104.779
G1 X144.162Y104.874
G1 X143.945Y104.93
G1 X143.705Y104.949
G1 X143.451Y104.929
G1 X143.224Y104.869
G1 X143.024Y104.769
G1 X142.851Y104.629
G1 X142.71Y104.453
G1 X142.609Y104.247
G1 X142.548Y104.01
G1 X142.526Y103.742
G1 X141.767Y103.82
M3
G1 F100 S1000
G4 P0.2
G1 S0
G0
M3
G0 X141.086Y96.958
M3
G1 F100 S1000
G4 P0.25
G1 S0
G0
M3
G1 X141.505Y96.928S1000F2000
G1 X141.879Y96.838
G1 X142.209Y96.688
G1 X142.494Y96.477
G1 X142.724Y96.225
G1 X142.888Y95.947
G1 X142.987Y95.644
G1 X143.019Y95.316
G1 X143.008Y95.122
G1 X142.973Y94.937
G1 X142.916Y94.759
G1 X142.835Y94.589
G1 X142.72Y94.414
G1 X142.562Y94.221
G1 X142.359Y94.009
G1 X142.112Y93.78
G1 X141.947Y93.631
G1 X141.814Y93.502
G1 X141.711Y93.395
G1 X141.64Y93.308
G1 X141.544Y93.145
G1 X141.476Y92.959
G1 X141.452Y92.845
G1 X141.434Y92.701
G1 X141.421Y92.525
G1 Y92.319
G1 X140.704
G1 Y92.541
G1 X140.731Y92.946
G1 X140.823Y93.292
G1 X140.941Y93.531
G1 X141.115Y93.772
G1 X141.203Y93.871
G1 X141.321Y93.989
G1 X141.469Y94.128
G1 X141.646Y94.287
G1 X141.821Y94.448
G1 X141.963Y94.592
G1 X142.071Y94.718
G1 X142.145Y94.827
G1 X142.231Y95.038
G1 X142.26Y95.266
G1 X142.239Y95.475
G1 X142.176Y95.671
G1 X142.071Y95.854
G1 X141.923Y96.024
G1 X141.746Y96.167
G1 X141.549Y96.269
G1 X141.333Y96.33
G1 X141.098Y96.35
G1 X140.872Y96.332
G1 X140.665Y96.276
G1 X140.478Y96.184
G1 X140.31Y96.055
G1 X140.166Y95.886
G1 X140.048Y95.676
G1 X139.958Y95.424
G1 X139.895Y95.131
G1 X139.136Y95.221
G1 X139.212Y95.617
G1 X139.34Y95.964
G1 X139.517Y96.262
G1 X139.746Y96.51
G1 X140.019Y96.706
G1 X140.334Y96.846
G1 X140.69Y96.93
G1 X141.086Y96.958
M3
G1 F100 S1000
G4 P0.2
G1 S0
G0
M3
G0 X143.934Y95.841
M3
G1 F100 S1000
G4 P0.25
G1 S0
G0
M3
G1 X147.921Y94.158S1000F2000
G1 Y93.468
G1 X143.934Y91.765
G1 Y92.499
G1 X147.091Y93.809
G1 X143.934Y95.106
G1 Y95.841
M3
G1 F100 S1000
G4 P0.2
G1 S0
G0
M3
G0 X138.013Y95.197
M3
G1 F100 S1000
G4 P0.25
G1 S0
G0
M3
G1 Y94.355S1000F2000
G1 X137.172
G1 Y95.197
G1 X138.013
M3
G1 F100 S1000
G4 P0.2
G1 S0
G0
M3
G0 X138.013Y91.678
M3
G1 F100 S1000
G4 P0.25
G1 S0
G0
M3
G1 Y90.837S1000F2000
G1 X137.172
G1 Y91.678
G1 X138.013
M3
G1 F100 S1000
G4 P0.2
G1 S0
G0
M3
G0 X140.659Y91.678
M3
G1 F100 S1000
G4 P0.25
G1 S0
G0
M3
G1 X141.501S1000F2000
G1 Y90.837
G1 X140.659
G1 Y91.678
M3
G1 F100 S1000
G4 P0.2
G1 S0
G0
M3
G0 X132.845Y92.666
M3
G1 F100 S1000
G4 P0.25
G1 S0
G0
M3
G1 X132.956Y93.083S1000F2000
G1 X132.993Y93.501
G1 X132.975Y93.765
G1 X132.924Y93.997
G1 X132.837Y94.198
G1 X132.716Y94.367
G1 X132.57Y94.502
G1 X132.408Y94.598
G1 X132.232Y94.656
G1 X132.04Y94.675
G1 X131.785Y94.642
G1 X131.546Y94.542
G1 X131.317Y94.368
G1 X131.096Y94.113
G1 X130.9Y93.785
G1 X130.747Y93.394
G1 X130.649Y92.989
G1 X130.616Y92.619
G1 X130.633Y92.353
G1 X130.683Y92.119
G1 X130.766Y91.916
G1 X130.883Y91.744
G1 X131.021Y91.608
G1 X131.169Y91.51
G1 X131.327Y91.452
G1 X131.494Y91.432
G1 X131.73Y91.466
G1 X131.979Y91.57
G1 X132.228Y91.741
G1 X132.465Y91.978
G1 X132.676Y92.285
G1 X132.845Y92.666
M3
G1 F100 S1000
G4 P0.2
G1 S0
G0
M3
G0 X133.456Y92.158
M3
G1 F100 S1000
G4 P0.25
G1 S0
G0
M3
G1 X133.418Y91.967S1000F2000
G1 X133.395Y91.84
G1 Y91.777
G1 X133.408Y91.674
G1 X133.471Y91.586
G1 X133.564Y91.526
G1 X133.674Y91.506
G1 X133.792Y91.522
G1 X133.926Y91.569
G1 X134.077Y91.647
G1 X134.245Y91.756
G1 X134.467Y91.935
G1 X134.664Y92.141
G1 X134.837Y92.375
G1 X134.986Y92.637
G1 X135.105Y92.915
G1 X135.191Y93.198
G1 X135.242Y93.485
G1 X135.259Y93.776
G1 X135.237Y94.113
G1 X135.171Y94.439
G1 X135.061Y94.754
G1 X134.908Y95.057
G1 X134.711Y95.34
G1 X134.471Y95.593
G1 X134.187Y95.816
G1 X133.861Y96.009
G1 X133.504Y96.166
G1 X133.129Y96.277
G1 X132.735Y96.344
G1 X132.324Y96.367
G1 X131.854Y96.339
G1 X131.405Y96.254
G1 X130.976Y96.114
G1 X130.569Y95.917
G1 X130.194Y95.668
G1 X129.864Y95.37
G1 X129.578Y95.023
G1 X129.337Y94.628
G1 X129.146Y94.201
G1 X129.009Y93.758
G1 X128.927Y93.301
G1 X128.9Y92.828
G1 X128.927Y92.342
G1 X129.009Y91.892
G1 X129.146Y91.476
G1 X129.337Y91.095
G1 X129.58Y90.756
G1 X129.872Y90.464
G1 X130.212Y90.219
G1 X130.601Y90.022
G1 X131.026Y89.87
G1 X131.473Y89.762
G1 X131.943Y89.697
G1 X132.434Y89.675
G1 X132.95Y89.698
G1 X133.423Y89.765
G1 X133.852Y89.878
G1 X134.237Y90.036
G1 X134.577Y90.227
G1 X134.872Y90.437
G1 X135.121Y90.666
G1 X135.325Y90.915
G1 X136.068
G1 X135.944Y90.698
G1 X135.783Y90.48
G1 X135.585Y90.259
G1 X135.349Y90.036
G1 X135.083Y89.824
G1 X134.792Y89.636
G1 X134.477Y89.47
G1 X134.138Y89.328
G1 X133.769Y89.214
G1 X133.364Y89.133
G1 X132.923Y89.084
G1 X132.447Y89.067
G1 X132Y89.082
G1 X131.571Y89.126
G1 X131.159Y89.199
G1 X130.766Y89.301
G1 X130.395Y89.433
G1 X130.053Y89.594
G1 X129.739Y89.785
G1 X129.454Y90.006
G1 X129.2Y90.249
G1 X128.979Y90.511
G1 X128.791Y90.79
G1 X128.637Y91.087
G1 X128.486Y91.483
G1 X128.378Y91.894
G1 X128.314Y92.32
G1 X128.292Y92.762
G1 X128.318Y93.257
G1 X128.395Y93.74
G1 X128.523Y94.212
G1 X128.703Y94.671
G1 X128.979Y95.195
G1 X129.309Y95.653
G1 X129.691Y96.047
G1 X130.125Y96.375
G1 X130.611Y96.633
G1 X131.145Y96.818
G1 X131.728Y96.929
G1 X132.361Y96.966
G1 X132.857Y96.94
G1 X133.327Y96.862
G1 X133.771Y96.732
G1 X134.189Y96.549
G1 X134.573Y96.315
G1 X134.915Y96.031
G1 X135.213Y95.695
G1 X135.468Y95.307
G1 X135.642Y94.945
G1 X135.767Y94.566
G1 X135.842Y94.173
G1 X135.866Y93.764
G1 X135.853Y93.47
G1 X135.814Y93.185
G1 X135.749Y92.909
G1 X135.657Y92.64
G1 X135.539Y92.38
G1 X135.395Y92.128
G1 X135.225Y91.885
G1 X135.029Y91.65
G1 X134.84Y91.455
G1 X134.647Y91.287
G1 X134.449Y91.144
G1 X134.247Y91.028
G1 X134.041Y90.937
G1 X133.83Y90.872
G1 X133.615Y90.833
G1 X133.395Y90.82
G1 X133.139Y90.842
G1 X132.937Y90.907
G1 X132.786Y91.011
G1 X132.681Y91.153
G1 X132.635Y91.293
G1 X132.603Y91.506
G1 X132.32Y91.228
G1 X132.005Y91.011
G1 X131.84Y90.93
G1 X131.674Y90.871
G1 X131.509Y90.836
G1 X131.342Y90.825
G1 X131.161Y90.838
G1 X130.982Y90.878
G1 X130.806Y90.945
G1 X130.632Y91.038
G1 X130.468Y91.159
G1 X130.32Y91.309
G1 X130.188Y91.488
G1 X130.072Y91.695
G1 X129.978Y91.922
G1 X129.91Y92.16
G1 X129.87Y92.408
G1 X129.856Y92.668
G1 X129.877Y92.994
G1 X129.94Y93.321
G1 X130.045Y93.648
G1 X130.191Y93.975
G1 X130.368Y94.282
G1 X130.566Y94.549
G1 X130.784Y94.774
G1 X131.022Y94.959
G1 X131.269Y95.102
G1 X131.512Y95.205
G1 X131.751Y95.266
G1 X131.987Y95.287
G1 X132.164Y95.275
G1 X132.336Y95.24
G1 X132.504Y95.182
G1 X132.668Y95.1
G1 X132.825Y94.995
G1 X132.97Y94.865
G1 X133.104Y94.71
G1 X133.227Y94.532
G1 X133.366Y95.168
G1 X134.101
G1 X133.456Y92.158
M3
G1 F100 S1000
G4 P0.2
G1 S0
G0
M3
G0 X127.517Y93.6
M3
G1 F100 S1000
G4 P0.25
G1 S0
G0
M3
G1 X127.253Y93.387S1000F2000
G1 X126.985Y93.243
G1 X126.7Y93.159
G1 X126.38Y93.132
G1 X126.139Y93.146
G1 X125.91Y93.189
G1 X125.782Y93.228
G1 X125.62Y93.287
G1 X125.426Y93.365
G1 X125.2Y93.464
G1 X124.966Y93.559
G1 X124.754Y93.627
G1 X124.561Y93.668
G1 X124.389Y93.682
G1 X124.134Y93.654
G1 X123.894Y93.569
G1 X123.771Y93.499
G1 X123.634Y93.401
G1 X123.483Y93.276
G1 X123.317Y93.123
G1 Y93.965
G1 X123.552Y94.181
G1 X123.82Y94.335
G1 X124.122Y94.427
G1 X124.459Y94.458
G1 X124.711Y94.44
G1 X124.976Y94.386
G1 X125.126Y94.341
G1 X125.304Y94.279
G1 X125.512Y94.198
G1 X125.748Y94.101
G1 X125.996Y94.002
G1 X126.173Y93.945
G1 X126.315Y93.917
G1 X126.458
G1 X126.729Y93.948
G1 X127.01Y94.068
G1 X127.279Y94.248
G1 X127.517Y94.47
G1 Y93.6
M3
G1 F100 S1000
G4 P0.2
G1 S0
G0
M3
G0 X121.918Y94.113
M3
G1 F100 S1000
G4 P0.25
G1 S0
G0
M3
G1 X121.875Y93.906S1000F2000
G1 X121.818Y93.724
G1 X121.748Y93.567
G1 X121.666Y93.435
G1 X121.564Y93.32
G1 X121.436Y93.211
G1 X121.283Y93.108
G1 X121.105Y93.013
G1 X121.316Y92.906
G1 X121.495Y92.774
G1 X121.643Y92.617
G1 X121.76Y92.436
G1 X121.849Y92.211
G1 X121.912Y91.924
G1 X121.951Y91.576
G1 X121.963Y91.165
G1 Y90.806
G1 Y90.527
G1 Y90.329
G1 X121.98Y90.213
G1 X122.002Y90.084
G1 X122.038Y89.976
G1 X122.086Y89.889
G1 X122.146Y89.823
G1 X122.229Y89.774
G1 X122.344Y89.74
G1 X122.49Y89.719
G1 X122.669
G1 X122.797
G1 Y89.067
G1 X122.567
G1 X122.379
G1 X122.22Y89.084
G1 X122.088Y89.104
G1 X121.984Y89.133
G1 X121.744Y89.257
G1 X121.549Y89.439
G1 X121.47Y89.552
G1 X121.406Y89.679
G1 X121.358Y89.82
G1 X121.325Y89.975
G1 X121.302Y90.163
G1 X121.285Y90.403
G1 X121.274Y90.694
G1 X121.264Y91.379
G1 X121.25Y91.663
G1 X121.229Y91.89
G1 X121.2Y92.06
G1 X121.159Y92.194
G1 X121.101Y92.314
G1 X121.026Y92.418
G1 X120.935Y92.508
G1 X120.828Y92.58
G1 X120.707Y92.633
G1 X120.57Y92.666
G1 X120.42Y92.68
G1 Y93.349
G1 X120.57Y93.363
G1 X120.707Y93.396
G1 X120.828Y93.448
G1 X120.935Y93.52
G1 X121.026Y93.608
G1 X121.101Y93.712
G1 X121.159Y93.831
G1 X121.2Y93.965
G1 X121.229Y94.132
G1 X121.25Y94.349
G1 X121.264Y94.616
G1 Y94.934
G1 Y95.247
G1 X121.278Y95.502
G1 Y95.699
G1 X121.294Y95.837
G1 X121.347Y96.148
G1 X121.432Y96.391
G1 X121.544Y96.58
G1 X121.68Y96.726
G1 X121.848Y96.836
G1 X122.058Y96.917
G1 X122.148Y96.935
G1 X122.263Y96.948
G1 X122.403
G1 X122.567
G1 X122.797
G1 Y96.313
G1 X122.669
G1 X122.474
G1 X122.314Y96.275
G1 X122.191Y96.227
G1 X122.103Y96.159
G1 X122.042Y96.059
G1 X121.998Y95.91
G1 X121.972Y95.715
G1 Y95.472
G1 X121.96Y94.983
G1 Y94.594
G1 X121.938Y94.304
G1 X121.918Y94.113
M3
G1 F100 S1000
G4 P0.2
G1 S0
G0
M3
G0 X119.981Y93.349
M3
G1 F100 S1000
G4 P0.25
G1 S0
G0
M3
G1 Y92.68S1000F2000
G1 X119.83Y92.666
G1 X119.694Y92.633
G1 X119.573Y92.58
G1 X119.466Y92.508
G1 X119.375Y92.418
G1 X119.3Y92.314
G1 X119.242Y92.196
G1 X119.201Y92.062
G1 X119.172Y91.896
G1 X119.151Y91.68
G1 X119.137Y91.413
G1 Y91.095
G1 Y90.782
G1 X119.123Y90.527
G1 Y90.33
G1 X119.107Y90.192
G1 X119.054Y89.879
G1 X118.969Y89.636
G1 X118.857Y89.449
G1 X118.721Y89.304
G1 X118.552Y89.193
G1 X118.343Y89.113
G1 X118.253Y89.093
G1 X118.138Y89.079
G1 X117.998
G1 X117.834Y89.067
G1 X117.604
G1 Y89.712
G1 X117.731
G1 X117.927
G1 X118.086Y89.75
G1 X118.21Y89.799
G1 X118.298Y89.866
G1 X118.359Y89.967
G1 X118.403Y90.116
G1 X118.429Y90.313
G1 Y90.558
G1 X118.44Y91.024
G1 Y91.396
G1 X118.458Y91.675
G1 X118.474Y91.859
G1 X118.516Y92.075
G1 X118.573Y92.269
G1 X118.647Y92.44
G1 X118.737Y92.588
G1 X118.846Y92.717
G1 X118.975Y92.83
G1 X119.125Y92.929
G1 X119.295Y93.013
G1 X119.077Y93.135
G1 X118.893Y93.275
G1 X118.744Y93.433
G1 X118.63Y93.61
G1 X118.546Y93.828
G1 X118.486Y94.109
G1 X118.45Y94.455
G1 X118.438Y94.864
G1 Y95.224
G1 Y95.504
G1 X118.426Y95.702
G1 Y95.821
G1 X118.396Y95.948
G1 X118.362Y96.054
G1 X118.315Y96.14
G1 X118.255Y96.204
G1 X118.172Y96.252
G1 X118.057Y96.286
G1 X117.91Y96.306
G1 X117.731
G1 X117.604
G1 Y96.958
G1 X117.834
G1 X118.021
G1 X118.181Y96.941
G1 X118.313Y96.921
G1 X118.417Y96.892
G1 X118.543Y96.839
G1 X118.657Y96.771
G1 X118.76Y96.687
G1 X118.852Y96.588
G1 X118.931Y96.475
G1 X118.994Y96.347
G1 X119.043Y96.206
G1 X119.076Y96.051
G1 X119.099Y95.862
G1 X119.115Y95.623
G1 X119.126Y95.331
G1 X119.137Y94.646
G1 X119.151Y94.363
G1 X119.172Y94.136
G1 X119.201Y93.967
G1 X119.242Y93.834
G1 X119.3Y93.715
G1 X119.375Y93.611
G1 X119.466Y93.522
G1 X119.573Y93.449
G1 X119.694Y93.396
G1 X119.83Y93.363
G1 X119.981Y93.349
M3
G1 F100 S1000
G4 P0.2
G1 S0
G0
M3
G0 X116.977Y93.46
M3
G1 F100 S1000
G4 P0.25
G1 S0
G0
M3
G1 X115.339S1000F2000
G1 Y91.81
G1 X114.641
G1 Y93.46
G1 X113.003
G1 Y94.15
G1 X114.641
G1 Y95.788
G1 X115.339
G1 Y94.15
G1 X116.977
G1 Y93.46
M3
G1 F100 S1000
G4 P0.2
G1 S0
G0
M3
G0 X112.597Y89.7
M3
G1 F100 S1000
G4 P0.25
G1 S0
G0
M3
G1 Y89.166S1000F2000
G1 X107.699
G1 Y89.7
G1 X112.597
M3
G1 F100 S1000
G4 P0.2
G1 S0
G0
M3
G0 X107.123Y90.874
M3
G1 F100 S1000
G4 P0.25
G1 S0
G0
M3
G1 X106.899Y90.373S1000F2000
G1 X106.653Y89.905
G1 X106.383Y89.47
G1 X106.091Y89.067
G1 X105.561
G1 X105.849Y89.56
G1 X106.098Y90.053
G1 X106.309Y90.546
G1 X106.482Y91.039
G1 X106.616Y91.532
G1 X106.712Y92.026
G1 X106.769Y92.519
G1 X106.789Y93.013
G1 X106.778Y93.398
G1 X106.744Y93.781
G1 X106.689Y94.163
G1 X106.612Y94.544
G1 X106.445Y95.147
G1 X106.222Y95.726
G1 X106.121Y95.942
G1 X105.977Y96.219
G1 X105.79Y96.558
G1 X105.561Y96.958
G1 X106.091
G1 X106.451Y96.442
G1 X106.762Y95.925
G1 X107.022Y95.408
G1 X107.232Y94.889
G1 X107.37Y94.436
G1 X107.469Y93.973
G1 X107.528Y93.5
G1 X107.548Y93.017
G1 X107.521Y92.467
G1 X107.442Y91.927
G1 X107.309Y91.396
G1 X107.123Y90.874
M3
G1 F100 S1000
G4 P0.2
G1 S0
G0
M3
G0 X104.026Y90.546
M3
G1 F100 S1000
G4 P0.25
G1 S0
G0
M3
G1 X104.237Y90.053S1000F2000
G1 X104.486Y89.56
G1 X104.774Y89.067
G1 X104.244
G1 X103.95Y89.47
G1 X103.679Y89.905
G1 X103.433Y90.373
G1 X103.209Y90.874
G1 X103.024Y91.396
G1 X102.892Y91.927
G1 X102.813Y92.467
G1 X102.787Y93.017
G1 X102.806Y93.5
G1 X102.866Y93.973
G1 X102.964Y94.436
G1 X103.103Y94.889
G1 X103.313Y95.408
G1 X103.573Y95.925
G1 X103.883Y96.442
G1 X104.244Y96.958
G1 X104.774
G1 X104.546Y96.561
G1 X104.361Y96.226
G1 X104.218Y95.952
G1 X104.117Y95.739
G1 X103.893Y95.16
G1 X103.723Y94.556
G1 X103.645Y94.172
G1 X103.59Y93.786
G1 X103.557Y93.4
G1 X103.546Y93.013
G1 X103.565Y92.519
G1 X103.623Y92.026
G1 X103.719Y91.532
G1 X103.853Y91.039
G1 X104.026Y90.546
M3
G1 F100 S1000
G4 P0.2
G1 S0
G0
M3
G0 X101.166Y94.396
M3
G1 F100 S1000
G4 P0.25
G1 S0
G0
M3
G1 X101.042Y94.573S1000F2000
G1 X100.907Y94.779
G1 X100.761Y95.014
G1 X100.604Y95.279
G1 X100.456Y95.007
G1 X100.318Y94.769
G1 X100.19Y94.565
G1 X100.07Y94.396
G1 X99.586Y94.745
G1 X99.807Y95.014
G1 X99.994Y95.233
G1 X100.148Y95.402
G1 X100.267Y95.521
G1 X99.751Y95.63
G1 X99.261Y95.751
G1 X99.45Y96.334
G1 X99.754Y96.223
G1 X100.014Y96.119
G1 X100.228Y96.024
G1 X100.398Y95.936
G1 X100.364Y96.278
G1 X100.339Y96.563
G1 X100.323Y96.789
G1 Y96.958
G1 X100.912
G1 X100.901Y96.742
G1 X100.882Y96.5
G1 X100.854Y96.233
G1 X100.817Y95.94
G1 X101.271Y96.145
G1 X101.786Y96.334
G1 X101.975Y95.751
G1 X101.459Y95.607
G1 X100.953Y95.521
G1 X101.091Y95.391
G1 X101.254Y95.218
G1 X101.444Y95.003
G1 X101.659Y94.745
G1 X101.166Y94.396
M3
G1 F100 S1000
G4 P0.2
G1 S0
G0
M3
G0 X96.586Y95.405
M3
G1 F100 S1000
G4 P0.25
G1 S0
G0
M3
G1 X96.621Y95.652S1000F2000
G1 X96.609Y95.799
G1 X96.572Y95.932
G1 X96.511Y96.051
G1 X96.426Y96.155
G1 X96.322Y96.241
G1 X96.207Y96.301
G1 X96.079Y96.338
G1 X95.94Y96.35
G1 X95.796Y96.338
G1 X95.665Y96.302
G1 X95.547Y96.242
G1 X95.441Y96.157
G1 X95.354Y96.055
G1 X95.291Y95.943
G1 X95.254Y95.819
G1 X95.242Y95.685
G1 X95.26Y95.542
G1 X95.313Y95.392
G1 X95.403Y95.233
G1 X95.529Y95.065
G1 X95.857Y94.683
G1 X96.076Y94.821
G1 X96.253Y94.949
G1 X96.387Y95.069
G1 X96.479Y95.18
G1 X96.586Y95.405
M3
G1 F100 S1000
G4 P0.2
G1 S0
G0
M3
G0 X95.541Y93.809
M3
G1 F100 S1000
G4 P0.25
G1 S0
G0
M3
G1 X95.266Y93.634S1000F2000
G1 X95.039Y93.465
G1 X94.862Y93.302
G1 X94.733Y93.146
G1 X94.641Y92.994
G1 X94.576Y92.842
G1 X94.536Y92.691
G1 X94.523Y92.541
G1 X94.541Y92.356
G1 X94.596Y92.168
G1 X94.687Y91.976
G1 X94.815Y91.781
G1 X94.976Y91.609
G1 X95.167Y91.485
G1 X95.388Y91.412
G1 X95.64Y91.387
G1 X95.808Y91.4
G1 X95.978Y91.439
G1 X96.151Y91.504
G1 X96.327Y91.594
G1 X96.496Y91.705
G1 X96.647Y91.832
G1 X96.78Y91.973
G1 X96.896Y92.13
G1 X95.541Y93.809
M3
G1 F100 S1000
G4 P0.2
G1 S0
G0
M3
G0 X95.16Y94.293
M3
G1 F100 S1000
G4 P0.25
G1 S0
G0
M3
G1 X94.973Y94.516S1000F2000
G1 X94.821Y94.717
G1 X94.702Y94.896
G1 X94.618Y95.053
G1 X94.516Y95.339
G1 X94.482Y95.615
G1 X94.509Y95.877
G1 X94.588Y96.122
G1 X94.721Y96.349
G1 X94.907Y96.558
G1 X95.133Y96.733
G1 X95.387Y96.858
G1 X95.668Y96.933
G1 X95.976Y96.958
G1 X96.27Y96.934
G1 X96.536Y96.863
G1 X96.774Y96.745
G1 X96.984Y96.58
G1 X97.156Y96.382
G1 X97.278Y96.164
G1 X97.352Y95.928
G1 X97.376Y95.673
G1 X97.359Y95.462
G1 X97.305Y95.26
G1 X97.216Y95.065
G1 X97.092Y94.877
G1 X96.932Y94.698
G1 X96.737Y94.527
G1 X96.506Y94.363
G1 X96.239Y94.207
G1 X97.319Y92.832
G1 X97.483Y93.222
G1 X97.606Y93.669
G1 X98.374Y93.505
G1 X98.267Y93.129
G1 X98.142Y92.787
G1 X98Y92.48
G1 X97.84Y92.208
G1 X98.054Y91.944
G1 X98.283Y91.702
G1 X98.525Y91.482
G1 X98.78Y91.284
G1 X98.284Y90.697
G1 X98.058Y90.858
G1 X97.829Y91.053
G1 X97.596Y91.283
G1 X97.36Y91.547
G1 X97.173Y91.357
G1 X96.978Y91.191
G1 X96.775Y91.052
G1 X96.564Y90.937
G1 X96.344Y90.849
G1 X96.115Y90.785
G1 X95.878Y90.747
G1 X95.632Y90.734
G1 X95.194Y90.773
G1 X94.803Y90.89
G1 X94.461Y91.085
G1 X94.166Y91.358
G1 X93.974Y91.62
G1 X93.837Y91.897
G1 X93.754Y92.189
G1 X93.727Y92.495
G1 X93.749Y92.768
G1 X93.817Y93.027
G1 X93.929Y93.272
G1 X94.086Y93.503
G1 X94.288Y93.721
G1 X94.534Y93.926
G1 X94.825Y94.116
G1 X95.16Y94.293
M3
G1 F100 S1000
G4 P0.2
G1 S0
G0
M3
G0 X93.474Y93.669
M3
G1 F100 S1000
G4 P0.25
G1 S0
G0
M3
G1 X92.731S1000F2000
G1 X91.717Y96.12
G1 X90.731Y93.669
G1 X89.972
G1 X91.421Y96.958
G1 X92.016
G1 X93.474Y93.669
M3
G1 F100 S1000
G4 P0.2
G1 S0
G0
M3
G0 X88.478Y92.912
M3
G1 F100 S1000
G4 P0.25
G1 S0
G0
M3
G1 X88.397Y93.052S1000F2000
G1 X88.299Y93.155
G1 X88.189Y93.229
G1 X88.069Y93.273
G1 X87.937Y93.288
G1 X87.803Y93.273
G1 X87.682Y93.228
G1 X87.572Y93.154
G1 X87.475Y93.05
G1 X87.395Y92.906
G1 X87.338Y92.712
G1 X87.304Y92.468
G1 X87.292Y92.175
G1 X87.304Y91.909
G1 X87.339Y91.685
G1 X87.396Y91.502
G1 X87.477Y91.362
G1 X87.575Y91.258
G1 X87.683Y91.184
G1 X87.803Y91.139
G1 X87.933Y91.124
G1 X88.068Y91.139
G1 X88.191Y91.184
G1 X88.301Y91.258
G1 X88.399Y91.362
G1 X88.479Y91.506
G1 X88.536Y91.699
G1 X88.57Y91.941
G1 X88.581Y92.233
G1 X88.57Y92.502
G1 X88.535Y92.729
G1 X88.478Y92.912
M3
G1 F100 S1000
G4 P0.2
G1 S0
G0
M3
G0 X89.133Y92.893
M3
G1 F100 S1000
G4 P0.25
G1 S0
G0
M3
G1 X89.203Y92.572S1000F2000
G1 X89.226Y92.204
G1 X89.202Y91.844
G1 X89.132Y91.528
G1 X89.015Y91.256
G1 X88.85Y91.028
G1 X88.651Y90.847
G1 X88.43Y90.718
G1 X88.186Y90.641
G1 X87.92Y90.615
G1 X87.659Y90.641
G1 X87.42Y90.717
G1 X87.204Y90.845
G1 X87.011Y91.024
G1 X86.852Y91.253
G1 X86.739Y91.534
G1 X86.671Y91.866
G1 X86.648Y92.249
G1 X86.668Y92.561
G1 X86.729Y92.848
G1 X86.83Y93.11
G1 X86.972Y93.347
G1 X87.153Y93.544
G1 X87.37Y93.684
G1 X87.625Y93.769
G1 X87.916Y93.797
G1 X88.187Y93.771
G1 X88.434Y93.696
G1 X88.656Y93.569
G1 X88.854Y93.392
G1 X89.017Y93.166
G1 X89.133Y92.893
M3
G1 F100 S1000
G4 P0.2
G1 S0
G0
M3
G0 X84.503Y94.523
M3
G1 F100 S1000
G4 P0.25
G1 S0
G0
M3
G1 X84.583Y94.667S1000F2000
G1 X84.64Y94.86
G1 X84.674Y95.102
G1 X84.686Y95.394
G1 X84.674Y95.663
G1 X84.639Y95.89
G1 X84.582Y96.073
G1 X84.501Y96.213
G1 X84.403Y96.316
G1 X84.293Y96.39
G1 X84.173Y96.434
G1 X84.041Y96.449
G1 X83.909Y96.434
G1 X83.789Y96.389
G1 X83.68Y96.315
G1 X83.583Y96.211
G1 X83.503Y96.067
G1 X83.446Y95.873
G1 X83.412Y95.629
G1 X83.401Y95.336
G1 X83.412Y95.068
G1 X83.447Y94.843
G1 X83.504Y94.661
G1 X83.585Y94.521
G1 X83.683Y94.418
G1 X83.792Y94.344
G1 X83.911Y94.3
G1 X84.041Y94.285
G1 X84.175Y94.3
G1 X84.296Y94.345
G1 X84.405Y94.419
G1 X84.503Y94.523
M3
G1 F100 S1000
G4 P0.2
G1 S0
G0
M3
G0 X85.119Y94.417
M3
G1 F100 S1000
G4 P0.25
G1 S0
G0
M3
G1 X84.954Y94.189S1000F2000
G1 X84.756Y94.008
G1 X84.535Y93.879
G1 X84.293Y93.802
G1 X84.029Y93.776
G1 X83.767Y93.802
G1 X83.528Y93.878
G1 X83.312Y94.005
G1 X83.119Y94.183
G1 X82.96Y94.412
G1 X82.847Y94.693
G1 X82.779Y95.025
G1 X82.756Y95.41
G1 X82.776Y95.72
G1 X82.837Y96.006
G1 X82.938Y96.268
G1 X83.08Y96.506
G1 X83.261Y96.704
G1 X83.478Y96.845
G1 X83.731Y96.93
G1 X84.02Y96.958
G1 X84.292Y96.933
G1 X84.538Y96.857
G1 X84.761Y96.73
G1 X84.959Y96.553
G1 X85.121Y96.328
G1 X85.237Y96.054
G1 X85.307Y95.733
G1 X85.33Y95.365
G1 X85.307Y95.005
G1 X85.236Y94.689
G1 X85.119Y94.417
M3
G1 F100 S1000
G4 P0.2
G1 S0
G0
M3
G0 X87.338Y96.958
M3
G1 F100 S1000
G4 P0.25
G1 S0
G0
M3
G1 X87.937S1000F2000
G1 X84.657Y90.615
G1 X84.045
G1 X87.338Y96.958
M3
G1 F100 S1000
G4 P0.2
G1 S0
G0
M3
G0 X79.653Y96.441
M3
G1 F100 S1000
G4 P0.25
G1 S0
G0
M3
G1 X79.449Y96.394S1000F2000
G1 X79.268Y96.321
G1 X79.109Y96.222
G1 X78.974Y96.096
G1 X78.865Y95.95
G1 X78.787Y95.791
G1 X78.741Y95.619
G1 X78.725Y95.435
G1 X78.738Y95.254
G1 X78.778Y95.088
G1 X78.844Y94.937
G1 X78.937Y94.803
G1 X79.061Y94.682
G1 X79.221Y94.574
G1 X79.419Y94.478
G1 X79.653Y94.396
G1 Y96.441
M3
G1 F100 S1000
G4 P0.2
G1 S0
G0
M3
G0 X76.933Y96.058
M3
G1 F100 S1000
G4 P0.25
G1 S0
G0
M3
G1 X77.058Y95.751S1000F2000
G1 X77.137Y95.402
G1 X76.402Y95.291
G1 X76.356Y95.524
G1 X76.279Y95.731
G1 X76.172Y95.912
G1 X76.035Y96.067
G1 X75.874Y96.191
G1 X75.699Y96.279
G1 X75.508Y96.333
G1 X75.302Y96.35
G1 X75.084Y96.332
G1 X74.885Y96.277
G1 X74.705Y96.185
G1 X74.544Y96.057
G1 X74.412Y95.902
G1 X74.318Y95.733
G1 X74.262Y95.548
G1 X74.243Y95.349
G1 X74.257Y95.103
G1 X74.301Y94.823
G1 X74.374Y94.508
G1 X74.477Y94.158
G1 X75.77
G1 Y93.55
G1 X74.604
G1 X74.662Y93.37
G1 X74.682Y93.189
G1 X74.671Y93.008
G1 X74.639Y92.822
G1 X74.586Y92.63
G1 X74.512Y92.434
G1 X74.413Y92.234
G1 X74.286Y92.031
G1 X74.133Y91.827
G1 X73.951Y91.621
G1 X74.261Y91.689
G1 X74.542Y91.711
G1 X74.905Y91.686
G1 X75.31Y91.609
G1 X75.635Y91.535
G1 X75.902Y91.482
G1 X76.113Y91.451
G1 X76.267Y91.44
G1 X76.43Y91.455
G1 X76.616Y91.498
G1 X76.824Y91.57
G1 X77.055Y91.67
G1 X77.293Y90.993
G1 X77.115Y90.92
G1 X76.958Y90.86
G1 X76.822Y90.815
G1 X76.708Y90.783
G1 X76.501Y90.747
G1 X76.295Y90.734
G1 X76.122
G1 X75.946Y90.767
G1 X75.872Y90.784
G1 X75.758Y90.815
G1 X75.606Y90.859
G1 X75.068Y91.02
G1 X74.951Y91.052
G1 X74.871Y91.071
G1 X74.678Y91.095
G1 X74.485
G1 X74.18Y91.078
G1 X73.855Y91.001
G1 X73.535Y90.88
G1 X73.245Y90.722
G1 X72.962Y91.432
G1 X73.151Y91.553
G1 X73.326Y91.696
G1 X73.486Y91.864
G1 X73.631Y92.054
G1 X73.751Y92.267
G1 X73.837Y92.503
G1 X73.889Y92.761
G1 X73.906Y93.041
G1 X73.889Y93.294
G1 X73.836Y93.55
G1 X73.032
G1 Y94.158
G1 X73.664
G1 X73.602Y94.372
G1 X73.553Y94.556
G1 X73.516Y94.708
G1 X73.491Y94.829
G1 X73.464Y95.038
G1 Y95.242
G1 X73.494Y95.645
G1 X73.613Y96.002
G1 X73.81Y96.313
G1 X74.087Y96.576
G1 X74.355Y96.743
G1 X74.649Y96.862
G1 X74.97Y96.934
G1 X75.318Y96.958
G1 X75.674Y96.932
G1 X75.996Y96.856
G1 X76.286Y96.728
G1 X76.544Y96.549
G1 X76.762Y96.324
G1 X76.933Y96.058
M3
G1 F100 S1000
G4 P0.2
G1 S0
G0
M3
G0 X72.415Y95.87
M3
G1 F100 S1000
G4 P0.25
G1 S0
G0
M3
G1 X72.218Y94.725S1000F2000
G1 X71.774
G1 X71.573Y95.87
G1 Y96.855
G1 X72.415
G1 Y95.87
M3
G1 F100 S1000
G4 P0.2
G1 S0
G0
M3
G0 X71.052Y95.87
M3
G1 F100 S1000
G4 P0.25
G1 S0
G0
M3
G1 X70.867Y94.725S1000F2000
G1 X70.415
G1 X70.21Y95.87
G1 Y96.855
G1 X71.052
G1 Y95.87
M3
G1 F100 S1000
G4 P0.2
G1 S0
G0
M3
G0 X69.108Y95.521
M3
G1 F100 S1000
G4 P0.25
G1 S0
G0
M3
G1 X68.895Y92.331S1000F2000
G1 X68.419
G1 X68.193Y95.521
G1 Y96.855
G1 X69.108
G1 Y95.521
M3
G1 F100 S1000
G4 P0.2
G1 S0
G0
M3
G0 X66.141Y95.273
M3
G1 F100 S1000
G4 P0.25
G1 S0
G0
M3
G1 X66.081Y95.473S1000F2000
G1 X66.01Y95.642
G1 X65.929Y95.78
G1 X65.745Y95.993
G1 X65.54Y96.146
G1 X65.313Y96.238
G1 X65.065Y96.268
G1 X64.823Y96.241
G1 X64.607Y96.16
G1 X64.417Y96.026
G1 X64.252Y95.837
G1 X64.163Y95.685
G1 X64.085Y95.504
G1 X64.02Y95.293
G1 X63.966Y95.054
G1 X63.924Y94.785
G1 X63.894Y94.488
G1 X63.876Y94.161
G1 Y93.805
G1 Y93.45
G1 X63.892Y93.126
G1 X63.919Y92.833
G1 X63.957Y92.571
G1 X64.006Y92.34
G1 X64.065Y92.14
G1 X64.136Y91.971
G1 X64.217Y91.832
G1 X64.401Y91.618
G1 X64.605Y91.464
G1 X64.829Y91.372
G1 X65.073Y91.342
G1 X65.318Y91.373
G1 X65.542Y91.465
G1 X65.746Y91.619
G1 X65.929Y91.834
G1 X66.01Y91.973
G1 X66.081Y92.142
G1 X66.141Y92.342
G1 X66.189Y92.573
G1 X66.227Y92.835
G1 X66.254Y93.128
G1 X66.271Y93.451
G1 Y93.805
G1 Y94.161
G1 X66.254Y94.486
G1 X66.227Y94.779
G1 X66.189Y95.042
G1 X66.141Y95.273
M3
G1 F100 S1000
G4 P0.2
G1 S0
G0
M3
G0 X66.826Y95.481
M3
G1 F100 S1000
G4 P0.25
G1 S0
G0
M3
G1 X66.9Y95.227S1000F2000
G1 X66.959Y94.941
G1 X67.002Y94.608
G1 X67.027Y94.229
G1 Y93.805
G1 Y93.301
G1 X66.981Y92.848
G1 X66.913Y92.446
G1 X66.818Y92.095
G1 X66.696Y91.788
G1 X66.546Y91.518
G1 X66.37Y91.285
G1 X66.167Y91.089
G1 X65.936Y90.934
G1 X65.677Y90.823
G1 X65.389Y90.756
G1 X65.073Y90.734
G1 X64.661Y90.773
G1 X64.296Y90.89
G1 X63.978Y91.085
G1 X63.706Y91.358
G1 X63.567Y91.561
G1 X63.446Y91.793
G1 X63.343Y92.054
G1 X63.26Y92.346
G1 X63.195Y92.666
G1 X63.148Y93.016
G1 X63.12Y93.396
G1 Y93.805
G1 Y94.313
G1 X63.166Y94.768
G1 X63.234Y95.172
G1 X63.331Y95.523
G1 X63.454Y95.83
G1 X63.604Y96.099
G1 X63.78Y96.332
G1 X63.983Y96.527
G1 X64.214Y96.681
G1 X64.472Y96.792
G1 X64.759Y96.858
G1 X65.073Y96.88
G1 X65.308Y96.868
G1 X65.528Y96.831
G1 X65.733Y96.77
G1 X65.923Y96.685
G1 X66.098Y96.577
G1 X66.257Y96.447
G1 X66.399Y96.295
G1 X66.526Y96.122
G1 X66.639Y95.929
G1 X66.739Y95.715
G1 X66.826Y95.481
M3
G1 F100 S1000
G4 P0.2
G1 S0
G0
M3
G0 X61.518Y95.186
M3
G1 F100 S1000
G4 P0.25
G1 S0
G0
M3
G1 X61.454Y95.455S1000F2000
G1 X61.349Y95.691
G1 X61.2Y95.895
G1 X61.022Y96.058
G1 X60.827Y96.175
G1 X60.615Y96.245
G1 X60.385Y96.268
G1 X60.147Y96.243
G1 X59.925Y96.168
G1 X59.718Y96.042
G1 X59.527Y95.866
G1 X59.368Y95.65
G1 X59.253Y95.404
G1 X59.185Y95.128
G1 X59.162Y94.823
G1 X59.184Y94.549
G1 X59.249Y94.302
G1 X59.357Y94.082
G1 X59.509Y93.889
G1 X59.693Y93.732
G1 X59.896Y93.62
G1 X60.121Y93.552
G1 X60.365Y93.53
G1 X60.61Y93.552
G1 X60.832Y93.62
G1 X61.032Y93.732
G1 X61.209Y93.889
G1 X61.353Y94.086
G1 X61.456Y94.318
G1 X61.518Y94.584
G1 X61.539Y94.885
G1 X61.518Y95.186
M3
G1 F100 S1000
G4 P0.2
G1 S0
G0
M3
G0 X62.218Y95.337
M3
G1 F100 S1000
G4 P0.25
G1 S0
G0
M3
G1 X62.297Y94.947S1000F2000
G1 X62.344Y94.491
G1 X62.36Y93.969
G1 X62.344Y93.422
G1 X62.298Y92.933
G1 X62.219Y92.503
G1 X62.11Y92.132
G1 X61.969Y91.811
G1 X61.798Y91.53
G1 X61.597Y91.29
G1 X61.365Y91.091
G1 X61.107Y90.935
G1 X60.827Y90.824
G1 X60.527Y90.757
G1 X60.205Y90.734
G1 X59.868Y90.759
G1 X59.563Y90.832
G1 X59.291Y90.955
G1 X59.051Y91.126
G1 X58.85Y91.342
G1 X58.693Y91.598
G1 X58.581Y91.893
G1 X58.513Y92.229
G1 X59.224Y92.294
G1 X59.279Y92.061
G1 X59.355Y91.862
G1 X59.452Y91.698
G1 X59.569Y91.568
G1 X59.705Y91.469
G1 X59.859Y91.398
G1 X60.031Y91.356
G1 X60.221Y91.342
G1 X60.386
G1 X60.541Y91.381
G1 X60.685Y91.43
G1 X60.819Y91.498
G1 X61.052Y91.68
G1 X61.239Y91.914
G1 X61.39Y92.221
G1 X61.514Y92.619
G1 X61.598Y93.066
G1 X61.625Y93.522
G1 Y93.669
G1 X61.5Y93.501
G1 X61.359Y93.35
G1 X61.197Y93.215
G1 X61.016Y93.097
G1 X60.82Y93.001
G1 X60.616Y92.932
G1 X60.404Y92.891
G1 X60.184Y92.877
G1 X59.825Y92.911
G1 X59.495Y93.013
G1 X59.193Y93.182
G1 X58.92Y93.419
G1 X58.694Y93.712
G1 X58.532Y94.047
G1 X58.435Y94.426
G1 X58.403Y94.848
G1 X58.436Y95.283
G1 X58.538Y95.674
G1 X58.706Y96.02
G1 X58.942Y96.321
G1 X59.229Y96.566
G1 X59.551Y96.74
G1 X59.906Y96.845
G1 X60.295Y96.88
G1 X60.582Y96.86
G1 X60.857Y96.801
G1 X61.119Y96.702
G1 X61.369Y96.564
G1 X61.597Y96.389
G1 X61.797Y96.18
G1 X61.967Y95.938
G1 X62.108Y95.663
G1 X62.218Y95.337
M3
G1 F100 S1000
G4 P0.2
G1 S0
G0
M3
G0 X56.646Y95.312
M3
G1 F100 S1000
G4 P0.25
G1 S0
G0
M3
G1 X56.629Y95.507S1000F2000
G1 X56.576Y95.686
G1 X56.488Y95.848
G1 X56.365Y95.995
G1 X56.216Y96.116
G1 X56.049Y96.203
G1 X55.866Y96.255
G1 X55.665Y96.272
G1 X55.462Y96.255
G1 X55.278Y96.204
G1 X55.111Y96.12
G1 X54.963Y96.001
G1 X54.841Y95.859
G1 X54.754Y95.704
G1 X54.701Y95.535
G1 X54.684Y95.353
G1 X54.701Y95.149
G1 X54.753Y94.965
G1 X54.838Y94.8
G1 X54.959Y94.655
G1 X55.107Y94.536
G1 X55.275Y94.452
G1 X55.464Y94.401
G1 X55.673Y94.384
G1 X55.877Y94.401
G1 X56.062Y94.451
G1 X56.227Y94.535
G1 X56.373Y94.653
G1 X56.493Y94.795
G1 X56.578Y94.952
G1 X56.629Y95.124
G1 X56.646Y95.312
M3
G1 F100 S1000
G4 P0.2
G1 S0
G0
M3
G0 X55.908Y93.759
M3
G1 F100 S1000
G4 P0.25
G1 S0
G0
M3
G1 X55.653Y93.78S1000F2000
G1 X55.403Y93.759
G1 X55.176Y93.694
G1 X54.971Y93.586
G1 X54.788Y93.435
G1 X54.638Y93.252
G1 X54.531Y93.048
G1 X54.467Y92.821
G1 X54.446Y92.573
G1 Y92.417
G1 X54.483Y92.262
G1 X54.53Y92.111
G1 X54.596Y91.962
G1 X54.68Y91.822
G1 X54.782Y91.699
G1 X54.902Y91.593
G1 X55.041Y91.504
G1 X55.192Y91.433
G1 X55.348Y91.382
G1 X55.51Y91.352
G1 X55.677Y91.342
G1 X55.93Y91.363
G1 X56.161Y91.427
G1 X56.368Y91.533
G1 X56.552Y91.683
G1 X56.703Y91.864
G1 X56.81Y92.069
G1 X56.875Y92.298
G1 X56.897Y92.549
G1 X56.874Y92.804
G1 X56.808Y93.036
G1 X56.697Y93.245
G1 X56.541Y93.431
G1 X56.353Y93.584
G1 X56.142Y93.693
G1 X55.908Y93.759
M3
G1 F100 S1000
G4 P0.2
G1 S0
G0
M3
G0 X56.519Y94.101
M3
G1 F100 S1000
G4 P0.25
G1 S0
G0
M3
G1 X56.779Y93.996S1000F2000
G1 X57.007Y93.864
G1 X57.201Y93.705
G1 X57.362Y93.518
G1 X57.489Y93.307
G1 X57.58Y93.076
G1 X57.634Y92.826
G1 X57.652Y92.557
G1 X57.618Y92.186
G1 X57.515Y91.847
G1 X57.345Y91.538
G1 X57.106Y91.26
G1 X56.811Y91.03
G1 X56.474Y90.866
G1 X56.093Y90.767
G1 X55.669Y90.734
G1 X55.245Y90.767
G1 X54.864Y90.866
G1 X54.527Y91.031
G1 X54.232Y91.262
G1 X53.993Y91.542
G1 X53.823Y91.854
G1 X53.72Y92.2
G1 X53.686Y92.577
G1 X53.705Y92.859
G1 X53.761Y93.117
G1 X53.854Y93.351
G1 X53.984Y93.561
G1 X54.148Y93.743
G1 X54.345Y93.894
G1 X54.572Y94.013
G1 X54.832Y94.101
G1 X54.617Y94.194
G1 X54.431Y94.305
G1 X54.276Y94.434
G1 X54.15Y94.581
G1 X54.053Y94.745
G1 X53.984Y94.924
G1 X53.942Y95.118
G1 X53.928Y95.328
G1 X53.958Y95.643
G1 X54.046Y95.933
G1 X54.194Y96.196
G1 X54.401Y96.432
G1 X54.656Y96.628
G1 X54.951Y96.768
G1 X55.284Y96.852
G1 X55.657Y96.88
G1 X56.032Y96.851
G1 X56.368Y96.765
G1 X56.666Y96.622
G1 X56.925Y96.422
G1 X57.135Y96.181
G1 X57.285Y95.915
G1 X57.376Y95.623
G1 X57.406Y95.307
G1 X57.392Y95.105
G1 X57.351Y94.916
G1 X57.282Y94.741
G1 X57.186Y94.579
G1 X57.062Y94.433
G1 X56.909Y94.304
G1 X56.728Y94.194
G1 X56.519Y94.101
M3
G1 F100 S1000
G4 P0.2
G1 S0
G0
M3
G0 X68.226Y91.678
M3
G1 F100 S1000
G4 P0.25
G1 S0
G0
M3
G1 X69.075S1000F2000
G1 Y90.837
G1 X68.226
G1 Y91.678
M3
G1 F100 S1000
G4 P0.2
G1 S0
G0
M3
G0 X80.088Y91.334
M3
G1 F100 S1000
G4 P0.25
G1 S0
G0
M3
G1 X80.294Y91.377S1000F2000
G1 X80.482Y91.454
G1 X80.65Y91.564
G1 X80.8Y91.707
G1 X80.923Y91.877
G1 X81.011Y92.065
G1 X81.064Y92.273
G1 X81.082Y92.499
G1 X81.069Y92.691
G1 X81.032Y92.862
G1 X80.97Y93.014
G1 X80.882Y93.146
G1 X80.758Y93.265
G1 X80.584Y93.377
G1 X80.361Y93.484
G1 X80.088Y93.583
G1 Y91.334
M3
G1 F100 S1000
G4 P0.2
G1 S0
G0
M3
G0 X79.653Y91.334
M3
G1 F100 S1000
G4 P0.25
G1 S0
G0
M3
G1 Y93.686S1000F2000
G1 X79.424Y93.74
G1 X79.192Y93.817
G1 X78.958Y93.917
G1 X78.721Y94.039
G1 X78.555Y94.147
G1 X78.409Y94.274
G1 X78.283Y94.42
G1 X78.177Y94.585
G1 X78.094Y94.765
G1 X78.034Y94.958
G1 X77.998Y95.161
G1 X77.986Y95.377
G1 X78.021Y95.753
G1 X78.126Y96.091
G1 X78.3Y96.391
G1 X78.545Y96.654
G1 X78.754Y96.802
G1 X79.008Y96.919
G1 X79.308Y97.003
G1 X79.653Y97.056
G1 Y97.409
G1 X80.088
G1 Y97.056
G1 X80.394Y97.01
G1 X80.666Y96.931
G1 X80.905Y96.821
G1 X81.11Y96.679
G1 X81.328Y96.459
G1 X81.498Y96.201
G1 X81.62Y95.907
G1 X81.693Y95.574
G1 X80.93Y95.459
G1 X80.888Y95.664
G1 X80.829Y95.844
G1 X80.752Y95.998
G1 X80.657Y96.126
G1 X80.543Y96.233
G1 X80.411Y96.319
G1 X80.259Y96.385
G1 X80.088Y96.432
G1 Y94.302
G1 X80.344Y94.236
G1 X80.552Y94.178
G1 X80.713Y94.127
G1 X80.827Y94.084
G1 X81.14Y93.916
G1 X81.389Y93.715
G1 X81.582Y93.477
G1 X81.724Y93.197
G1 X81.812Y92.885
G1 X81.841Y92.549
G1 X81.811Y92.181
G1 X81.719Y91.845
G1 X81.566Y91.54
G1 X81.353Y91.268
G1 X81.09Y91.041
G1 X80.792Y90.874
G1 X80.458Y90.766
G1 X80.088Y90.718
G1 Y89.971
G1 X79.653
G1 Y90.71
G1 X79.389Y90.751
G1 X79.151Y90.807
G1 X78.938Y90.875
G1 X78.752Y90.958
G1 X78.584Y91.061
G1 X78.429Y91.191
G1 X78.285Y91.349
G1 X78.152Y91.535
G1 X78.039Y91.745
G1 X77.953Y91.977
G1 X77.893Y92.231
G1 X77.859Y92.508
G1 X78.602Y92.647
G1 X78.653Y92.369
G1 X78.721Y92.131
G1 X78.805Y91.932
G1 X78.906Y91.773
G1 X79.07Y91.598
G1 X79.249Y91.466
G1 X79.443Y91.378
G1 X79.653Y91.334
M3
G1 F100 S1000
G4 P0.2
G1 S0
G0
M3
G0 X81.103Y112.301
M3
G1 F100 S1000
G4 P0.25
G1 S0
G0
M3
G1 X80.711Y112.33S1000F2000
G1 X80.357Y112.416
G1 X80.041Y112.56
G1 X79.763Y112.761
G1 X79.531Y113.01
G1 X79.355Y113.296
G1 X79.234Y113.619
G1 X79.169Y113.98
G1 X79.945Y114.046
G1 X80.003Y113.78
G1 X80.088Y113.55
G1 X80.203Y113.354
G1 X80.346Y113.194
G1 X80.511Y113.069
G1 X80.692Y112.98
G1 X80.889Y112.927
G1 X81.103Y112.909
G1 X81.36Y112.934
G1 X81.596Y113.01
G1 X81.811Y113.135
G1 X82.006Y113.311
G1 X82.168Y113.529
G1 X82.283Y113.779
G1 X82.352Y114.063
G1 X82.376Y114.379
G1 X82.353Y114.678
G1 X82.287Y114.944
G1 X82.176Y115.177
G1 X82.02Y115.376
G1 X81.829Y115.536
G1 X81.61Y115.65
G1 X81.364Y115.719
G1 X81.091Y115.742
G1 X80.916Y115.731
G1 X80.751Y115.701
G1 X80.594Y115.65
G1 X80.446Y115.579
G1 X80.31Y115.492
G1 X80.19Y115.393
G1 X80.084Y115.282
G1 X79.995Y115.159
G1 X79.301Y115.249
G1 X79.884Y118.34
G1 X82.876
G1 Y117.634
G1 X80.475
G1 X80.151Y116.017
G1 X80.425Y116.182
G1 X80.706Y116.3
G1 X80.993Y116.371
G1 X81.288Y116.394
G1 X81.666Y116.36
G1 X82.014Y116.258
G1 X82.331Y116.087
G1 X82.618Y115.848
G1 X82.855Y115.556
G1 X83.024Y115.224
G1 X83.126Y114.854
G1 X83.16Y114.444
G1 X83.13Y114.05
G1 X83.041Y113.683
G1 X82.892Y113.344
G1 X82.683Y113.032
G1 X82.532Y112.861
G1 X82.368Y112.712
G1 X82.19Y112.587
G1 X81.999Y112.484
G1 X81.795Y112.404
G1 X81.577Y112.347
G1 X81.347Y112.313
G1 X81.103Y112.301
M3
G1 F100 S1000
G4 P0.2
G1 S0
G0
M3
G0 X84.946Y113.459
M3
G1 F100 S1000
G4 P0.25
G1 S0
G0
M3
G1 X85.051Y113.316S1000F2000
G1 X85.173Y113.193
G1 X85.31Y113.092
G1 X85.458Y113.012
G1 X85.609Y112.955
G1 X85.764Y112.92
G1 X85.922Y112.909
G1 X86.148Y112.933
G1 X86.357Y113.003
G1 X86.55Y113.121
G1 X86.727Y113.287
G1 X86.874Y113.492
G1 X86.979Y113.732
G1 X87.042Y114.006
G1 X87.063Y114.313
G1 X87.042Y114.608
G1 X86.98Y114.871
G1 X86.876Y115.1
G1 X86.731Y115.296
G1 X86.554Y115.453
G1 X86.355Y115.566
G1 X86.135Y115.633
G1 X85.893Y115.655
G1 X85.652Y115.633
G1 X85.43Y115.566
G1 X85.227Y115.453
G1 X85.043Y115.296
G1 X84.891Y115.103
G1 X84.782Y114.881
G1 X84.716Y114.631
G1 X84.695Y114.354
G1 Y114.165
G1 X84.735Y113.98
G1 X84.786Y113.8
G1 X84.857Y113.623
G1 X84.946Y113.459
M3
G1 F100 S1000
G4 P0.2
G1 S0
G0
M3
G0 X84.173Y113.376
M3
G1 F100 S1000
G4 P0.25
G1 S0
G0
M3
G1 X84.072Y113.614S1000F2000
G1 X83.991Y113.88
G1 X83.927Y114.174
G1 X83.881Y114.495
G1 X83.854Y114.844
G1 Y115.22
G1 Y115.642
G1 X83.885Y116.033
G1 X83.935Y116.395
G1 X84.006Y116.727
G1 X84.097Y117.029
G1 X84.207Y117.302
G1 X84.338Y117.544
G1 X84.489Y117.757
G1 X84.795Y118.059
G1 X85.149Y118.275
G1 X85.552Y118.404
G1 X86.004Y118.447
G1 X86.343Y118.422
G1 X86.65Y118.347
G1 X86.925Y118.223
G1 X87.168Y118.049
G1 X87.372Y117.831
G1 X87.531Y117.575
G1 X87.644Y117.281
G1 X87.712Y116.949
G1 X86.977Y116.891
G1 X86.923Y117.094
G1 X86.858Y117.267
G1 X86.783Y117.41
G1 X86.698Y117.523
G1 X86.539Y117.662
G1 X86.363Y117.76
G1 X86.17Y117.82
G1 X85.959Y117.839
G1 X85.788Y117.827
G1 X85.627Y117.79
G1 X85.478Y117.729
G1 X85.339Y117.642
G1 X85.174Y117.5
G1 X85.027Y117.329
G1 X84.899Y117.129
G1 X84.789Y116.899
G1 X84.7Y116.629
G1 X84.636Y116.307
G1 X84.596Y115.933
G1 X84.58Y115.508
G1 X84.72Y115.698
G1 X84.876Y115.862
G1 X85.047Y115.999
G1 X85.232Y116.111
G1 X85.428Y116.197
G1 X85.627Y116.259
G1 X85.832Y116.296
G1 X86.041Y116.308
G1 X86.397Y116.274
G1 X86.725Y116.172
G1 X87.026Y116.002
G1 X87.299Y115.764
G1 X87.527Y115.472
G1 X87.689Y115.141
G1 X87.786Y114.769
G1 X87.819Y114.358
G1 X87.803Y114.08
G1 X87.758Y113.812
G1 X87.681Y113.553
G1 X87.574Y113.305
G1 X87.441Y113.076
G1 X87.284Y112.876
G1 X87.105Y112.704
G1 X86.903Y112.56
G1 X86.683Y112.447
G1 X86.447Y112.366
G1 X86.198Y112.318
G1 X85.934Y112.301
G1 X85.494Y112.344
G1 X85.096Y112.471
G1 X84.74Y112.684
G1 X84.428Y112.981
G1 X84.291Y113.164
G1 X84.173Y113.376
M3
G1 F100 S1000
G4 P0.2
G1 S0
G0
M3
G0 X89.553Y113.188
M3
G1 F100 S1000
G4 P0.25
G1 S0
G0
M3
G1 X89.638Y113.636S1000F2000
G1 X89.756Y114.12
G1 X89.904Y114.618
G1 X90.081Y115.108
G1 X90.287Y115.588
G1 X90.521Y116.06
G1 X90.775Y116.508
G1 X91.036Y116.92
G1 X91.305Y117.296
G1 X91.583Y117.634
G1 X88.635
G1 Y118.344
G1 X92.531
G1 Y117.77
G1 X92.244Y117.439
G1 X91.959Y117.057
G1 X91.675Y116.626
G1 X91.392Y116.144
G1 X91.126Y115.633
G1 X90.891Y115.116
G1 X90.689Y114.591
G1 X90.519Y114.058
G1 X90.419Y113.672
G1 X90.338Y113.267
G1 X90.277Y112.845
G1 X90.236Y112.404
G1 X89.477
G1 X89.499Y112.778
G1 X89.553Y113.188
M3
G1 F100 S1000
G4 P0.2
G1 S0
G0
M3
G0 X94.083Y113.83
M3
G1 F100 S1000
G4 P0.25
G1 S0
G0
M3
G1 X94.13Y113.678S1000F2000
G1 X94.195Y113.529
G1 X94.279Y113.389
G1 X94.381Y113.267
G1 X94.502Y113.161
G1 X94.641Y113.071
G1 X94.791Y113
G1 X94.947Y112.949
G1 X95.109Y112.919
G1 X95.277Y112.909
G1 X95.53Y112.93
G1 X95.76Y112.994
G1 X95.967Y113.101
G1 X96.151Y113.25
G1 X96.302Y113.432
G1 X96.41Y113.637
G1 X96.475Y113.865
G1 X96.496Y114.116
G1 X96.474Y114.371
G1 X96.407Y114.603
G1 X96.296Y114.813
G1 X96.141Y114.999
G1 X95.952Y115.151
G1 X95.741Y115.26
G1 X95.508Y115.326
G1 X95.252Y115.347
G1 X95.003Y115.326
G1 X94.776Y115.261
G1 X94.571Y115.153
G1 X94.388Y115.003
G1 X94.238Y114.819
G1 X94.131Y114.615
G1 X94.067Y114.388
G1 X94.045Y114.141
G1 Y113.984
G1 X94.083Y113.83
M3
G1 F100 S1000
G4 P0.2
G1 S0
G0
M3
G0 X95.063Y115.968
M3
G1 F100 S1000
G4 P0.25
G1 S0
G0
M3
G1 X95.273Y115.951S1000F2000
G1 X95.477Y115.968
G1 X95.661Y116.018
G1 X95.827Y116.102
G1 X95.973Y116.22
G1 X96.092Y116.362
G1 X96.178Y116.519
G1 X96.229Y116.691
G1 X96.246Y116.879
G1 X96.228Y117.074
G1 X96.175Y117.253
G1 X96.088Y117.416
G1 X95.965Y117.562
G1 X95.815Y117.683
G1 X95.649Y117.77
G1 X95.465Y117.822
G1 X95.265Y117.839
G1 X95.062Y117.822
G1 X94.878Y117.772
G1 X94.711Y117.687
G1 X94.563Y117.568
G1 X94.44Y117.426
G1 X94.353Y117.271
G1 X94.301Y117.102
G1 X94.283Y116.92
G1 X94.301Y116.716
G1 X94.352Y116.532
G1 X94.438Y116.367
G1 X94.559Y116.222
G1 X94.706Y116.103
G1 X94.875Y116.019
G1 X95.063Y115.968
M3
G1 F100 S1000
G4 P0.2
G1 S0
G0
M3
G0 X94.431Y115.668
M3
G1 F100 S1000
G4 P0.25
G1 S0
G0
M3
G1 X94.216Y115.761S1000F2000
G1 X94.031Y115.872
G1 X93.875Y116.001
G1 X93.75Y116.148
G1 X93.653Y116.312
G1 X93.584Y116.491
G1 X93.542Y116.685
G1 X93.528Y116.895
G1 X93.558Y117.21
G1 X93.646Y117.5
G1 X93.794Y117.763
G1 X94Y117.999
G1 X94.256Y118.195
G1 X94.55Y118.335
G1 X94.884Y118.419
G1 X95.256Y118.447
G1 X95.631Y118.418
G1 X95.968Y118.333
G1 X96.266Y118.189
G1 X96.525Y117.989
G1 X96.735Y117.748
G1 X96.885Y117.482
G1 X96.975Y117.191
G1 X97.005Y116.875
G1 X96.992Y116.672
G1 X96.95Y116.483
G1 X96.882Y116.308
G1 X96.786Y116.146
G1 X96.662Y116
G1 X96.509Y115.871
G1 X96.328Y115.761
G1 X96.119Y115.668
G1 X96.379Y115.563
G1 X96.607Y115.432
G1 X96.801Y115.272
G1 X96.962Y115.085
G1 X97.089Y114.874
G1 X97.179Y114.643
G1 X97.233Y114.394
G1 X97.252Y114.124
G1 X97.217Y113.754
G1 X97.115Y113.414
G1 X96.944Y113.105
G1 X96.706Y112.827
G1 X96.411Y112.597
G1 X96.073Y112.433
G1 X95.693Y112.334
G1 X95.269Y112.301
G1 X94.845Y112.334
G1 X94.464Y112.433
G1 X94.126Y112.598
G1 X93.832Y112.829
G1 X93.593Y113.109
G1 X93.422Y113.422
G1 X93.32Y113.767
G1 X93.286Y114.145
G1 X93.304Y114.426
G1 X93.36Y114.684
G1 X93.453Y114.918
G1 X93.584Y115.128
G1 X93.748Y115.31
G1 X93.944Y115.461
G1 X94.172Y115.58
G1 X94.431Y115.668
M3
G1 F100 S1000
G4 P0.2
G1 S0
G0
M3
G0 X98.783Y116.116
M3
G1 F100 S1000
G4 P0.25
G1 S0
G0
M3
G1 X98.849Y115.869S1000F2000
G1 X98.957Y115.649
G1 X99.109Y115.456
G1 X99.292Y115.299
G1 X99.496Y115.187
G1 X99.72Y115.119
G1 X99.965Y115.097
G1 X100.21Y115.119
G1 X100.432Y115.187
G1 X100.632Y115.299
G1 X100.808Y115.456
G1 X100.953Y115.653
G1 X101.056Y115.885
G1 X101.118Y116.151
G1 X101.139Y116.452
G1 X101.118Y116.754
G1 X101.054Y117.022
G1 X100.948Y117.258
G1 X100.8Y117.462
G1 X100.622Y117.625
G1 X100.427Y117.742
G1 X100.215Y117.812
G1 X99.985Y117.835
G1 X99.747Y117.81
G1 X99.524Y117.735
G1 X99.318Y117.609
G1 X99.127Y117.433
G1 X98.967Y117.217
G1 X98.853Y116.971
G1 X98.785Y116.696
G1 X98.762Y116.39
G1 X98.783Y116.116
M3
G1 F100 S1000
G4 P0.2
G1 S0
G0
M3
G0 X98.035Y115.993
M3
G1 F100 S1000
G4 P0.25
G1 S0
G0
M3
G1 X98.002Y116.415S1000F2000
G1 X98.036Y116.85
G1 X98.137Y117.241
G1 X98.306Y117.587
G1 X98.542Y117.889
G1 X98.829Y118.133
G1 X99.15Y118.307
G1 X99.506Y118.412
G1 X99.895Y118.447
G1 X100.182Y118.427
G1 X100.457Y118.368
G1 X100.719Y118.269
G1 X100.968Y118.131
G1 X101.197Y117.956
G1 X101.396Y117.748
G1 X101.566Y117.505
G1 X101.707Y117.23
G1 X101.818Y116.905
G1 X101.897Y116.514
G1 X101.944Y116.058
G1 X101.96Y115.536
G1 X101.944Y114.989
G1 X101.897Y114.5
G1 X101.819Y114.07
G1 X101.709Y113.699
G1 X101.569Y113.378
G1 X101.398Y113.097
G1 X101.196Y112.857
G1 X100.964Y112.659
G1 X100.706Y112.502
G1 X100.427Y112.391
G1 X100.126Y112.324
G1 X99.805Y112.301
G1 X99.468Y112.326
G1 X99.163Y112.399
G1 X98.891Y112.522
G1 X98.651Y112.693
G1 X98.45Y112.909
G1 X98.293Y113.165
G1 X98.181Y113.46
G1 X98.113Y113.796
G1 X98.823Y113.861
G1 X98.879Y113.628
G1 X98.955Y113.429
G1 X99.051Y113.265
G1 X99.168Y113.135
G1 X99.304Y113.036
G1 X99.459Y112.965
G1 X99.631Y112.923
G1 X99.821Y112.909
G1 X99.986
G1 X100.141Y112.948
G1 X100.285Y112.997
G1 X100.418Y113.065
G1 X100.652Y113.247
G1 X100.839Y113.482
G1 X100.99Y113.788
G1 X101.114Y114.186
G1 X101.197Y114.633
G1 X101.225Y115.089
G1 Y115.237
G1 X101.1Y115.068
G1 X100.959Y114.917
G1 X100.797Y114.782
G1 X100.615Y114.664
G1 X100.419Y114.568
G1 X100.216Y114.499
G1 X100.004Y114.458
G1 X99.784Y114.444
G1 X99.425Y114.478
G1 X99.094Y114.58
G1 X98.793Y114.749
G1 X98.52Y114.986
G1 X98.293Y115.279
G1 X98.132Y115.614
G1 X98.035Y115.993
M3
G1 F100 S1000
G4 P0.2
G1 S0
G0
M3
G0 X103.476Y115.728
M3
G1 F100 S1000
G4 P0.25
G1 S0
G0
M3
G1 Y115.372S1000F2000
G1 Y115.017
G1 X103.492Y114.693
G1 X103.519Y114.4
G1 X103.557Y114.138
G1 X103.606Y113.907
G1 X103.665Y113.707
G1 X103.736Y113.538
G1 X103.817Y113.4
G1 X104.001Y113.185
G1 X104.204Y113.032
G1 X104.428Y112.94
G1 X104.673Y112.909
G1 X104.917Y112.94
G1 X105.141Y113.032
G1 X105.345Y113.186
G1 X105.529Y113.402
G1 X105.61Y113.54
G1 X105.681Y113.709
G1 X105.74Y113.91
G1 X105.789Y114.141
G1 X105.827Y114.402
G1 X105.854Y114.695
G1 X105.87Y115.018
G1 Y115.372
G1 Y115.728
G1 X105.854Y116.053
G1 X105.827Y116.346
G1 X105.789Y116.609
G1 X105.74Y116.84
G1 X105.681Y117.04
G1 X105.61Y117.209
G1 X105.529Y117.347
G1 X105.345Y117.56
G1 X105.139Y117.713
G1 X104.913Y117.805
G1 X104.665Y117.835
G1 X104.423Y117.808
G1 X104.207Y117.727
G1 X104.017Y117.593
G1 X103.852Y117.404
G1 X103.762Y117.252
G1 X103.685Y117.071
G1 X103.619Y116.861
G1 X103.565Y116.621
G1 X103.524Y116.353
G1 X103.494Y116.055
G1 X103.476Y115.728
M3
G1 F100 S1000
G4 P0.2
G1 S0
G0
M3
G0 X102.724Y115.88
M3
G1 F100 S1000
G4 P0.25
G1 S0
G0
M3
G1 X102.765Y116.335S1000F2000
G1 X102.834Y116.739
G1 X102.93Y117.09
G1 X103.053Y117.397
G1 X103.203Y117.666
G1 X103.38Y117.899
G1 X103.583Y118.094
G1 X103.813Y118.248
G1 X104.072Y118.359
G1 X104.358Y118.425
G1 X104.673Y118.447
G1 X104.908Y118.435
G1 X105.128Y118.398
G1 X105.333Y118.337
G1 X105.523Y118.252
G1 X105.697Y118.144
G1 X105.856Y118.014
G1 X105.999Y117.862
G1 X106.126Y117.69
G1 X106.239Y117.496
G1 X106.339Y117.282
G1 X106.426Y117.048
G1 X106.5Y116.795
G1 X106.559Y116.508
G1 X106.601Y116.175
G1 X106.627Y115.797
G1 Y115.372
G1 Y114.868
G1 X106.581Y114.415
G1 X106.513Y114.013
G1 X106.418Y113.662
G1 X106.295Y113.355
G1 X106.146Y113.085
G1 X105.97Y112.852
G1 X105.767Y112.656
G1 X105.536Y112.501
G1 X105.277Y112.39
G1 X104.989Y112.324
G1 X104.673Y112.301
G1 X104.261Y112.34
G1 X103.896Y112.457
G1 X103.578Y112.652
G1 X103.306Y112.925
G1 X103.166Y113.128
G1 X103.045Y113.36
G1 X102.943Y113.622
G1 X102.859Y113.913
G1 X102.794Y114.233
G1 X102.748Y114.583
G1 X102.72Y114.963
G1 Y115.372
G1 Y115.88
M3
G1 F100 S1000
G4 P0.2
G1 S0
G0
M3
G0 X107.792Y117.088
M3
G1 F100 S1000
G4 P0.25
G1 S0
G0
M3
G1 Y118.422S1000F2000
G1 X108.708
G1 Y117.088
G1 X108.494Y113.898
G1 X108.018
G1 X107.792Y117.088
M3
G1 F100 S1000
G4 P0.2
G1 S0
G0
M3
G0 X109.81Y117.437
M3
G1 F100 S1000
G4 P0.25
G1 S0
G0
M3
G1 Y118.422S1000F2000
G1 X110.651
G1 Y117.437
G1 X110.467Y116.292
G1 X110.015
G1 X109.81Y117.437
M3
G1 F100 S1000
G4 P0.2
G1 S0
G0
M3
G0 X111.173Y117.437
M3
G1 F100 S1000
G4 P0.25
G1 S0
G0
M3
G1 Y118.422S1000F2000
G1 X112.014
G1 Y117.437
G1 X111.817Y116.292
G1 X111.374
G1 X111.173Y117.437
M3
G1 F100 S1000
G4 P0.2
G1 S0
G0
M3
G0 X113.094Y117.213
M3
G1 F100 S1000
G4 P0.25
G1 S0
G0
M3
G1 X113.212Y117.569S1000F2000
G1 X113.41Y117.88
G1 X113.686Y118.143
G1 X113.954Y118.31
G1 X114.249Y118.429
G1 X114.57Y118.501
G1 X114.918Y118.525
G1 X115.273Y118.499
G1 X115.596Y118.423
G1 X115.886Y118.295
G1 X116.143Y118.116
G1 X116.361Y117.892
G1 X116.533Y117.625
G1 X116.658Y117.318
G1 X116.737Y116.969
G1 X116.002Y116.858
G1 X115.956Y117.091
G1 X115.879Y117.298
G1 X115.772Y117.479
G1 X115.634Y117.634
G1 X115.474Y117.758
G1 X115.298Y117.847
G1 X115.107Y117.9
G1 X114.902Y117.917
G1 X114.683Y117.899
G1 X114.484Y117.844
G1 X114.305Y117.752
G1 X114.144Y117.624
G1 X114.012Y117.469
G1 X113.918Y117.3
G1 X113.861Y117.115
G1 X113.842Y116.916
G1 X113.857Y116.67
G1 X113.901Y116.39
G1 X113.974Y116.075
G1 X114.076Y115.725
G1 X115.37
G1 Y115.118
