; LightBurn 1.4.00
; GRBL device profile, absolute coords
; Bounds: X10 Y10 to X410 Y288.77
G00 G17 G40 G21 G54
G90
M4
; Cut @ 2000 mm/min, 100% power
M8
G0 X10Y10.014
M3
G0 Z0
M3
G1 F100 S1000
G4 P0.25
G1 S0
G0
M3
; Layer C00
G1 X44.819Y44.772S1000F2000
G1 X10Y10.014
M3
G1 F100 S1000
G4 P0.2
G1 S0
G0
M3
G0 X10Y10.02
M3
G1 F100 S1000
G4 P0.25
G1 S0
G0
M3
G1 X10.043Y44.863S1000F2000
G1 X10Y10.02
M3
G1 F100 S1000
G4 P0.2
G1 S0
G0
M3
G0 X10Y10.02
M3
G1 F100 S1000
G4 P0.25
G1 S0
G0
M3
G1 X44.843S1000F2000
M3
G1 F100 S1000
G4 P0.2
G1 S0
G0
M3
G0 X44.869Y10.017
M3
G1 F100 S1000
G4 P0.25
G1 S0
G0
M3
G1 Y12.108S1000F2000
M3
G1 F100 S1000
G4 P0.2
G1 S0
G0
M3
G0 X44.22Y11.062
M3
G1 F100 S1000
G4 P0.25
G1 S0
G0
M3
G1 Y10.017S1000F2000
M3
G1 F100 S1000
G4 P0.2
G1 S0
G0
M3
G0 X43.512Y10.017
M3
G1 F100 S1000
G4 P0.25
G1 S0
G0
M3
G1 Y11.062S1000F2000
M3
G1 F100 S1000
G4 P0.2
G1 S0
G0
M3
G0 X42.804Y11.062
M3
G1 F100 S1000
G4 P0.25
G1 S0
G0
M3
G1 Y10.017S1000F2000
M3
G1 F100 S1000
G4 P0.2
G1 S0
G0
M3
G0 X42.096Y10.017
M3
G1 F100 S1000
G4 P0.25
G1 S0
G0
M3
G1 Y11.062S1000F2000
M3
G1 F100 S1000
G4 P0.2
G1 S0
G0
M3
G0 X40.739Y11.062
M3
G1 F100 S1000
G4 P0.25
G1 S0
G0
M3
G1 Y10.017S1000F2000
M3
G1 F100 S1000
G4 P0.2
G1 S0
G0
M3
G0 X40.031Y10.017
M3
G1 F100 S1000
G4 P0.25
G1 S0
G0
M3
G1 Y11.062S1000F2000
M3
G1 F100 S1000
G4 P0.2
G1 S0
G0
M3
G0 X39.323Y11.062
M3
G1 F100 S1000
G4 P0.25
G1 S0
G0
M3
G1 Y10.017S1000F2000
M3
G1 F100 S1000
G4 P0.2
G1 S0
G0
M3
G0 X38.615Y10.017
M3
G1 F100 S1000
G4 P0.25
G1 S0
G0
M3
G1 Y11.062S1000F2000
M3
G1 F100 S1000
G4 P0.2
G1 S0
G0
M3
G0 X37.258Y11.062
M3
G1 F100 S1000
G4 P0.25
G1 S0
G0
M3
G1 Y10.017S1000F2000
M3
G1 F100 S1000
G4 P0.2
G1 S0
G0
M3
G0 X36.55Y10.017
M3
G1 F100 S1000
G4 P0.25
G1 S0
G0
M3
G1 Y11.062S1000F2000
M3
G1 F100 S1000
G4 P0.2
G1 S0
G0
M3
G0 X35.842Y11.062
M3
G1 F100 S1000
G4 P0.25
G1 S0
G0
M3
G1 Y10.017S1000F2000
M3
G1 F100 S1000
G4 P0.2
G1 S0
G0
M3
G0 X35.134Y10.017
M3
G1 F100 S1000
G4 P0.25
G1 S0
G0
M3
G1 Y11.062S1000F2000
M3
G1 F100 S1000
G4 P0.2
G1 S0
G0
M3
G0 X33.777Y11.062
M3
G1 F100 S1000
G4 P0.25
G1 S0
G0
M3
G1 Y10.017S1000F2000
M3
G1 F100 S1000
G4 P0.2
G1 S0
G0
M3
G0 X33.069Y10.017
M3
G1 F100 S1000
G4 P0.25
G1 S0
G0
M3
G1 Y11.062S1000F2000
M3
G1 F100 S1000
G4 P0.2
G1 S0
G0
M3
G0 X32.361Y11.062
M3
G1 F100 S1000
G4 P0.25
G1 S0
G0
M3
G1 Y10.017S1000F2000
M3
G1 F100 S1000
G4 P0.2
G1 S0
G0
M3
G0 X31.653Y10.017
M3
G1 F100 S1000
G4 P0.25
G1 S0
G0
M3
G1 Y11.062S1000F2000
M3
G1 F100 S1000
G4 P0.2
G1 S0
G0
M3
G0 X30.296Y11.062
M3
G1 F100 S1000
G4 P0.25
G1 S0
G0
M3
G1 Y10.017S1000F2000
M3
G1 F100 S1000
G4 P0.2
G1 S0
G0
M3
G0 X30.296Y10.017
M3
G1 F100 S1000
G4 P0.25
G1 S0
G0
M3
G1 Y11.062S1000F2000
M3
G1 F100 S1000
G4 P0.2
G1 S0
G0
M3
G0 X29.588Y11.062
M3
G1 F100 S1000
G4 P0.25
G1 S0
G0
M3
G1 Y10.017S1000F2000
M3
G1 F100 S1000
G4 P0.2
G1 S0
G0
M3
G0 X29.588Y10.017
M3
G1 F100 S1000
G4 P0.25
G1 S0
G0
M3
G1 Y11.062S1000F2000
M3
G1 F100 S1000
G4 P0.2
G1 S0
G0
M3
G0 X28.88Y11.062
M3
G1 F100 S1000
G4 P0.25
G1 S0
G0
M3
G1 Y10.017S1000F2000
M3
G1 F100 S1000
G4 P0.2
G1 S0
G0
M3
G0 X28.88Y10.017
M3
G1 F100 S1000
G4 P0.25
G1 S0
G0
M3
G1 Y11.062S1000F2000
M3
G1 F100 S1000
G4 P0.2
G1 S0
G0
M3
G0 X28.172Y11.062
M3
G1 F100 S1000
G4 P0.25
G1 S0
G0
M3
G1 Y10.017S1000F2000
M3
G1 F100 S1000
G4 P0.2
G1 S0
G0
M3
G0 X28.172Y10.017
M3
G1 F100 S1000
G4 P0.25
G1 S0
G0
M3
G1 Y11.062S1000F2000
M3
G1 F100 S1000
G4 P0.2
G1 S0
G0
M3
G0 X26.815Y11.062
M3
G1 F100 S1000
G4 P0.25
G1 S0
G0
M3
G1 Y10.017S1000F2000
M3
G1 F100 S1000
G4 P0.2
G1 S0
G0
M3
G0 X27.523Y10.017
M3
G1 F100 S1000
G4 P0.25
G1 S0
G0
M3
G1 Y12.108S1000F2000
M3
G1 F100 S1000
G4 P0.2
G1 S0
G0
M3
G0 X26.107Y11.062
M3
G1 F100 S1000
G4 P0.25
G1 S0
G0
M3
G1 Y10.017S1000F2000
M3
G1 F100 S1000
G4 P0.2
G1 S0
G0
M3
G0 X25.399Y10.017
M3
G1 F100 S1000
G4 P0.25
G1 S0
G0
M3
G1 Y11.062S1000F2000
M3
G1 F100 S1000
G4 P0.2
G1 S0
G0
M3
G0 X24.691Y11.062
M3
G1 F100 S1000
G4 P0.25
G1 S0
G0
M3
G1 Y10.017S1000F2000
M3
G1 F100 S1000
G4 P0.2
G1 S0
G0
M3
G0 X24.042Y10.017
M3
G1 F100 S1000
G4 P0.25
G1 S0
G0
M3
G1 Y12.108S1000F2000
M3
G1 F100 S1000
G4 P0.2
G1 S0
G0
M3
G0 X23.334Y11.062
M3
G1 F100 S1000
G4 P0.25
G1 S0
G0
M3
G1 Y10.017S1000F2000
M3
G1 F100 S1000
G4 P0.2
G1 S0
G0
M3
G0 X22.626Y10.017
M3
G1 F100 S1000
G4 P0.25
G1 S0
G0
M3
G1 Y11.062S1000F2000
M3
G1 F100 S1000
G4 P0.2
G1 S0
G0
M3
G0 X21.918Y11.062
M3
G1 F100 S1000
G4 P0.25
G1 S0
G0
M3
G1 Y10.017S1000F2000
M3
G1 F100 S1000
G4 P0.2
G1 S0
G0
M3
G0 X21.21Y10.017
M3
G1 F100 S1000
G4 P0.25
G1 S0
G0
M3
G1 Y11.062S1000F2000
M3
G1 F100 S1000
G4 P0.2
G1 S0
G0
M3
G0 X19.853Y11.062
M3
G1 F100 S1000
G4 P0.25
G1 S0
G0
M3
G1 Y10.017S1000F2000
M3
G1 F100 S1000
G4 P0.2
G1 S0
G0
M3
G0 X19.145Y10.017
M3
G1 F100 S1000
G4 P0.25
G1 S0
G0
M3
G1 Y11.062S1000F2000
M3
G1 F100 S1000
G4 P0.2
G1 S0
G0
M3
G0 X18.437Y11.062
M3
G1 F100 S1000
G4 P0.25
G1 S0
G0
M3
G1 Y10.017S1000F2000
M3
G1 F100 S1000
G4 P0.2
G1 S0
G0
M3
G0 X17.729Y10.017
M3
G1 F100 S1000
G4 P0.25
G1 S0
G0
M3
G1 Y11.062S1000F2000
M3
G1 F100 S1000
G4 P0.2
G1 S0
G0
M3
G0 X16.372Y11.062
M3
G1 F100 S1000
G4 P0.25
G1 S0
G0
M3
G1 Y10.017S1000F2000
M3
G1 F100 S1000
G4 P0.2
G1 S0
G0
M3
G0 X17.08Y10.017
M3
G1 F100 S1000
G4 P0.25
G1 S0
G0
M3
G1 Y12.108S1000F2000
M3
G1 F100 S1000
G4 P0.2
G1 S0
G0
M3
G0 X15.664Y11.062
M3
G1 F100 S1000
G4 P0.25
G1 S0
G0
M3
G1 Y10.017S1000F2000
M3
G1 F100 S1000
G4 P0.2
G1 S0
G0
M3
G0 X14.956Y10.017
M3
G1 F100 S1000
G4 P0.25
G1 S0
G0
M3
G1 Y11.062S1000F2000
M3
G1 F100 S1000
G4 P0.2
G1 S0
G0
M3
G0 X14.248Y11.062
M3
G1 F100 S1000
G4 P0.25
G1 S0
G0
M3
G1 Y10.017S1000F2000
M3
G1 F100 S1000
G4 P0.2
G1 S0
G0
M3
G0 X13.54Y10.017
M3
G1 F100 S1000
G4 P0.25
G1 S0
G0
M3
G1 Y12.108S1000F2000
M3
G1 F100 S1000
G4 P0.2
G1 S0
G0
M3
G0 X13.018Y12.265
M3
G1 F100 S1000
G4 P0.25
G1 S0
G0
M3
G1 X12.279Y13.004S1000F2000
M3
G1 F100 S1000
G4 P0.2
G1 S0
G0
M3
G0 X12.091Y13.498
M3
G1 F100 S1000
G4 P0.25
G1 S0
G0
M3
G1 X10S1000F2000
M3
G1 F100 S1000
G4 P0.2
G1 S0
G0
M3
G0 X10Y12.849
M3
G1 F100 S1000
G4 P0.25
G1 S0
G0
M3
G1 X11.045S1000F2000
M3
G1 F100 S1000
G4 P0.2
G1 S0
G0
M3
G0 X11.778Y12.503
M3
G1 F100 S1000
G4 P0.25
G1 S0
G0
M3
G1 X12.517Y11.764S1000F2000
M3
G1 F100 S1000
G4 P0.2
G1 S0
G0
M3
G0 X12.017Y11.264
M3
G1 F100 S1000
G4 P0.25
G1 S0
G0
M3
G1 X11.277Y12.003S1000F2000
M3
G1 F100 S1000
G4 P0.2
G1 S0
G0
M3
G0 X11.045Y12.141
M3
G1 F100 S1000
G4 P0.25
G1 S0
G0
M3
G1 X10S1000F2000
M3
G1 F100 S1000
G4 P0.2
G1 S0
G0
M3
G0 X10Y11.433
M3
G1 F100 S1000
G4 P0.25
G1 S0
G0
M3
G1 X11.045S1000F2000
M3
G1 F100 S1000
G4 P0.2
G1 S0
G0
M3
G0 X10.708Y11.062
M3
G1 F100 S1000
G4 P0.25
G1 S0
G0
M3
G1 Y10.017S1000F2000
M3
G1 F100 S1000
G4 P0.2
G1 S0
G0
M3
G0 X11.416Y10.017
M3
G1 F100 S1000
G4 P0.25
G1 S0
G0
M3
G1 Y11.062S1000F2000
M3
G1 F100 S1000
G4 P0.2
G1 S0
G0
M3
G0 X11.045Y10.725
M3
G1 F100 S1000
G4 P0.25
G1 S0
G0
M3
G1 X10S1000F2000
M3
G1 F100 S1000
G4 P0.2
G1 S0
G0
M3
G0 X12.124Y11.062
M3
G1 F100 S1000
G4 P0.25
G1 S0
G0
M3
G1 Y10.017S1000F2000
M3
G1 F100 S1000
G4 P0.2
G1 S0
G0
M3
G0 X12.832Y10.017
M3
G1 F100 S1000
G4 P0.25
G1 S0
G0
M3
G1 Y11.062S1000F2000
M3
G1 F100 S1000
G4 P0.2
G1 S0
G0
M3
G0 X13.519Y12.766
M3
G1 F100 S1000
G4 P0.25
G1 S0
G0
M3
G1 X12.779Y13.505S1000F2000
M3
G1 F100 S1000
G4 P0.2
G1 S0
G0
M3
G0 X12.895Y14.391
M3
G1 F100 S1000
G4 P0.25
G1 S0
G0
M3
G1 X14.373Y12.912S1000F2000
M3
G1 F100 S1000
G4 P0.2
G1 S0
G0
M3
G0 X14.52Y13.767
M3
G1 F100 S1000
G4 P0.25
G1 S0
G0
M3
G1 X13.781Y14.506S1000F2000
M3
G1 F100 S1000
G4 P0.2
G1 S0
G0
M3
G0 X14.281Y15.007
M3
G1 F100 S1000
G4 P0.25
G1 S0
G0
M3
G1 X15.02Y14.268S1000F2000
M3
G1 F100 S1000
G4 P0.2
G1 S0
G0
M3
G0 X15.521Y14.768
M3
G1 F100 S1000
G4 P0.25
G1 S0
G0
M3
G1 X14.782Y15.507S1000F2000
M3
G1 F100 S1000
G4 P0.2
G1 S0
G0
M3
G0 X15.283Y16.008
M3
G1 F100 S1000
G4 P0.25
G1 S0
G0
M3
G1 X16.022Y15.269S1000F2000
M3
G1 F100 S1000
G4 P0.2
G1 S0
G0
M3
G0 X16.876Y15.416
M3
G1 F100 S1000
G4 P0.25
G1 S0
G0
M3
G1 X15.398Y16.894S1000F2000
M3
G1 F100 S1000
G4 P0.2
G1 S0
G0
M3
G0 X16.242Y16.967
M3
G1 F100 S1000
G4 P0.25
G1 S0
G0
M3
G1 X16.981Y16.228S1000F2000
M3
G1 F100 S1000
G4 P0.2
G1 S0
G0
M3
G0 X17.482Y16.729
M3
G1 F100 S1000
G4 P0.25
G1 S0
G0
M3
G1 X16.743Y17.468S1000F2000
M3
G1 F100 S1000
G4 P0.2
G1 S0
G0
M3
G0 X17.243Y17.969
M3
G1 F100 S1000
G4 P0.25
G1 S0
G0
M3
G1 X17.983Y17.23S1000F2000
M3
G1 F100 S1000
G4 P0.2
G1 S0
G0
M3
G0 X18.483Y17.73
M3
G1 F100 S1000
G4 P0.25
G1 S0
G0
M3
G1 X17.744Y18.47S1000F2000
M3
G1 F100 S1000
G4 P0.2
G1 S0
G0
M3
G0 X17.86Y19.355
M3
G1 F100 S1000
G4 P0.25
G1 S0
G0
M3
G1 X19.338Y17.877S1000F2000
M3
G1 F100 S1000
G4 P0.2
G1 S0
G0
M3
G0 X19.443Y18.69
M3
G1 F100 S1000
G4 P0.25
G1 S0
G0
M3
G1 X18.704Y19.429S1000F2000
M3
G1 F100 S1000
G4 P0.2
G1 S0
G0
M3
G0 X19.204Y19.93
M3
G1 F100 S1000
G4 P0.25
G1 S0
G0
M3
G1 X19.943Y19.191S1000F2000
M3
G1 F100 S1000
G4 P0.2
G1 S0
G0
M3
G0 X20.444Y19.691
M3
G1 F100 S1000
G4 P0.25
G1 S0
G0
M3
G1 X19.705Y20.43S1000F2000
M3
G1 F100 S1000
G4 P0.2
G1 S0
G0
M3
G0 X20.206Y20.931
M3
G1 F100 S1000
G4 P0.25
G1 S0
G0
M3
G1 X20.945Y20.192S1000F2000
M3
G1 F100 S1000
G4 P0.2
G1 S0
G0
M3
G0 X21.799Y20.339
M3
G1 F100 S1000
G4 P0.25
G1 S0
G0
M3
G1 X20.321Y21.817S1000F2000
M3
G1 F100 S1000
G4 P0.2
G1 S0
G0
M3
G0 X21.165Y21.89
M3
G1 F100 S1000
G4 P0.25
G1 S0
G0
M3
G1 X21.904Y21.151S1000F2000
M3
G1 F100 S1000
G4 P0.2
G1 S0
G0
M3
G0 X22.405Y21.652
M3
G1 F100 S1000
G4 P0.25
G1 S0
G0
M3
G1 X21.666Y22.391S1000F2000
M3
G1 F100 S1000
G4 P0.2
G1 S0
G0
M3
G0 X22.166Y22.892
M3
G1 F100 S1000
G4 P0.25
G1 S0
G0
M3
G1 X22.905Y22.153S1000F2000
M3
G1 F100 S1000
G4 P0.2
G1 S0
G0
M3
G0 X23.406Y22.653
M3
G1 F100 S1000
G4 P0.25
G1 S0
G0
M3
G1 X22.667Y23.393S1000F2000
M3
G1 F100 S1000
G4 P0.2
G1 S0
G0
M3
G0 X22.782Y24.278
M3
G1 F100 S1000
G4 P0.25
G1 S0
G0
M3
G1 X24.261Y22.8S1000F2000
M3
G1 F100 S1000
G4 P0.2
G1 S0
G0
M3
G0 X24.366Y23.613
M3
G1 F100 S1000
G4 P0.25
G1 S0
G0
M3
G1 X23.627Y24.352S1000F2000
M3
G1 F100 S1000
G4 P0.2
G1 S0
G0
M3
G0 X23.627Y24.352
M3
G1 F100 S1000
G4 P0.25
G1 S0
G0
M3
G1 X24.366Y23.613S1000F2000
M3
G1 F100 S1000
G4 P0.2
G1 S0
G0
M3
G0 X24.866Y24.114
M3
G1 F100 S1000
G4 P0.25
G1 S0
G0
M3
G1 X24.127Y24.853S1000F2000
M3
G1 F100 S1000
G4 P0.2
G1 S0
G0
M3
G0 X24.127Y24.853
M3
G1 F100 S1000
G4 P0.25
G1 S0
G0
M3
G1 X24.866Y24.114S1000F2000
M3
G1 F100 S1000
G4 P0.2
G1 S0
G0
M3
G0 X25.367Y24.614
M3
G1 F100 S1000
G4 P0.25
G1 S0
G0
M3
G1 X24.628Y25.353S1000F2000
M3
G1 F100 S1000
G4 P0.2
G1 S0
G0
M3
G0 X24.628Y25.353
M3
G1 F100 S1000
G4 P0.25
G1 S0
G0
M3
G1 X25.367Y24.614S1000F2000
M3
G1 F100 S1000
G4 P0.2
G1 S0
G0
M3
G0 X25.868Y25.115
M3
G1 F100 S1000
G4 P0.25
G1 S0
G0
M3
G1 X25.128Y25.854S1000F2000
M3
G1 F100 S1000
G4 P0.2
G1 S0
G0
M3
G0 X25.128Y25.854
M3
G1 F100 S1000
G4 P0.25
G1 S0
G0
M3
G1 X25.868Y25.115S1000F2000
M3
G1 F100 S1000
G4 P0.2
G1 S0
G0
M3
G0 X26.722Y25.262
M3
G1 F100 S1000
G4 P0.25
G1 S0
G0
M3
G1 X25.244Y26.74S1000F2000
M3
G1 F100 S1000
G4 P0.2
G1 S0
G0
M3
G0 X26.088Y26.813
M3
G1 F100 S1000
G4 P0.25
G1 S0
G0
M3
G1 X26.827Y26.074S1000F2000
M3
G1 F100 S1000
G4 P0.2
G1 S0
G0
M3
G0 X27.328Y26.575
M3
G1 F100 S1000
G4 P0.25
G1 S0
G0
M3
G1 X26.589Y27.314S1000F2000
M3
G1 F100 S1000
G4 P0.2
G1 S0
G0
M3
G0 X27.089Y27.815
M3
G1 F100 S1000
G4 P0.25
G1 S0
G0
M3
G1 X27.828Y27.076S1000F2000
M3
G1 F100 S1000
G4 P0.2
G1 S0
G0
M3
G0 X28.329Y27.576
M3
G1 F100 S1000
G4 P0.25
G1 S0
G0
M3
G1 X27.59Y28.316S1000F2000
M3
G1 F100 S1000
G4 P0.2
G1 S0
G0
M3
G0 X27.705Y29.201
M3
G1 F100 S1000
G4 P0.25
G1 S0
G0
M3
G1 X29.184Y27.723S1000F2000
M3
G1 F100 S1000
G4 P0.2
G1 S0
G0
M3
G0 X29.289Y28.536
M3
G1 F100 S1000
G4 P0.25
G1 S0
G0
M3
G1 X28.549Y29.275S1000F2000
M3
G1 F100 S1000
G4 P0.2
G1 S0
G0
M3
G0 X29.05Y29.776
M3
G1 F100 S1000
G4 P0.25
G1 S0
G0
M3
G1 X29.789Y29.037S1000F2000
M3
G1 F100 S1000
G4 P0.2
G1 S0
G0
M3
G0 X30.29Y29.537
M3
G1 F100 S1000
G4 P0.25
G1 S0
G0
M3
G1 X29.551Y30.276S1000F2000
M3
G1 F100 S1000
G4 P0.2
G1 S0
G0
M3
G0 X30.051Y30.777
M3
G1 F100 S1000
G4 P0.25
G1 S0
G0
M3
G1 X30.79Y30.038S1000F2000
M3
G1 F100 S1000
G4 P0.2
G1 S0
G0
M3
G0 X31.645Y30.184
M3
G1 F100 S1000
G4 P0.25
G1 S0
G0
M3
G1 X30.167Y31.662S1000F2000
M3
G1 F100 S1000
G4 P0.2
G1 S0
G0
M3
G0 X31.011Y31.736
M3
G1 F100 S1000
G4 P0.25
G1 S0
G0
M3
G1 X31.75Y30.997S1000F2000
M3
G1 F100 S1000
G4 P0.2
G1 S0
G0
M3
G0 X32.251Y31.498
M3
G1 F100 S1000
G4 P0.25
G1 S0
G0
M3
G1 X31.512Y32.237S1000F2000
M3
G1 F100 S1000
G4 P0.2
G1 S0
G0
M3
G0 X32.012Y32.738
M3
G1 F100 S1000
G4 P0.25
G1 S0
G0
M3
G1 X32.751Y31.999S1000F2000
M3
G1 F100 S1000
G4 P0.2
G1 S0
G0
M3
G0 X33.252Y32.499
M3
G1 F100 S1000
G4 P0.25
G1 S0
G0
M3
G1 X32.513Y33.239S1000F2000
M3
G1 F100 S1000
G4 P0.2
G1 S0
G0
M3
G0 X32.628Y34.124
M3
G1 F100 S1000
G4 P0.25
G1 S0
G0
M3
G1 X34.107Y32.646S1000F2000
M3
G1 F100 S1000
G4 P0.2
G1 S0
G0
M3
G0 X34.212Y33.459
M3
G1 F100 S1000
G4 P0.25
G1 S0
G0
M3
G1 X33.472Y34.198S1000F2000
M3
G1 F100 S1000
G4 P0.2
G1 S0
G0
M3
G0 X33.973Y34.698
M3
G1 F100 S1000
G4 P0.25
G1 S0
G0
M3
G1 X34.712Y33.959S1000F2000
M3
G1 F100 S1000
G4 P0.2
G1 S0
G0
M3
G0 X35.213Y34.46
M3
G1 F100 S1000
G4 P0.25
G1 S0
G0
M3
G1 X34.474Y35.199S1000F2000
M3
G1 F100 S1000
G4 P0.2
G1 S0
G0
M3
G0 X34.974Y35.7
M3
G1 F100 S1000
G4 P0.25
G1 S0
G0
M3
G1 X35.713Y34.96S1000F2000
M3
G1 F100 S1000
G4 P0.2
G1 S0
G0
M3
G0 X36.526Y35.066
M3
G1 F100 S1000
G4 P0.25
G1 S0
G0
M3
G1 X35.048Y36.544S1000F2000
M3
G1 F100 S1000
G4 P0.2
G1 S0
G0
M3
G0 X35.924Y36.65
M3
G1 F100 S1000
G4 P0.25
G1 S0
G0
M3
G1 X36.664Y35.911S1000F2000
M3
G1 F100 S1000
G4 P0.2
G1 S0
G0
M3
G0 X37.164Y36.412
M3
G1 F100 S1000
G4 P0.25
G1 S0
G0
M3
G1 X36.425Y37.151S1000F2000
M3
G1 F100 S1000
G4 P0.2
G1 S0
G0
M3
G0 X36.926Y37.651
M3
G1 F100 S1000
G4 P0.25
G1 S0
G0
M3
G1 X37.665Y36.912S1000F2000
M3
G1 F100 S1000
G4 P0.2
G1 S0
G0
M3
G0 X38.166Y37.413
M3
G1 F100 S1000
G4 P0.25
G1 S0
G0
M3
G1 X37.426Y38.152S1000F2000
M3
G1 F100 S1000
G4 P0.2
G1 S0
G0
M3
G0 X37.542Y39.037
M3
G1 F100 S1000
G4 P0.25
G1 S0
G0
M3
G1 X39.02Y37.559S1000F2000
M3
G1 F100 S1000
G4 P0.2
G1 S0
G0
M3
G0 X39.125Y38.372
M3
G1 F100 S1000
G4 P0.25
G1 S0
G0
M3
G1 X38.386Y39.112S1000F2000
M3
G1 F100 S1000
G4 P0.2
G1 S0
G0
M3
G0 X38.887Y39.612
M3
G1 F100 S1000
G4 P0.25
G1 S0
G0
M3
G1 X39.626Y38.873S1000F2000
M3
G1 F100 S1000
G4 P0.2
G1 S0
G0
M3
G0 X40.126Y39.374
M3
G1 F100 S1000
G4 P0.25
G1 S0
G0
M3
G1 X39.387Y40.113S1000F2000
M3
G1 F100 S1000
G4 P0.2
G1 S0
G0
M3
G0 X39.888Y40.614
M3
G1 F100 S1000
G4 P0.25
G1 S0
G0
M3
G1 X40.627Y39.875S1000F2000
M3
G1 F100 S1000
G4 P0.2
G1 S0
G0
M3
G0 X41.482Y40.021
M3
G1 F100 S1000
G4 P0.25
G1 S0
G0
M3
G1 X40.003Y41.499S1000F2000
M3
G1 F100 S1000
G4 P0.2
G1 S0
G0
M3
G0 X40.847Y41.573
M3
G1 F100 S1000
G4 P0.25
G1 S0
G0
M3
G1 X41.587Y40.834S1000F2000
M3
G1 F100 S1000
G4 P0.2
G1 S0
G0
M3
G0 X42.087Y41.334
M3
G1 F100 S1000
G4 P0.25
G1 S0
G0
M3
G1 X41.348Y42.073S1000F2000
M3
G1 F100 S1000
G4 P0.2
G1 S0
G0
M3
G0 X41.849Y42.574
M3
G1 F100 S1000
G4 P0.25
G1 S0
G0
M3
G1 X42.588Y41.835S1000F2000
M3
G1 F100 S1000
G4 P0.2
G1 S0
G0
M3
G0 X43.088Y42.335
M3
G1 F100 S1000
G4 P0.25
G1 S0
G0
M3
G1 X42.349Y43.075S1000F2000
M3
G1 F100 S1000
G4 P0.2
G1 S0
G0
M3
G0 X42.423Y43.919
M3
G1 F100 S1000
G4 P0.25
G1 S0
G0
M3
G1 X43.901Y42.441S1000F2000
M3
G1 F100 S1000
G4 P0.2
G1 S0
G0
M3
G0 X44.034Y43.281
M3
G1 F100 S1000
G4 P0.25
G1 S0
G0
M3
G1 X43.295Y44.02S1000F2000
M3
G1 F100 S1000
G4 P0.2
G1 S0
G0
M3
G0 X43.796Y44.521
M3
G1 F100 S1000
G4 P0.25
G1 S0
G0
M3
G1 X44.535Y43.782S1000F2000
M3
G1 F100 S1000
G4 P0.2
G1 S0
G0
M3
G0 X45.036Y44.282
M3
G1 F100 S1000
G4 P0.25
G1 S0
G0
M3
G1 X44.296Y45.022S1000F2000
M3
G1 F100 S1000
G4 P0.2
G1 S0
G0
M3
G0 X12.091Y44.886
M3
G1 F100 S1000
G4 P0.25
G1 S0
G0
M3
G1 X10S1000F2000
M3
G1 F100 S1000
G4 P0.2
G1 S0
G0
M3
G0 X10Y44.237
M3
G1 F100 S1000
G4 P0.25
G1 S0
G0
M3
G1 X11.045S1000F2000
M3
G1 F100 S1000
G4 P0.2
G1 S0
G0
M3
G0 X11.045Y43.529
M3
G1 F100 S1000
G4 P0.25
G1 S0
G0
M3
G1 X10S1000F2000
M3
G1 F100 S1000
G4 P0.2
G1 S0
G0
M3
G0 X10Y42.821
M3
G1 F100 S1000
G4 P0.25
G1 S0
G0
M3
G1 X11.045S1000F2000
M3
G1 F100 S1000
G4 P0.2
G1 S0
G0
M3
G0 X11.045Y42.113
M3
G1 F100 S1000
G4 P0.25
G1 S0
G0
M3
G1 X10S1000F2000
M3
G1 F100 S1000
G4 P0.2
G1 S0
G0
M3
G0 X10Y41.405
M3
G1 F100 S1000
G4 P0.25
G1 S0
G0
M3
G1 X12.091S1000F2000
M3
G1 F100 S1000
G4 P0.2
G1 S0
G0
M3
G0 X11.045Y40.697
M3
G1 F100 S1000
G4 P0.25
G1 S0
G0
M3
G1 X10S1000F2000
M3
G1 F100 S1000
G4 P0.2
G1 S0
G0
M3
G0 X10Y39.989
M3
G1 F100 S1000
G4 P0.25
G1 S0
G0
M3
G1 X11.045S1000F2000
M3
G1 F100 S1000
G4 P0.2
G1 S0
G0
M3
G0 X11.045Y39.281
M3
G1 F100 S1000
G4 P0.25
G1 S0
G0
M3
G1 X10S1000F2000
M3
G1 F100 S1000
G4 P0.2
G1 S0
G0
M3
G0 X10Y38.573
M3
G1 F100 S1000
G4 P0.25
G1 S0
G0
M3
G1 X11.045S1000F2000
M3
G1 F100 S1000
G4 P0.2
G1 S0
G0
M3
G0 X10Y37.865
M3
G1 F100 S1000
G4 P0.25
G1 S0
G0
M3
G1 X12.091S1000F2000
M3
G1 F100 S1000
G4 P0.2
G1 S0
G0
M3
G0 X11.045Y37.216
M3
G1 F100 S1000
G4 P0.25
G1 S0
G0
M3
G1 X10S1000F2000
M3
G1 F100 S1000
G4 P0.2
G1 S0
G0
M3
G0 X10Y36.508
M3
G1 F100 S1000
G4 P0.25
G1 S0
G0
M3
G1 X11.045S1000F2000
M3
G1 F100 S1000
G4 P0.2
G1 S0
G0
M3
G0 X11.045Y35.8
M3
G1 F100 S1000
G4 P0.25
G1 S0
G0
M3
G1 X10S1000F2000
M3
G1 F100 S1000
G4 P0.2
G1 S0
G0
M3
G0 X10Y35.092
M3
G1 F100 S1000
G4 P0.25
G1 S0
G0
M3
G1 X11.045S1000F2000
M3
G1 F100 S1000
G4 P0.2
G1 S0
G0
M3
G0 X10Y34.384
M3
G1 F100 S1000
G4 P0.25
G1 S0
G0
M3
G1 X12.091S1000F2000
M3
G1 F100 S1000
G4 P0.2
G1 S0
G0
M3
G0 X11.045Y33.735
M3
G1 F100 S1000
G4 P0.25
G1 S0
G0
M3
G1 X10S1000F2000
M3
G1 F100 S1000
G4 P0.2
G1 S0
G0
M3
G0 X10Y33.027
M3
G1 F100 S1000
G4 P0.25
G1 S0
G0
M3
G1 X11.045S1000F2000
M3
G1 F100 S1000
G4 P0.2
G1 S0
G0
M3
G0 X11.045Y32.319
M3
G1 F100 S1000
G4 P0.25
G1 S0
G0
M3
G1 X10S1000F2000
M3
G1 F100 S1000
G4 P0.2
G1 S0
G0
M3
G0 X10Y31.611
M3
G1 F100 S1000
G4 P0.25
G1 S0
G0
M3
G1 X11.045S1000F2000
M3
G1 F100 S1000
G4 P0.2
G1 S0
G0
M3
G0 X10Y30.903
M3
G1 F100 S1000
G4 P0.25
G1 S0
G0
M3
G1 X12.091S1000F2000
M3
G1 F100 S1000
G4 P0.2
G1 S0
G0
M3
G0 X11.045Y30.254
M3
G1 F100 S1000
G4 P0.25
G1 S0
G0
M3
G1 X10S1000F2000
M3
G1 F100 S1000
G4 P0.2
G1 S0
G0
M3
G0 X10Y29.546
M3
G1 F100 S1000
G4 P0.25
G1 S0
G0
M3
G1 X11.045S1000F2000
M3
G1 F100 S1000
G4 P0.2
G1 S0
G0
M3
G0 X11.045Y28.838
M3
G1 F100 S1000
G4 P0.25
G1 S0
G0
M3
G1 X10S1000F2000
M3
G1 F100 S1000
G4 P0.2
G1 S0
G0
M3
G0 X10Y28.13
M3
G1 F100 S1000
G4 P0.25
G1 S0
G0
M3
G1 X11.045S1000F2000
M3
G1 F100 S1000
G4 P0.2
G1 S0
G0
M3
G0 X10Y27.422
M3
G1 F100 S1000
G4 P0.25
G1 S0
G0
M3
G1 X12.091S1000F2000
M3
G1 F100 S1000
G4 P0.2
G1 S0
G0
M3
G0 X11.045Y26.773
M3
G1 F100 S1000
G4 P0.25
G1 S0
G0
M3
G1 X10S1000F2000
M3
G1 F100 S1000
G4 P0.2
G1 S0
G0
M3
G0 X10Y26.773
M3
G1 F100 S1000
G4 P0.25
G1 S0
G0
M3
G1 X11.045S1000F2000
M3
G1 F100 S1000
G4 P0.2
G1 S0
G0
M3
G0 X11.045Y26.065
M3
G1 F100 S1000
G4 P0.25
G1 S0
G0
M3
G1 X10S1000F2000
M3
G1 F100 S1000
G4 P0.2
G1 S0
G0
M3
G0 X10Y26.065
M3
G1 F100 S1000
G4 P0.25
G1 S0
G0
M3
G1 X11.045S1000F2000
M3
G1 F100 S1000
G4 P0.2
G1 S0
G0
M3
G0 X11.045Y25.357
M3
G1 F100 S1000
G4 P0.25
G1 S0
G0
M3
G1 X10S1000F2000
M3
G1 F100 S1000
G4 P0.2
G1 S0
G0
M3
G0 X10Y25.357
M3
G1 F100 S1000
G4 P0.25
G1 S0
G0
M3
G1 X11.045S1000F2000
M3
G1 F100 S1000
G4 P0.2
G1 S0
G0
M3
G0 X11.045Y24.649
M3
G1 F100 S1000
G4 P0.25
G1 S0
G0
M3
G1 X10S1000F2000
M3
G1 F100 S1000
G4 P0.2
G1 S0
G0
M3
G0 X10Y24.649
M3
G1 F100 S1000
G4 P0.25
G1 S0
G0
M3
G1 X11.045S1000F2000
M3
G1 F100 S1000
G4 P0.2
G1 S0
G0
M3
G0 X10Y23.941
M3
G1 F100 S1000
G4 P0.25
G1 S0
G0
M3
G1 X12.091S1000F2000
M3
G1 F100 S1000
G4 P0.2
G1 S0
G0
M3
G0 X11.045Y23.292
M3
G1 F100 S1000
G4 P0.25
G1 S0
G0
M3
G1 X10S1000F2000
M3
G1 F100 S1000
G4 P0.2
G1 S0
G0
M3
G0 X10Y22.584
M3
G1 F100 S1000
G4 P0.25
G1 S0
G0
M3
G1 X11.045S1000F2000
M3
G1 F100 S1000
G4 P0.2
G1 S0
G0
M3
G0 X11.045Y21.876
M3
G1 F100 S1000
G4 P0.25
G1 S0
G0
M3
G1 X10S1000F2000
M3
G1 F100 S1000
G4 P0.2
G1 S0
G0
M3
G0 X10Y21.168
M3
G1 F100 S1000
G4 P0.25
G1 S0
G0
M3
G1 X11.045S1000F2000
M3
G1 F100 S1000
G4 P0.2
G1 S0
G0
M3
G0 X10Y20.46
M3
G1 F100 S1000
G4 P0.25
G1 S0
G0
M3
G1 X12.091S1000F2000
M3
G1 F100 S1000
G4 P0.2
G1 S0
G0
M3
G0 X11.045Y19.811
M3
G1 F100 S1000
G4 P0.25
G1 S0
G0
M3
G1 X10S1000F2000
M3
G1 F100 S1000
G4 P0.2
G1 S0
G0
M3
G0 X10Y19.103
M3
G1 F100 S1000
G4 P0.25
G1 S0
G0
M3
G1 X11.045S1000F2000
M3
G1 F100 S1000
G4 P0.2
G1 S0
G0
M3
G0 X11.045Y18.395
M3
G1 F100 S1000
G4 P0.25
G1 S0
G0
M3
G1 X10S1000F2000
M3
G1 F100 S1000
G4 P0.2
G1 S0
G0
M3
G0 X10Y17.687
M3
G1 F100 S1000
G4 P0.25
G1 S0
G0
M3
G1 X11.045S1000F2000
M3
G1 F100 S1000
G4 P0.2
G1 S0
G0
M3
G0 X10Y16.979
M3
G1 F100 S1000
G4 P0.25
G1 S0
G0
M3
G1 X12.091S1000F2000
M3
G1 F100 S1000
G4 P0.2
G1 S0
G0
M3
G0 X11.045Y16.33
M3
G1 F100 S1000
G4 P0.25
G1 S0
G0
M3
G1 X10S1000F2000
M3
G1 F100 S1000
G4 P0.2
G1 S0
G0
M3
G0 X10Y15.622
M3
G1 F100 S1000
G4 P0.25
G1 S0
G0
M3
G1 X11.045S1000F2000
M3
G1 F100 S1000
G4 P0.2
G1 S0
G0
M3
G0 X11.045Y14.914
M3
G1 F100 S1000
G4 P0.25
G1 S0
G0
M3
G1 X10S1000F2000
M3
G1 F100 S1000
G4 P0.2
G1 S0
G0
M3
G0 X10Y14.206
M3
G1 F100 S1000
G4 P0.25
G1 S0
G0
M3
G1 X11.045S1000F2000
M3
G1 F100 S1000
G4 P0.2
G1 S0
G0
M3
G0 X20.561Y12.108
M3
G1 F100 S1000
G4 P0.25
G1 S0
G0
M3
G1 Y10.017S1000F2000
M3
G1 F100 S1000
G4 P0.2
G1 S0
G0
M3
G0 X31.004Y10.017
M3
G1 F100 S1000
G4 P0.25
G1 S0
G0
M3
G1 Y12.108S1000F2000
M3
G1 F100 S1000
G4 P0.2
G1 S0
G0
M3
G0 X34.485Y12.108
M3
G1 F100 S1000
G4 P0.25
G1 S0
G0
M3
G1 Y10.017S1000F2000
M3
G1 F100 S1000
G4 P0.2
G1 S0
G0
M3
G0 X37.966Y10.017
M3
G1 F100 S1000
G4 P0.25
G1 S0
G0
M3
G1 Y12.108S1000F2000
M3
G1 F100 S1000
G4 P0.2
G1 S0
G0
M3
G0 X41.447Y12.108
M3
G1 F100 S1000
G4 P0.25
G1 S0
G0
M3
G1 Y10.017S1000F2000
M3
G1 F100 S1000
G4 P0.2
G1 S0
G0
M3
G0 X38.517Y66.726
M3
G1 F100 S1000
G4 P0.25
G1 S0
G0
M3
G1 X37.984S1000F2000
G1 X37.999Y66.988
G1 X38.037Y67.276
G1 X38.097Y67.59
G1 X38.18Y67.93
G1 X38.284Y68.28
G1 X38.408Y68.623
G1 X38.552Y68.961
G1 X38.717Y69.291
G1 X38.895Y69.606
G1 X39.078Y69.895
G1 X39.267Y70.159
G1 X39.462Y70.396
G1 X37.393
G1 Y70.895
G1 X40.127
G1 Y70.491
G1 X39.926Y70.259
G1 X39.726Y69.991
G1 X39.526Y69.689
G1 X39.328Y69.35
G1 X39.141Y68.992
G1 X38.977Y68.629
G1 X38.835Y68.26
G1 X38.716Y67.887
G1 X38.588Y67.332
G1 X38.517Y66.726
M3
G1 F100 S1000
G4 P0.2
G1 S0
G0
M3
G0 X36.157Y67.49
M3
G1 F100 S1000
G4 P0.25
G1 S0
G0
M3
G1 X36.231Y67.658S1000F2000
G1 X36.276Y67.85
G1 X36.29Y68.066
G1 X36.276Y68.273
G1 X36.232Y68.457
G1 X36.159Y68.618
G1 X36.057Y68.756
G1 X35.933Y68.866
G1 X35.793Y68.945
G1 X35.639Y68.992
G1 X35.469Y69.008
G1 X35.3Y68.992
G1 X35.144Y68.945
G1 X35.002Y68.866
G1 X34.873Y68.756
G1 X34.766Y68.62
G1 X34.689Y68.464
G1 X34.643Y68.289
G1 X34.628Y68.094
G1 X34.656Y67.832
G1 X34.742Y67.582
G1 X34.878Y67.366
G1 X35.06Y67.209
G1 X35.27Y67.112
G1 X35.489Y67.08
G1 X35.648Y67.097
G1 X35.795Y67.147
G1 X35.93Y67.229
G1 X36.054Y67.345
G1 X36.157Y67.49
M3
G1 F100 S1000
G4 P0.2
G1 S0
G0
M3
G0 X36.649Y67.358
M3
G1 F100 S1000
G4 P0.25
G1 S0
G0
M3
G1 X36.555Y67.198S1000F2000
G1 X36.445Y67.057
G1 X36.32Y66.936
G1 X36.178Y66.835
G1 X36.023Y66.756
G1 X35.858Y66.699
G1 X35.683Y66.665
G1 X35.498Y66.654
G1 X35.189Y66.684
G1 X34.91Y66.773
G1 X34.66Y66.922
G1 X34.441Y67.131
G1 X34.262Y67.408
G1 X34.134Y67.762
G1 X34.057Y68.194
G1 X34.032Y68.702
G1 Y68.998
G1 X34.06Y69.273
G1 X34.095Y69.527
G1 X34.145Y69.76
G1 X34.208Y69.972
G1 X34.286Y70.163
G1 X34.378Y70.333
G1 X34.484Y70.483
G1 X34.698Y70.694
G1 X34.947Y70.846
G1 X35.23Y70.936
G1 X35.547Y70.967
G1 X35.785Y70.949
G1 X36Y70.897
G1 X36.193Y70.809
G1 X36.364Y70.687
G1 X36.507Y70.534
G1 X36.618Y70.354
G1 X36.698Y70.148
G1 X36.745Y69.915
G1 X36.23Y69.875
G1 X36.146Y70.138
G1 X36.034Y70.318
G1 X35.923Y70.416
G1 X35.799Y70.485
G1 X35.663Y70.526
G1 X35.515Y70.54
G1 X35.395
G1 X35.283Y70.506
G1 X35.178Y70.463
G1 X35.08Y70.402
G1 X34.964Y70.302
G1 X34.861Y70.182
G1 X34.771Y70.042
G1 X34.694Y69.881
G1 X34.632Y69.691
G1 X34.587Y69.465
G1 X34.559Y69.203
G1 X34.547Y68.904
G1 X34.646Y69.037
G1 X34.755Y69.152
G1 X34.875Y69.249
G1 X35.005Y69.327
G1 X35.283Y69.431
G1 X35.573Y69.466
G1 X35.823Y69.442
G1 X36.053Y69.37
G1 X36.264Y69.251
G1 X36.456Y69.084
G1 X36.615Y68.879
G1 X36.729Y68.646
G1 X36.798Y68.386
G1 X36.82Y68.097
G1 X36.81Y67.902
G1 X36.778Y67.714
G1 X36.724Y67.533
G1 X36.649Y67.358
M3
G1 F100 S1000
G4 P0.2
G1 S0
G0
M3
G0 X33.467Y67.623
M3
G1 F100 S1000
G4 P0.25
G1 S0
G0
M3
G1 X33.363Y67.385S1000F2000
G1 X33.217Y67.167
G1 X32.995Y66.942
G1 X32.736Y66.782
G1 X32.441Y66.686
G1 X32.108Y66.654
G1 X31.833Y66.674
G1 X31.584Y66.735
G1 X31.362Y66.835
G1 X31.167Y66.977
G1 X31.004Y67.151
G1 X30.881Y67.352
G1 X30.796Y67.579
G1 X30.751Y67.832
G1 X31.295Y67.878
G1 X31.335Y67.692
G1 X31.396Y67.53
G1 X31.476Y67.393
G1 X31.576Y67.281
G1 X31.692Y67.193
G1 X31.819Y67.13
G1 X31.958Y67.093
G1 X32.108Y67.08
G1 X32.288Y67.098
G1 X32.453Y67.151
G1 X32.605Y67.239
G1 X32.741Y67.363
G1 X32.855Y67.515
G1 X32.936Y67.691
G1 X32.984Y67.89
G1 X33.001Y68.112
G1 X32.985Y68.322
G1 X32.938Y68.509
G1 X32.86Y68.672
G1 X32.751Y68.812
G1 X32.617Y68.924
G1 X32.464Y69.004
G1 X32.291Y69.052
G1 X32.099Y69.068
G1 X31.861Y69.04
G1 X31.647Y68.954
G1 X31.467Y68.824
G1 X31.33Y68.659
G1 X30.843Y68.722
G1 X31.252Y70.892
G1 X33.352
G1 Y70.396
G1 X31.667
G1 X31.439Y69.261
G1 X31.632Y69.377
G1 X31.829Y69.46
G1 X32.031Y69.51
G1 X32.237Y69.526
G1 X32.503Y69.502
G1 X32.747Y69.43
G1 X32.97Y69.311
G1 X33.171Y69.143
G1 X33.337Y68.938
G1 X33.456Y68.705
G1 X33.527Y68.445
G1 X33.551Y68.158
G1 X33.53Y67.881
G1 X33.467Y67.623
M3
G1 F100 S1000
G4 P0.2
G1 S0
G0
M3
G0 X29.109Y68.213
M3
G1 F100 S1000
G4 P0.25
G1 S0
G0
M3
G1 Y70.117S1000F2000
G1 X27.787Y68.213
G1 X29.109
M3
G1 F100 S1000
G4 P0.2
G1 S0
G0
M3
G0 X29.627Y68.213
M3
G1 F100 S1000
G4 P0.25
G1 S0
G0
M3
G1 X30.198S1000F2000
G1 Y67.737
G1 X29.627
G1 Y66.726
G1 X29.109
G1 Y67.737
G1 X27.277
G1 Y68.213
G1 X29.204Y70.949
G1 X29.627
G1 Y68.213
M3
G1 F100 S1000
G4 P0.2
G1 S0
G0
M3
G0 X26.898Y68.169
M3
G1 F100 S1000
G4 P0.25
G1 S0
G0
M3
G1 X26.911Y67.973S1000F2000
G1 X26.886Y67.707
G1 X26.81Y67.462
G1 X26.684Y67.239
G1 X26.508Y67.036
G1 X26.293Y66.867
G1 X26.051Y66.747
G1 X25.783Y66.675
G1 X25.488Y66.651
G1 X25.222Y66.672
G1 X24.979Y66.734
G1 X24.76Y66.837
G1 X24.565Y66.982
G1 X24.401Y67.16
G1 X24.276Y67.363
G1 X24.191Y67.59
G1 X24.145Y67.841
G1 X24.664Y67.91
G1 X24.717Y67.705
G1 X24.785Y67.531
G1 X24.869Y67.387
G1 X24.968Y67.275
G1 X25.081Y67.19
G1 X25.206Y67.129
G1 X25.343Y67.092
G1 X25.491Y67.08
G1 X25.667Y67.096
G1 X25.828Y67.144
G1 X25.976Y67.223
G1 X26.109Y67.334
G1 X26.219Y67.468
G1 X26.298Y67.618
G1 X26.345Y67.782
G1 X26.361Y67.962
G1 X26.346Y68.133
G1 X26.303Y68.288
G1 X26.23Y68.427
G1 X26.128Y68.551
G1 X26.003Y68.652
G1 X25.863Y68.725
G1 X25.706Y68.768
G1 X25.534Y68.783
G1 X25.369Y68.769
G1 X25.168Y68.725
G1 X25.226Y69.181
G1 X25.273
G1 X25.309
G1 X25.471
G1 X25.624Y69.218
G1 X25.769Y69.272
G1 X25.906Y69.348
G1 X26.022Y69.446
G1 X26.104Y69.567
G1 X26.154Y69.712
G1 X26.171Y69.881
G1 X26.159Y70.017
G1 X26.123Y70.141
G1 X26.062Y70.253
G1 X25.978Y70.353
G1 X25.874Y70.435
G1 X25.757Y70.493
G1 X25.625Y70.529
G1 X25.479Y70.54
G1 X25.334Y70.528
G1 X25.202Y70.493
G1 X25.082Y70.433
G1 X24.975Y70.35
G1 X24.883Y70.243
G1 X24.81Y70.112
G1 X24.754Y69.958
G1 X24.716Y69.78
G1 X24.197Y69.872
G1 X24.26Y70.118
G1 X24.353Y70.335
G1 X24.476Y70.522
G1 X24.629Y70.68
G1 X24.808Y70.805
G1 X25.008Y70.895
G1 X25.227Y70.949
G1 X25.468Y70.967
G1 X25.637
G1 X25.8Y70.93
G1 X25.956Y70.883
G1 X26.104Y70.818
G1 X26.241Y70.737
G1 X26.361Y70.643
G1 X26.464Y70.535
G1 X26.55Y70.414
G1 X26.617Y70.283
G1 X26.665Y70.149
G1 X26.694Y70.011
G1 Y69.869
G1 Y69.735
G1 X26.667Y69.608
G1 X26.621Y69.486
G1 X26.557Y69.371
G1 X26.475Y69.264
G1 X26.375Y69.169
G1 X26.257Y69.085
G1 X26.122Y69.013
G1 X26.299Y68.959
G1 X26.455Y68.881
G1 X26.59Y68.779
G1 X26.704Y68.655
G1 X26.794Y68.51
G1 X26.859Y68.348
G1 X26.898Y68.169
M3
G1 F100 S1000
G4 P0.2
G1 S0
G0
M3
G0 X25.564Y73.189
M3
G1 F100 S1000
G4 P0.25
G1 S0
G0
M3
G1 X25.814Y73.287S1000F2000
G1 X25.922Y73.359
G1 X26.016Y73.442
G1 X26.094Y73.538
G1 X26.156Y73.646
G1 X26.219Y73.863
G1 X26.24Y74.164
G1 Y74.354
G1 X26.081Y74.299
G1 X25.887Y74.248
G1 X25.658Y74.201
G1 X25.393Y74.159
G1 X25.12Y74.11
G1 X24.941Y74.055
G1 X24.823Y73.984
G1 X24.736Y73.886
G1 X24.682Y73.769
G1 X24.664Y73.64
G1 Y73.541
G1 X24.703Y73.45
G1 X24.752Y73.368
G1 X24.821Y73.294
G1 X24.909Y73.234
G1 X25.014Y73.191
G1 X25.138Y73.165
G1 X25.281
G1 X25.564Y73.189
M3
G1 F100 S1000
G4 P0.2
G1 S0
G0
M3
G0 X26Y72.988
M3
G1 F100 S1000
G4 P0.25
G1 S0
G0
M3
G1 X25.729Y72.851S1000F2000
G1 X25.452Y72.775
G1 X25.157Y72.75
G1 X24.919Y72.765
G1 X24.711Y72.811
G1 X24.532Y72.888
G1 X24.382Y72.996
G1 X24.263Y73.128
G1 X24.179Y73.277
G1 X24.128Y73.443
G1 X24.111Y73.626
G1 X24.136Y73.841
G1 X24.213Y74.036
G1 X24.331Y74.204
G1 X24.481Y74.334
G1 X24.657Y74.433
G1 X24.854Y74.504
G1 X25.046Y74.544
G1 X25.315Y74.582
G1 X25.608Y74.621
G1 X25.86Y74.664
G1 X26.071Y74.711
G1 X26.24Y74.761
G1 Y74.896
G1 Y75.043
G1 X26.206Y75.166
G1 X26.16Y75.266
G1 X26.096Y75.343
G1 X25.984Y75.42
G1 X25.849Y75.474
G1 X25.689Y75.507
G1 X25.505Y75.518
G1 X25.334
G1 X25.187Y75.486
G1 X25.064Y75.446
G1 X24.965Y75.39
G1 X24.884Y75.314
G1 X24.814Y75.213
G1 X24.755Y75.087
G1 X24.707Y74.936
G1 X24.2Y75.006
G1 X24.292Y75.3
G1 X24.428Y75.531
G1 X24.516Y75.626
G1 X24.622Y75.709
G1 X24.745Y75.78
G1 X24.886Y75.84
G1 X25.209Y75.921
G1 X25.58Y75.948
G1 X25.935Y75.925
G1 X26.217Y75.855
G1 X26.429Y75.751
G1 X26.577Y75.624
G1 X26.675Y75.465
G1 X26.738Y75.271
G1 X26.75Y75.191
G1 Y75.085
G1 X26.763Y74.952
G1 Y74.792
G1 Y74.101
G1 Y73.773
G1 Y73.511
G1 X26.783Y73.315
G1 X26.797Y73.186
G1 X26.847Y72.999
G1 X26.928Y72.819
G1 X26.387
G1 X26.321Y72.994
G1 X26.283Y73.196
G1 X26Y72.988
M3
G1 F100 S1000
G4 P0.2
G1 S0
G0
M3
G0 X28.213Y73.577
M3
G1 F100 S1000
G4 P0.25
G1 S0
G0
M3
G1 X28.346Y73.401S1000F2000
G1 X28.501Y73.276
G1 X28.678Y73.201
G1 X28.876Y73.176
G1 X29.04Y73.195
G1 X29.192Y73.25
G1 X29.334Y73.342
G1 X29.463Y73.472
G1 X29.572Y73.637
G1 X29.649Y73.839
G1 X29.696Y74.077
G1 X29.711Y74.352
G1 X29.696Y74.632
G1 X29.652Y74.872
G1 X29.577Y75.074
G1 X29.473Y75.236
G1 X29.348Y75.361
G1 X29.211Y75.45
G1 X29.061Y75.503
G1 X28.899Y75.521
G1 X28.734Y75.503
G1 X28.582Y75.447
G1 X28.441Y75.355
G1 X28.311Y75.226
G1 X28.203Y75.062
G1 X28.125Y74.865
G1 X28.079Y74.635
G1 X28.063Y74.372
G1 Y74.116
G1 X28.101Y73.898
G1 X28.147Y73.718
G1 X28.213Y73.577
M3
G1 F100 S1000
G4 P0.2
G1 S0
G0
M3
G0 X28.069Y73.202
M3
G1 F100 S1000
G4 P0.25
G1 S0
G0
M3
G1 Y72.819S1000F2000
G1 X27.588
G1 Y77.042
G1 X28.106
G1 Y75.536
G1 X28.282Y75.716
G1 X28.48Y75.845
G1 X28.701Y75.922
G1 X28.945Y75.948
G1 X29.219Y75.919
G1 X29.479Y75.834
G1 X29.709Y75.697
G1 X29.894Y75.514
G1 X30.039Y75.287
G1 X30.149Y75.017
G1 X30.218Y74.716
G1 X30.241Y74.395
G1 X30.217Y74.024
G1 X30.144Y73.698
G1 X30.022Y73.416
G1 X29.852Y73.179
G1 X29.648Y72.991
G1 X29.424Y72.857
G1 X29.181Y72.777
G1 X28.919Y72.75
G1 X28.663Y72.778
G1 X28.436Y72.863
G1 X28.238Y73.004
G1 X28.069Y73.202
M3
G1 F100 S1000
G4 P0.2
G1 S0
G0
M3
G0 X30.832Y73.66
M3
G1 F100 S1000
G4 P0.25
G1 S0
G0
M3
G1 X30.76Y73.976S1000F2000
G1 X30.736Y74.337
G1 X30.747Y74.577
G1 X30.777Y74.802
G1 X30.829Y75.011
G1 X30.9Y75.204
G1 X30.993Y75.379
G1 X31.108Y75.53
G1 X31.243Y75.657
G1 X31.4Y75.762
G1 X31.572Y75.843
G1 X31.751Y75.901
G1 X31.937Y75.936
G1 X32.131Y75.948
G1 X32.368Y75.932
G1 X32.584Y75.885
G1 X32.776Y75.806
G1 X32.946Y75.696
G1 X33.09Y75.556
G1 X33.206Y75.391
G1 X33.293Y75.198
G1 X33.352Y74.98
G1 X32.848Y74.902
G1 X32.805Y75.046
G1 X32.748Y75.172
G1 X32.678Y75.278
G1 X32.593Y75.366
G1 X32.497Y75.434
G1 X32.391Y75.482
G1 X32.276Y75.512
G1 X32.151
G1 X31.964
G1 X31.796Y75.451
G1 X31.646Y75.363
G1 X31.514Y75.24
G1 X31.407Y75.079
G1 X31.33Y74.878
G1 X31.285Y74.635
G1 X31.269Y74.352
G1 X31.284Y74.064
G1 X31.328Y73.819
G1 X31.402Y73.616
G1 X31.505Y73.456
G1 X31.633Y73.333
G1 X31.778Y73.246
G1 X31.941Y73.194
G1 X32.122Y73.176
G1 X32.268Y73.188
G1 X32.402Y73.223
G1 X32.523Y73.282
G1 X32.632Y73.363
G1 X32.725Y73.47
G1 X32.799Y73.601
G1 X32.854Y73.758
G1 X32.891Y73.94
G1 X33.401Y73.873
G1 X33.343Y73.624
G1 X33.252Y73.403
G1 X33.129Y73.211
G1 X32.973Y73.048
G1 X32.791Y72.918
G1 X32.59Y72.824
G1 X32.369Y72.768
G1 X32.128Y72.75
G1 X31.829Y72.776
G1 X31.561Y72.852
G1 X31.324Y72.981
G1 X31.118Y73.16
G1 X30.951Y73.388
G1 X30.832Y73.66
M3
G1 F100 S1000
G4 P0.2
G1 S0
G0
M3
G0 X34.206Y74.071
M3
G1 F100 S1000
G4 P0.25
G1 S0
G0
M3
G1 X34.252Y73.832S1000F2000
G1 X34.33Y73.631
G1 X34.438Y73.467
G1 X34.568Y73.34
G1 X34.708Y73.249
G1 X34.86Y73.194
G1 X35.023Y73.176
G1 X35.187Y73.194
G1 X35.337Y73.246
G1 X35.475Y73.333
G1 X35.601Y73.454
G1 X35.705Y73.611
G1 X35.779Y73.805
G1 X35.823Y74.036
G1 X35.838Y74.303
G1 X35.823Y74.596
G1 X35.778Y74.847
G1 X35.702Y75.057
G1 X35.596Y75.225
G1 X35.468Y75.353
G1 X35.326Y75.445
G1 X35.17Y75.5
G1 X35Y75.518
G1 X34.834Y75.501
G1 X34.683Y75.448
G1 X34.545Y75.36
G1 X34.422Y75.236
G1 X34.321Y75.075
G1 X34.248Y74.872
G1 X34.205Y74.629
G1 X34.19Y74.346
G1 X34.206Y74.071
M3
G1 F100 S1000
G4 P0.2
G1 S0
G0
M3
G0 X33.668Y74.118
M3
G1 F100 S1000
G4 P0.25
G1 S0
G0
M3
G1 X33.657Y74.346S1000F2000
G1 X33.667Y74.57
G1 X33.696Y74.783
G1 X33.743Y74.985
G1 X33.81Y75.177
G1 X33.896Y75.353
G1 X34.001Y75.506
G1 X34.125Y75.639
G1 X34.268Y75.749
G1 X34.425Y75.836
G1 X34.592Y75.898
G1 X34.767Y75.935
G1 X34.951Y75.948
G1 X35.212Y75.918
G1 X35.444Y75.831
G1 X35.64Y75.697
G1 X35.795Y75.527
G1 Y77.042
G1 X36.311
G1 Y72.819
G1 X35.83
G1 Y73.205
G1 X35.667Y73.006
G1 X35.47Y72.864
G1 X35.239Y72.778
G1 X34.974Y72.75
G1 X34.795Y72.762
G1 X34.623Y72.8
G1 X34.458Y72.863
G1 X34.301Y72.952
G1 X34.157Y73.062
G1 X34.029Y73.193
G1 X33.919Y73.344
G1 X33.826Y73.515
G1 X33.752Y73.702
G1 X33.7Y73.903
G1 X33.668Y74.118
M3
G1 F100 S1000
G4 P0.2
G1 S0
G0
M3
G0 X37.541Y74.643
M3
G1 F100 S1000
G4 P0.25
G1 S0
G0
M3
G1 X39.249S1000F2000
G1 X39.224Y74.824
G1 X39.183Y74.98
G1 X39.126Y75.113
G1 X39.053Y75.222
G1 X38.92Y75.353
G1 X38.769Y75.446
G1 X38.599Y75.503
G1 X38.411Y75.521
G1 X38.239Y75.506
G1 X38.082Y75.461
G1 X37.939Y75.387
G1 X37.81Y75.282
G1 X37.702Y75.153
G1 X37.621Y75.003
G1 X37.567Y74.833
G1 X37.541Y74.643
M3
G1 F100 S1000
G4 P0.2
G1 S0
G0
M3
G0 X37.001Y74.687
M3
G1 F100 S1000
G4 P0.25
G1 S0
G0
M3
G1 X37.075Y75.008S1000F2000
G1 X37.2Y75.286
G1 X37.373Y75.521
G1 X37.587Y75.708
G1 X37.83Y75.841
G1 X38.103Y75.921
G1 X38.405Y75.948
G1 X38.698Y75.922
G1 X38.962Y75.843
G1 X39.199Y75.713
G1 X39.407Y75.53
G1 X39.578Y75.3
G1 X39.699Y75.027
G1 X39.772Y74.712
G1 X39.796Y74.354
G1 Y74.216
G1 X37.512
G1 X37.54Y73.979
G1 X37.597Y73.771
G1 X37.683Y73.593
G1 X37.797Y73.444
G1 X37.933Y73.327
G1 X38.085Y73.243
G1 X38.253Y73.193
G1 X38.437Y73.176
G1 X38.574
G1 X38.701Y73.214
G1 X38.817Y73.26
G1 X38.923Y73.326
G1 X39.019Y73.412
G1 X39.104Y73.52
G1 X39.179Y73.651
G1 X39.243Y73.804
G1 X39.779Y73.738
G1 X39.702Y73.516
G1 X39.598Y73.321
G1 X39.467Y73.152
G1 X39.309Y73.009
G1 X39.126Y72.896
G1 X38.919Y72.815
G1 X38.688Y72.766
G1 X38.434Y72.75
G1 X38.115Y72.776
G1 X37.832Y72.853
G1 X37.583Y72.982
G1 X37.369Y73.163
G1 X37.197Y73.391
G1 X37.074Y73.66
G1 X37.001Y73.971
G1 X36.976Y74.323
G1 X37.001Y74.687
M3
G1 F100 S1000
G4 P0.2
G1 S0
G0
M3
G0 X40.119Y75.475
M3
G1 F100 S1000
G4 P0.25
G1 S0
G0
M3
G1 Y75.878S1000F2000
G1 X40.577
G1 Y76.204
G1 X40.59Y76.473
G1 X40.631Y76.662
G1 X40.735Y76.845
G1 X40.895Y76.989
G1 X40.999Y77.044
G1 X41.122Y77.083
G1 X41.263Y77.107
G1 X41.424
G1 X41.654
G1 X41.908Y77.063
G1 X41.83Y76.61
G1 X41.673Y76.632
G1 X41.525
G1 X41.323Y76.614
G1 X41.19Y76.538
G1 X41.147Y76.477
G1 X41.117Y76.393
G1 X41.098Y76.288
G1 Y76.161
G1 Y75.878
G1 X41.689
G1 Y75.475
G1 X41.092
G1 Y72.819
G1 X40.577
G1 Y75.475
G1 X40.119
M3
G1 F100 S1000
G4 P0.2
G1 S0
G0
M3
G0 X42.634Y75.08
M3
G1 F100 S1000
G4 P0.25
G1 S0
G0
M3
G1 X42.559Y74.889S1000F2000
G1 X42.513Y74.663
G1 X42.498Y74.403
G1 X42.513Y74.123
G1 X42.558Y73.883
G1 X42.633Y73.683
G1 X42.737Y73.525
G1 X42.864Y73.404
G1 X43.006Y73.317
G1 X43.164Y73.266
G1 X43.336Y73.248
G1 X43.508Y73.265
G1 X43.665Y73.317
G1 X43.807Y73.403
G1 X43.936Y73.523
G1 X44.041Y73.68
G1 X44.117Y73.877
G1 X44.162Y74.112
G1 X44.178Y74.386
G1 X44.162Y74.65
G1 X44.115Y74.879
G1 X44.037Y75.073
G1 X43.928Y75.233
G1 X43.797Y75.358
G1 X43.654Y75.447
G1 X43.497Y75.501
G1 X43.328Y75.518
G1 X43.161Y75.501
G1 X43.008Y75.448
G1 X42.867Y75.36
G1 X42.74Y75.237
G1 X42.634Y75.08
M3
G1 F100 S1000
G4 P0.2
G1 S0
G0
M3
G0 X42.124Y75.174
M3
G1 F100 S1000
G4 P0.25
G1 S0
G0
M3
G1 X42.212Y75.349S1000F2000
G1 X42.318Y75.502
G1 X42.441Y75.635
G1 X42.583Y75.746
G1 X42.74Y75.834
G1 X42.91Y75.897
G1 X43.094Y75.935
G1 X43.29Y75.948
G1 X43.549Y75.92
G1 X43.784Y75.838
G1 X43.996Y75.701
G1 X44.183Y75.51
G1 Y75.878
G1 X44.662
G1 Y73.234
G1 Y72.903
G1 X44.625Y72.623
G1 X44.58Y72.396
G1 X44.516Y72.221
G1 X44.433Y72.08
G1 X44.328Y71.954
G1 X44.202Y71.844
G1 X44.055Y71.75
G1 X43.888Y71.675
G1 X43.703Y71.621
G1 X43.5Y71.588
G1 X43.279Y71.577
G1 X43.018Y71.593
G1 X42.784Y71.639
G1 X42.576Y71.716
G1 X42.394Y71.824
G1 X42.248Y71.962
G1 X42.144Y72.132
G1 X42.085Y72.333
G1 X42.069Y72.565
G1 X42.573Y72.491
G1 X42.596Y72.382
G1 X42.633Y72.289
G1 X42.684Y72.212
G1 X42.749Y72.151
G1 X42.854Y72.088
G1 X42.977Y72.043
G1 X43.118Y72.016
G1 X43.276
G1 X43.446
G1 X43.595Y72.043
G1 X43.724Y72.088
G1 X43.832Y72.151
G1 X43.922Y72.23
G1 X43.996Y72.323
G1 X44.054Y72.432
G1 X44.097Y72.554
G1 X44.114Y72.655
G1 X44.126Y72.8
G1 Y72.988
G1 Y73.219
G1 X43.954Y73.044
G1 X43.753Y72.919
G1 X43.53Y72.844
G1 X43.287Y72.819
G1 X42.99Y72.847
G1 X42.728Y72.933
G1 X42.501Y73.075
G1 X42.311Y73.274
G1 X42.16Y73.513
G1 X42.051Y73.775
G1 X41.987Y74.059
G1 X41.965Y74.366
G1 Y74.581
G1 X42.005Y74.787
G1 X42.054Y74.985
G1 X42.124Y75.174
M3
G1 F100 S1000
G4 P0.2
G1 S0
G0
M3
G0 X45.927Y75.527
M3
G1 F100 S1000
G4 P0.25
G1 S0
G0
M3
G1 X46.121Y75.711S1000F2000
G1 X46.338Y75.842
G1 X46.579Y75.921
G1 X46.844Y75.948
G1 X47.008
G1 X47.161Y75.914
G1 X47.303Y75.872
G1 X47.434Y75.814
G1 X47.551Y75.74
G1 X47.649Y75.654
G1 X47.73Y75.555
G1 X47.793Y75.443
G1 X47.84Y75.312
G1 X47.874Y75.154
G1 X47.894Y74.969
G1 Y74.758
G1 Y72.819
G1 X47.382
G1 Y74.758
G1 X47.372Y74.939
G1 X47.34Y75.094
G1 X47.287Y75.222
G1 X47.214Y75.324
G1 X47.121Y75.401
G1 X47.01Y75.457
G1 X46.882Y75.49
G1 X46.737Y75.501
G1 X46.513Y75.471
G1 X46.303Y75.382
G1 X46.129Y75.241
G1 X46.014Y75.057
G1 X45.949Y74.814
G1 X45.927Y74.493
G1 Y72.819
G1 X45.409
G1 Y77.042
G1 X45.927
G1 Y75.527
M3
G1 F100 S1000
G4 P0.2
G1 S0
G0
M3
G0 X48.716Y75.878
M3
G1 F100 S1000
G4 P0.25
G1 S0
G0
M3
G1 X49.234S1000F2000
G1 Y72.819
G1 X48.716
G1 Y75.878
M3
G1 F100 S1000
G4 P0.2
G1 S0
G0
M3
G0 X48.716Y76.446
M3
G1 F100 S1000
G4 P0.25
G1 S0
G0
M3
G1 Y77.042S1000F2000
G1 X49.234
G1 Y76.446
G1 X48.716
M3
G1 F100 S1000
G4 P0.2
G1 S0
G0
M3
G0 X50.087Y76.44
M3
G1 F100 S1000
G4 P0.25
G1 S0
G0
M3
G1 Y77.042S1000F2000
G1 X50.606
G1 Y76.44
G1 X50.087
M3
G1 F100 S1000
G4 P0.2
G1 S0
G0
M3
G0 X50.087Y75.878
M3
G1 F100 S1000
G4 P0.25
G1 S0
G0
M3
G1 X50.606S1000F2000
G1 Y72.652
G1 Y72.391
G1 X50.569Y72.173
G1 X50.523Y71.998
G1 X50.459Y71.865
G1 X50.35Y71.739
G1 X50.21Y71.649
G1 X50.038Y71.595
G1 X49.836Y71.577
G1 X49.63Y71.591
G1 X49.43Y71.632
G1 X49.528Y72.073
G1 X49.667Y72.043
G1 X49.773Y72.033
G1 X49.911Y72.059
G1 X50.009Y72.138
G1 X50.043Y72.21
G1 X50.068Y72.322
G1 X50.082Y72.473
G1 Y72.663
G1 Y75.878
M3
G1 F100 S1000
G4 P0.2
G1 S0
G0
M3
G0 X51.312Y77.042
M3
G1 F100 S1000
G4 P0.25
G1 S0
G0
M3
G1 X51.83S1000F2000
G1 Y74.634
G1 X53.058Y75.878
G1 X53.729
G1 X52.559Y74.743
G1 X53.847Y72.819
G1 X53.207
G1 X52.196Y74.383
G1 X51.83Y74.032
G1 Y72.819
G1 X51.312
G1 Y77.042
M3
G1 F100 S1000
G4 P0.2
G1 S0
G0
M3
G0 X54.247Y77.042
M3
G1 F100 S1000
G4 P0.25
G1 S0
G0
M3
G1 X54.766S1000F2000
G1 Y72.819
G1 X54.247
G1 Y77.042
M3
G1 F100 S1000
G4 P0.2
G1 S0
G0
M3
G0 X55.557Y75.878
M3
G1 F100 S1000
G4 P0.25
G1 S0
G0
M3
G1 X56.021S1000F2000
G1 Y75.449
G1 X56.189Y75.652
G1 X56.404Y75.811
G1 X56.66Y75.913
G1 X56.948Y75.948
G1 X57.111
G1 X57.258Y75.912
G1 X57.389Y75.868
G1 X57.506Y75.806
G1 X57.607Y75.729
G1 X57.691Y75.637
G1 X57.76Y75.532
G1 X57.813Y75.412
G1 X58.008Y75.646
G1 X58.23Y75.814
G1 X58.48Y75.914
G1 X58.758Y75.948
G1 X58.972Y75.932
G1 X59.16Y75.885
G1 X59.322Y75.806
G1 X59.458Y75.696
G1 X59.565Y75.552
G1 X59.641Y75.375
G1 X59.687Y75.164
G1 X59.703Y74.919
G1 Y72.819
G1 X59.187
G1 Y74.746
G1 X59.174Y75.014
G1 X59.136Y75.194
G1 X59.066Y75.318
G1 X58.954Y75.415
G1 X58.809Y75.477
G1 X58.642Y75.498
G1 X58.488Y75.485
G1 X58.347Y75.445
G1 X58.22Y75.377
G1 X58.107Y75.284
G1 X58.013Y75.16
G1 X57.947Y75.005
G1 X57.907Y74.817
G1 X57.893Y74.596
G1 Y72.819
G1 X57.375
G1 Y74.807
G1 Y74.969
G1 X57.343Y75.109
G1 X57.304Y75.228
G1 X57.248Y75.325
G1 X57.175Y75.401
G1 X57.081Y75.455
G1 X56.967Y75.487
G1 X56.833Y75.498
G1 X56.623Y75.469
G1 X56.428Y75.383
G1 X56.268Y75.241
G1 X56.159Y75.046
G1 X56.123Y74.923
G1 X56.096Y74.775
G1 X56.081Y74.603
G1 Y74.406
G1 Y72.819
G1 X55.557
G1 Y75.878
M3
G1 F100 S1000
G4 P0.2
G1 S0
G0
M3
G0 X60.513Y75.878
M3
G1 F100 S1000
G4 P0.25
G1 S0
G0
M3
G1 X60.98S1000F2000
G1 Y75.443
G1 X61.167Y75.664
G1 X61.392Y75.822
G1 X61.654Y75.916
G1 X61.953Y75.948
G1 X62.219Y75.923
G1 X62.462Y75.848
G1 X62.665Y75.733
G1 X62.809Y75.588
G1 X62.907Y75.411
G1 X62.97Y75.204
G1 X62.983Y75.119
G1 Y75.006
G1 X62.997Y74.867
G1 Y74.7
G1 Y72.819
G1 X62.481
G1 Y74.68
G1 X62.466Y74.957
G1 X62.42Y75.154
G1 X62.336Y75.295
G1 X62.206Y75.405
G1 X62.038Y75.475
G1 X61.844Y75.498
G1 X61.684Y75.485
G1 X61.535Y75.446
G1 X61.398Y75.38
G1 X61.272Y75.288
G1 X61.167Y75.159
G1 X61.092Y74.983
G1 X61.047Y74.76
G1 X61.032Y74.49
G1 Y72.819
G1 X60.513
G1 Y75.878
M3
G1 F100 S1000
G4 P0.2
G1 S0
G0
M3
G0 X64.301Y75.063
M3
G1 F100 S1000
G4 P0.25
G1 S0
G0
M3
G1 X64.221Y74.862S1000F2000
G1 X64.173Y74.624
G1 X64.157Y74.349
G1 X64.173Y74.073
G1 X64.221Y73.835
G1 X64.301Y73.633
G1 X64.413Y73.469
G1 X64.55Y73.341
G1 X64.703Y73.249
G1 X64.873Y73.194
G1 X65.059Y73.176
G1 X65.244Y73.195
G1 X65.412Y73.25
G1 X65.565Y73.342
G1 X65.701Y73.47
G1 X65.813Y73.636
G1 X65.893Y73.841
G1 X65.942Y74.084
G1 X65.958Y74.366
G1 X65.941Y74.633
G1 X65.893Y74.865
G1 X65.813Y75.063
G1 X65.7Y75.226
G1 X65.563Y75.354
G1 X65.411Y75.445
G1 X65.242Y75.5
G1 X65.059Y75.518
G1 X64.873Y75.5
G1 X64.703Y75.446
G1 X64.55Y75.355
G1 X64.413Y75.227
G1 X64.301Y75.063
M3
G1 F100 S1000
G4 P0.2
G1 S0
G0
M3
G0 X63.742Y75.088
M3
G1 F100 S1000
G4 P0.25
G1 S0
G0
M3
G1 X63.89Y75.376S1000F2000
G1 X64.096Y75.608
G1 X64.305Y75.756
G1 X64.534Y75.863
G1 X64.786Y75.926
G1 X65.059Y75.948
G1 X65.36Y75.922
G1 X65.632Y75.844
G1 X65.875Y75.715
G1 X66.09Y75.534
G1 X66.265Y75.308
G1 X66.39Y75.042
G1 X66.465Y74.737
G1 X66.491Y74.392
G1 X66.479Y74.112
G1 X66.446Y73.864
G1 X66.391Y73.648
G1 X66.313Y73.463
G1 X66.215Y73.303
G1 X66.096Y73.162
G1 X65.957Y73.04
G1 X65.798Y72.937
G1 X65.625Y72.855
G1 X65.444Y72.797
G1 X65.255Y72.762
G1 X65.059Y72.75
G1 X64.753Y72.776
G1 X64.478Y72.853
G1 X64.234Y72.982
G1 X64.02Y73.162
G1 X63.847Y73.39
G1 X63.723Y73.665
G1 X63.649Y73.984
G1 X63.624Y74.349
G1 X63.654Y74.746
G1 X63.742Y75.088
M3
G1 F100 S1000
G4 P0.2
G1 S0
G0
M3
G0 X67.654Y74.852
M3
G1 F100 S1000
G4 P0.25
G1 S0
G0
M3
G1 X67.607Y74.609S1000F2000
G1 X67.591Y74.331
G1 X67.606Y74.055
G1 X67.65Y73.818
G1 X67.725Y73.619
G1 X67.83Y73.459
G1 X67.956Y73.335
G1 X68.094Y73.247
G1 X68.245Y73.194
G1 X68.409Y73.176
G1 X68.575Y73.194
G1 X68.73Y73.249
G1 X68.871Y73.341
G1 X69.001Y73.469
G1 X69.109Y73.635
G1 X69.186Y73.841
G1 X69.232Y74.088
G1 X69.247Y74.375
G1 X69.232Y74.649
G1 X69.187Y74.886
G1 X69.112Y75.087
G1 X69.007Y75.25
G1 X68.88Y75.378
G1 X68.743Y75.469
G1 X68.593Y75.523
G1 X68.432Y75.541
G1 X68.271Y75.522
G1 X68.12Y75.464
G1 X67.978Y75.367
G1 X67.846Y75.232
G1 X67.734Y75.059
G1 X67.654Y74.852
M3
G1 F100 S1000
G4 P0.2
G1 S0
G0
M3
G0 X67.594Y75.481
M3
G1 F100 S1000
G4 P0.25
G1 S0
G0
M3
G1 X67.771Y75.685S1000F2000
G1 X67.971Y75.831
G1 X68.204Y75.918
G1 X68.481Y75.948
G1 X68.671Y75.935
G1 X68.85Y75.897
G1 X69.017Y75.834
G1 X69.172Y75.746
G1 X69.313Y75.635
G1 X69.435Y75.503
G1 X69.539Y75.35
G1 X69.625Y75.177
G1 X69.691Y74.989
G1 X69.739Y74.792
G1 X69.768Y74.586
G1 Y74.372
G1 Y74.143
G1 X69.735Y73.926
G1 X69.682Y73.72
G1 X69.609Y73.526
G1 X69.515Y73.349
G1 X69.402Y73.194
G1 X69.27Y73.061
G1 X69.119Y72.95
G1 X68.956Y72.862
G1 X68.789Y72.8
G1 X68.619Y72.762
G1 X68.443Y72.75
G1 X68.197Y72.777
G1 X67.978Y72.859
G1 X67.791Y72.983
G1 X67.64Y73.136
G1 Y71.646
G1 X67.121
G1 Y75.878
G1 X67.594
G1 Y75.481
M3
G1 F100 S1000
G4 P0.2
G1 S0
G0
M3
G0 X70.835Y74.885
M3
G1 F100 S1000
G4 P0.25
G1 S0
G0
M3
G1 X70.791Y74.641S1000F2000
G1 X70.777Y74.357
G1 X70.792Y74.081
G1 X70.839Y73.841
G1 X70.916Y73.638
G1 X71.024Y73.472
G1 X71.154Y73.342
G1 X71.297Y73.25
G1 X71.451Y73.195
G1 X71.618Y73.176
G1 X71.778Y73.194
G1 X71.926Y73.246
G1 X72.063Y73.334
G1 X72.188Y73.457
G1 X72.293Y73.616
G1 X72.368Y73.811
G1 X72.412Y74.043
G1 X72.427Y74.311
G1 X72.412Y74.598
G1 X72.364Y74.846
G1 X72.286Y75.057
G1 X72.175Y75.23
G1 X72.044Y75.365
G1 X71.901Y75.461
G1 X71.748Y75.519
G1 X71.583Y75.539
G1 X71.421Y75.521
G1 X71.272Y75.467
G1 X71.135Y75.377
G1 X71.011Y75.252
G1 X70.909Y75.088
G1 X70.835Y74.885
M3
G1 F100 S1000
G4 P0.2
G1 S0
G0
M3
G0 X70.334Y75.015
M3
G1 F100 S1000
G4 P0.25
G1 S0
G0
M3
G1 X70.404Y75.204S1000F2000
G1 X70.492Y75.376
G1 X70.599Y75.526
G1 X70.724Y75.654
G1 X70.867Y75.759
G1 X71.023Y75.841
G1 X71.186Y75.9
G1 X71.356Y75.936
G1 X71.534Y75.948
G1 X71.803Y75.918
G1 X72.041Y75.828
G1 X72.249Y75.679
G1 X72.427Y75.469
G1 Y75.878
G1 X72.894
G1 Y71.646
G1 X72.375
G1 Y73.145
G1 X72.23Y72.989
G1 X72.037Y72.862
G1 X71.813Y72.778
G1 X71.575Y72.75
G1 X71.312Y72.777
G1 X71.068Y72.859
G1 X70.843Y72.995
G1 X70.637Y73.185
G1 X70.465Y73.423
G1 X70.342Y73.701
G1 X70.268Y74.019
G1 X70.244Y74.378
G1 Y74.602
G1 X70.284Y74.815
G1 X70.334Y75.015
M3
G1 F100 S1000
G4 P0.2
G1 S0
G0
M3
G0 X73.664Y75.878
M3
G1 F100 S1000
G4 P0.25
G1 S0
G0
M3
G1 X74.131S1000F2000
G1 Y75.415
G1 X74.219Y75.564
G1 X74.303Y75.685
G1 X74.384Y75.778
G1 X74.461Y75.844
G1 X74.62Y75.922
G1 X74.794Y75.948
G1 X74.925Y75.937
G1 X75.058Y75.906
G1 X75.192Y75.854
G1 X75.327Y75.781
G1 X75.148Y75.299
G1 X74.958Y75.384
G1 X74.768Y75.412
G1 X74.606Y75.386
G1 X74.462Y75.31
G1 X74.346Y75.187
G1 X74.269Y75.026
G1 X74.205Y74.736
G1 X74.183Y74.421
G1 Y72.819
G1 X73.664
G1 Y75.878
M3
G1 F100 S1000
G4 P0.2
G1 S0
G0
M3
G0 X75.59Y75.445
M3
G1 F100 S1000
G4 P0.25
G1 S0
G0
M3
G1 X75.7Y75.604S1000F2000
G1 X75.845Y75.734
G1 X75.988Y75.817
G1 X76.175Y75.886
G1 X76.391Y75.932
G1 X76.623Y75.948
G1 X76.961Y75.922
G1 X77.255Y75.844
G1 X77.492Y75.722
G1 X77.657Y75.563
G1 X77.766Y75.356
G1 X77.835Y75.089
G1 X77.328Y75.02
G1 X77.303Y75.132
G1 X77.261Y75.23
G1 X77.203Y75.316
G1 X77.128Y75.389
G1 X77.037Y75.447
G1 X76.928Y75.488
G1 X76.803Y75.513
G1 X76.66
G1 X76.494
G1 X76.354Y75.492
G1 X76.239Y75.455
G1 X76.15Y75.403
G1 X76.083Y75.342
G1 X76.036Y75.275
G1 X76.007Y75.203
G1 Y75.127
G1 Y75.031
G1 X76.061Y74.945
G1 X76.142Y74.869
G1 X76.26Y74.807
G1 X76.317Y74.788
G1 X76.413Y74.759
G1 X76.972Y74.604
G1 X77.185Y74.541
G1 X77.356Y74.484
G1 X77.485Y74.434
G1 X77.68Y74.319
G1 X77.827Y74.161
G1 X77.92Y73.961
G1 X77.951Y73.718
G1 Y73.59
G1 X77.913Y73.466
G1 X77.866Y73.346
G1 X77.799Y73.23
G1 X77.715Y73.121
G1 X77.615Y73.026
G1 X77.497Y72.944
G1 X77.363Y72.875
G1 X77.059Y72.781
G1 X76.718Y72.75
G1 X76.437Y72.765
G1 X76.192Y72.812
G1 X75.983Y72.889
G1 X75.809Y72.998
G1 X75.667Y73.136
G1 X75.553Y73.305
G1 X75.467Y73.504
G1 X75.41Y73.732
G1 X75.923Y73.813
G1 X75.954Y73.668
G1 X76.004Y73.541
G1 X76.074Y73.432
G1 X76.163Y73.34
G1 X76.272Y73.269
G1 X76.4Y73.217
G1 X76.547Y73.186
G1 X76.715
G1 X76.882
G1 X77.026Y73.213
G1 X77.147Y73.258
G1 X77.245Y73.322
G1 X77.32Y73.398
G1 X77.374Y73.48
G1 X77.407Y73.568
G1 X77.418Y73.663
G1 Y73.746
G1 X77.38Y73.82
G1 X77.332Y73.885
G1 X77.265Y73.94
G1 X77.192Y73.977
G1 X77.079Y74.018
G1 X76.927Y74.064
G1 X76.472Y74.185
G1 X76.252Y74.25
G1 X76.076Y74.31
G1 X75.944Y74.365
G1 X75.75Y74.49
G1 X75.61Y74.656
G1 X75.525Y74.851
G1 X75.496Y75.066
G1 X75.52Y75.263
G1 X75.59Y75.445
M3
G1 F100 S1000
G4 P0.2
G1 S0
G0
M3
G0 X78.282Y75.475
M3
G1 F100 S1000
G4 P0.25
G1 S0
G0
M3
G1 Y75.878S1000F2000
G1 X78.662
G1 Y76.636
G1 X79.178Y76.947
G1 Y75.878
G1 X79.699
G1 Y75.475
G1 X79.178
G1 Y73.686
G1 Y73.504
G1 X79.205Y73.401
G1 X79.241Y73.344
G1 X79.295Y73.3
G1 X79.37Y73.272
G1 X79.472
G1 X79.572
G1 X79.699Y73.283
G1 X79.774Y72.825
G1 X79.567Y72.79
G1 X79.382Y72.779
G1 X79.132Y72.801
G1 X78.945Y72.868
G1 X78.812Y72.971
G1 X78.726Y73.103
G1 X78.698Y73.196
G1 X78.678Y73.329
G1 X78.666Y73.502
G1 Y73.715
G1 Y75.475
G1 X78.282
M3
G1 F100 S1000
G4 P0.2
G1 S0
G0
M3
G0 X80.208Y75.878
M3
G1 F100 S1000
G4 P0.25
G1 S0
G0
M3
G1 X80.726S1000F2000
G1 Y74.182
G1 Y73.995
G1 Y73.842
G1 X80.744Y73.721
G1 X80.758Y73.634
G1 X80.834Y73.452
G1 X80.965Y73.313
G1 X81.143Y73.226
G1 X81.357Y73.196
G1 X81.583Y73.226
G1 X81.795Y73.316
G1 X81.97Y73.457
G1 X82.085Y73.641
G1 X82.122Y73.756
G1 X82.148Y73.894
G1 X82.164Y74.055
G1 Y74.239
G1 Y75.878
G1 X82.688
G1 Y72.819
G1 X82.224
G1 Y73.268
G1 X82.03Y73.042
G1 X81.803Y72.879
G1 X81.544Y72.782
G1 X81.253Y72.75
G1 X80.992Y72.776
G1 X80.748Y72.854
G1 X80.543Y72.971
G1 X80.399Y73.114
G1 X80.302Y73.289
G1 X80.239Y73.499
G1 X80.216Y73.696
G1 Y73.983
G1 Y75.878
M3
G1 F100 S1000
G4 P0.2
G1 S0
G0
M3
G0 X83.209Y75.878
M3
G1 F100 S1000
G4 P0.25
G1 S0
G0
M3
G1 X83.757S1000F2000
G1 X84.413Y74.046
G1 X84.516Y73.744
G1 X84.609Y73.43
G1 X84.692Y73.696
G1 X84.802Y74.012
G1 X85.482Y75.878
G1 X86.015
G1 X84.857Y72.819
G1 X84.373
G1 X83.209Y75.878
M3
G1 F100 S1000
G4 P0.2
G1 S0
G0
M3
G0 X86.043Y75.878
M3
G1 F100 S1000
G4 P0.25
G1 S0
G0
M3
G1 X86.578S1000F2000
G1 X87.247Y73.456
G1 X87.405Y74.087
G1 X87.892Y75.878
G1 X88.425
G1 X88.883Y74.104
G1 X89.036Y73.519
G1 X89.736Y75.878
G1 X90.24
G1 X89.284Y72.819
G1 X88.745
G1 X88.258Y74.651
G1 X88.14Y75.173
G1 X87.521Y72.819
G1 X86.979
G1 X86.043Y75.878
M3
G1 F100 S1000
G4 P0.2
G1 S0
G0
M3
G0 X90.341Y75.878
M3
G1 F100 S1000
G4 P0.25
G1 S0
G0
M3
G1 X90.989S1000F2000
G1 X91.459Y75.161
G1 X91.578Y74.973
G1 X91.672Y74.818
G1 X91.794Y74.998
G1 X92.421Y75.878
G1 X93.041
G1 X91.983Y74.438
G1 X93.121Y72.819
G1 X92.485
G1 X91.856Y73.77
G1 X91.689Y74.026
G1 X90.886Y72.819
G1 X90.258
G1 X91.375Y74.409
G1 X90.341Y75.878
M3
G1 F100 S1000
G4 P0.2
G1 S0
G0
M3
G0 X93.2Y75.878
M3
G1 F100 S1000
G4 P0.25
G1 S0
G0
M3
G1 X93.759S1000F2000
G1 X94.396Y74.107
G1 X94.513Y73.761
G1 X94.618Y73.398
G1 X94.716Y73.751
G1 X94.831Y74.095
G1 X95.485Y75.878
G1 X96.004
G1 X94.84Y72.767
G1 X94.751Y72.535
G1 X94.673Y72.341
G1 X94.606Y72.188
G1 X94.549Y72.073
G1 X94.4Y71.851
G1 X94.232Y71.697
G1 X94.036Y71.607
G1 X93.805Y71.577
G1 X93.647Y71.593
G1 X93.471Y71.641
G1 X93.414Y72.128
G1 X93.573Y72.093
G1 X93.71Y72.081
G1 X93.866Y72.096
G1 X93.987Y72.139
G1 X94.081Y72.208
G1 X94.157Y72.3
G1 X94.185Y72.354
G1 X94.221Y72.436
G1 X94.264Y72.547
G1 X94.361Y72.813
G1 X93.2Y75.878
M3
G1 F100 S1000
G4 P0.2
G1 S0
G0
M3
G0 X96.227Y75.878
M3
G1 F100 S1000
G4 P0.25
G1 S0
G0
M3
G1 X98.728S1000F2000
G1 Y75.536
G1 X97.071Y73.594
G1 X96.751Y73.24
G1 X97.089Y73.259
G1 X97.405
G1 X98.82
G1 Y72.819
G1 X96.112
G1 Y73.24
G1 X98.059Y75.475
G1 X97.747Y75.462
G1 X97.474
G1 X96.227
G1 Y75.878
M3
G1 F100 S1000
G4 P0.2
G1 S0
G0
M3
G0 X99.53Y75.999
M3
G1 F100 S1000
G4 P0.25
G1 S0
G0
M3
G1 X99.938Y76.226S1000F2000
G1 X100.29Y76.495
G1 X100.568Y76.782
G1 X100.751Y77.06
G1 X101.086
G1 Y72.819
G1 X100.567
G1 Y76.123
G1 X100.351Y75.945
G1 X100.076Y75.766
G1 X99.787Y75.61
G1 X99.53Y75.498
G1 Y75.999
M3
G1 F100 S1000
G4 P0.2
G1 S0
G0
M3
G0 X102.468Y75.838
M3
G1 F100 S1000
G4 P0.25
G1 S0
G0
M3
G1 X102.514Y76.119S1000F2000
G1 X102.598Y76.364
G1 X102.72Y76.573
G1 X102.88Y76.747
G1 X103.074Y76.884
G1 X103.298Y76.982
G1 X103.554Y77.04
G1 X103.839Y77.06
G1 X104.127Y77.039
G1 X104.384Y76.975
G1 X104.609Y76.87
G1 X104.802Y76.723
G1 X104.957Y76.544
G1 X105.067Y76.345
G1 X105.134Y76.126
G1 X105.156Y75.887
G1 X105.13Y75.636
G1 X105.052Y75.389
G1 X104.914Y75.137
G1 X104.708Y74.873
G1 X104.568Y74.725
G1 X104.388Y74.552
G1 X104.168Y74.353
G1 X103.909Y74.13
G1 X103.696Y73.95
G1 X103.525Y73.801
G1 X103.396Y73.684
G1 X103.309Y73.598
G1 X103.188Y73.458
G1 X103.09Y73.317
G1 X105.162
G1 Y72.819
G1 X102.37
G1 X102.382Y73.003
G1 X102.431Y73.179
G1 X102.569Y73.462
G1 X102.772Y73.741
G1 X102.902Y73.885
G1 X103.059Y74.039
G1 X103.242Y74.204
G1 X103.767Y74.648
G1 X104.027Y74.886
G1 X104.232Y75.095
G1 X104.381Y75.275
G1 X104.487Y75.438
G1 X104.562Y75.596
G1 X104.608Y75.749
G1 X104.623Y75.899
G1 X104.609Y76.047
G1 X104.568Y76.183
G1 X104.499Y76.307
G1 X104.403Y76.419
G1 X104.284Y76.511
G1 X104.149Y76.577
G1 X103.997Y76.617
G1 X103.828Y76.63
G1 X103.65Y76.616
G1 X103.491Y76.574
G1 X103.35Y76.504
G1 X103.229Y76.406
G1 X103.13Y76.283
G1 X103.059Y76.138
G1 X103.016Y75.971
G1 X103.001Y75.783
G1 X102.468Y75.838
M3
G1 F100 S1000
G4 P0.2
G1 S0
G0
M3
G0 X101.99Y71.021
M3
G1 F100 S1000
G4 P0.25
G1 S0
G0
M3
G1 X102.284Y71S1000F2000
G1 X102.547Y70.937
G1 X102.778Y70.832
G1 X102.978Y70.684
G1 X103.14Y70.507
G1 X103.255Y70.312
G1 X103.324Y70.099
G1 X103.347Y69.869
G1 X103.315Y69.603
G1 X103.217Y69.359
G1 X103.137Y69.236
G1 X103.026Y69.101
G1 X102.884Y68.952
G1 X102.71Y68.792
G1 X102.595Y68.687
G1 X102.501Y68.596
G1 X102.429Y68.521
G1 X102.379Y68.46
G1 X102.311Y68.346
G1 X102.264Y68.215
G1 X102.234Y68.034
G1 X102.221Y67.766
G1 X101.722
G1 Y67.922
G1 X101.741Y68.206
G1 X101.806Y68.449
G1 X101.889Y68.617
G1 X102.01Y68.786
G1 X102.073Y68.855
G1 X102.155Y68.938
G1 X102.259Y69.036
G1 X102.506Y69.26
G1 X102.606Y69.361
G1 X102.681Y69.45
G1 X102.733Y69.526
G1 X102.794Y69.674
G1 X102.814Y69.834
G1 X102.799Y69.981
G1 X102.755Y70.119
G1 X102.681Y70.247
G1 X102.578Y70.366
G1 X102.453Y70.466
G1 X102.315Y70.538
G1 X102.164Y70.581
G1 X101.999Y70.595
G1 X101.84Y70.582
G1 X101.695Y70.543
G1 X101.563Y70.478
G1 X101.446Y70.388
G1 X101.344Y70.269
G1 X101.262Y70.122
G1 X101.199Y69.945
G1 X101.155Y69.739
G1 X100.622Y69.803
G1 X100.676Y70.081
G1 X100.765Y70.324
G1 X100.889Y70.533
G1 X101.05Y70.707
G1 X101.242Y70.845
G1 X101.463Y70.943
G1 X101.712Y71.002
G1 X101.99Y71.021
M3
G1 F100 S1000
G4 P0.2
G1 S0
G0
M3
G0 X103.989Y70.238
M3
G1 F100 S1000
G4 P0.25
G1 S0
G0
M3
G1 X106.787Y69.057S1000F2000
G1 Y68.573
G1 X103.989Y67.377
G1 Y67.893
G1 X106.205Y68.812
G1 X103.989Y69.722
G1 Y70.238
M3
G1 F100 S1000
G4 P0.2
G1 S0
G0
M3
G0 X99.834Y69.785
M3
G1 F100 S1000
G4 P0.25
G1 S0
G0
M3
G1 Y69.195S1000F2000
G1 X99.243
G1 Y69.785
G1 X99.834
M3
G1 F100 S1000
G4 P0.2
G1 S0
G0
M3
G0 X99.834Y67.317
M3
G1 F100 S1000
G4 P0.25
G1 S0
G0
M3
G1 Y66.726S1000F2000
G1 X99.243
G1 Y67.317
G1 X99.834
M3
G1 F100 S1000
G4 P0.2
G1 S0
G0
M3
G0 X101.691Y67.317
M3
G1 F100 S1000
G4 P0.25
G1 S0
G0
M3
G1 X102.281S1000F2000
G1 Y66.726
G1 X101.691
G1 Y67.317
M3
G1 F100 S1000
G4 P0.2
G1 S0
G0
M3
G0 X96.207Y68.009
M3
G1 F100 S1000
G4 P0.25
G1 S0
G0
M3
G1 X96.285Y68.302S1000F2000
G1 X96.311Y68.596
G1 X96.299Y68.781
G1 X96.262Y68.944
G1 X96.201Y69.085
G1 X96.116Y69.204
G1 X96.014Y69.298
G1 X95.901Y69.366
G1 X95.777Y69.406
G1 X95.642Y69.42
G1 X95.463Y69.396
G1 X95.295Y69.326
G1 X95.135Y69.204
G1 X94.98Y69.025
G1 X94.842Y68.795
G1 X94.735Y68.521
G1 X94.666Y68.236
G1 X94.643Y67.976
G1 X94.654Y67.79
G1 X94.69Y67.626
G1 X94.748Y67.483
G1 X94.83Y67.363
G1 X94.927Y67.267
G1 X95.031Y67.198
G1 X95.142Y67.157
G1 X95.259Y67.144
G1 X95.425Y67.168
G1 X95.599Y67.24
G1 X95.774Y67.36
G1 X95.941Y67.527
G1 X96.089Y67.743
G1 X96.207Y68.009
M3
G1 F100 S1000
G4 P0.2
G1 S0
G0
M3
G0 X96.674Y67.832
M3
G1 F100 S1000
G4 P0.25
G1 S0
G0
M3
G1 X96.609Y67.519S1000F2000
G1 X96.593Y67.43
G1 Y67.386
G1 Y67.313
G1 X96.646Y67.252
G1 X96.712Y67.21
G1 X96.789Y67.196
G1 X96.965Y67.24
G1 X97.189Y67.371
G1 X97.345Y67.496
G1 X97.484Y67.641
G1 X97.605Y67.805
G1 X97.709Y67.989
G1 X97.793Y68.185
G1 X97.853Y68.383
G1 X97.889Y68.584
G1 X97.901Y68.789
G1 X97.886Y69.025
G1 X97.839Y69.254
G1 X97.763Y69.475
G1 X97.655Y69.688
G1 X97.516Y69.886
G1 X97.348Y70.064
G1 X97.149Y70.22
G1 X96.92Y70.356
G1 X96.67Y70.466
G1 X96.406Y70.544
G1 X96.13Y70.591
G1 X95.841Y70.607
G1 X95.511Y70.587
G1 X95.196Y70.528
G1 X94.896Y70.429
G1 X94.61Y70.291
G1 X94.347Y70.116
G1 X94.115Y69.907
G1 X93.914Y69.664
G1 X93.745Y69.386
G1 X93.611Y69.087
G1 X93.515Y68.776
G1 X93.458Y68.455
G1 X93.439Y68.123
G1 X93.458Y67.783
G1 X93.515Y67.466
G1 X93.611Y67.175
G1 X93.745Y66.907
G1 X93.916Y66.669
G1 X94.121Y66.464
G1 X94.36Y66.293
G1 X94.633Y66.154
G1 X94.931Y66.048
G1 X95.245Y65.972
G1 X95.574Y65.926
G1 X95.919Y65.911
G1 X96.281Y65.927
G1 X96.613Y65.974
G1 X96.913Y66.053
G1 X97.184Y66.164
G1 X97.423Y66.298
G1 X97.63Y66.445
G1 X97.804Y66.606
G1 X97.947Y66.781
G1 X98.469
G1 X98.382Y66.629
G1 X98.269Y66.475
G1 X98.13Y66.321
G1 X97.964Y66.164
G1 X97.777Y66.015
G1 X97.573Y65.883
G1 X97.352Y65.767
G1 X97.115Y65.667
G1 X96.856Y65.587
G1 X96.572Y65.53
G1 X96.262Y65.496
G1 X95.928Y65.484
G1 X95.614Y65.495
G1 X95.313Y65.525
G1 X95.024Y65.577
G1 X94.748Y65.649
G1 X94.488Y65.741
G1 X94.248Y65.854
G1 X94.028Y65.988
G1 X93.827Y66.143
G1 X93.649Y66.314
G1 X93.494Y66.497
G1 X93.362Y66.693
G1 X93.254Y66.902
G1 X93.148Y67.179
G1 X93.073Y67.468
G1 X93.027Y67.767
G1 X93.012Y68.077
G1 X93.03Y68.424
G1 X93.084Y68.764
G1 X93.174Y69.094
G1 X93.3Y69.417
G1 X93.494Y69.784
G1 X93.726Y70.106
G1 X93.994Y70.382
G1 X94.299Y70.612
G1 X94.639Y70.794
G1 X95.014Y70.923
G1 X95.423Y71.001
G1 X95.867Y71.027
G1 X96.215Y71.009
G1 X96.545Y70.954
G1 X96.857Y70.863
G1 X97.151Y70.735
G1 X97.42Y70.571
G1 X97.659Y70.371
G1 X97.869Y70.135
G1 X98.048Y69.863
G1 X98.17Y69.609
G1 X98.258Y69.343
G1 X98.31Y69.067
G1 X98.327Y68.78
G1 X98.291Y68.374
G1 X98.18Y67.991
G1 X97.997Y67.632
G1 X97.74Y67.296
G1 X97.471Y67.042
G1 X97.191Y66.86
G1 X96.898Y66.751
G1 X96.593Y66.714
G1 X96.413Y66.73
G1 X96.272Y66.775
G1 X96.166Y66.848
G1 X96.092Y66.948
G1 X96.059Y67.046
G1 X96.037Y67.196
G1 X95.839Y67.001
G1 X95.618Y66.848
G1 X95.386Y66.75
G1 X95.153Y66.717
G1 X94.9Y66.755
G1 X94.654Y66.867
G1 X94.539Y66.952
G1 X94.435Y67.057
G1 X94.342Y67.183
G1 X94.261Y67.328
G1 X94.195Y67.487
G1 X94.148Y67.654
G1 X94.119Y67.829
G1 Y68.011
G1 Y68.24
G1 X94.169Y68.469
G1 X94.242Y68.699
G1 X94.345Y68.928
G1 X94.469Y69.144
G1 X94.608Y69.331
G1 X94.761Y69.489
G1 X94.928Y69.618
G1 X95.101Y69.719
G1 X95.272Y69.791
G1 X95.44Y69.834
G1 X95.605Y69.849
G1 X95.85Y69.816
G1 X96.083Y69.718
G1 X96.295Y69.553
G1 X96.475Y69.319
G1 X96.573Y69.765
G1 X97.089
G1 X96.674Y67.832
M3
G1 F100 S1000
G4 P0.2
G1 S0
G0
M3
G0 X92.468Y68.665
M3
G1 F100 S1000
G4 P0.25
G1 S0
G0
M3
G1 X92.283Y68.516S1000F2000
G1 X92.095Y68.414
G1 X91.895Y68.356
G1 X91.67Y68.336
G1 X91.501Y68.346
G1 X91.34Y68.377
G1 X91.25Y68.404
G1 X91.137Y68.445
G1 X91.001Y68.5
G1 X90.842Y68.57
G1 X90.529Y68.684
G1 X90.273Y68.722
G1 X90.094Y68.703
G1 X89.926Y68.643
G1 X89.743Y68.525
G1 X89.521Y68.331
G1 Y68.921
G1 X89.686Y69.072
G1 X89.874Y69.181
G1 X90.086Y69.245
G1 X90.322Y69.267
G1 X90.499Y69.254
G1 X90.685Y69.217
G1 X90.915Y69.141
G1 X91.4Y68.947
G1 X91.525Y68.907
G1 X91.624Y68.887
G1 X91.725
G1 X91.915Y68.909
G1 X92.112Y68.993
G1 X92.301Y69.12
G1 X92.468Y69.276
G1 Y68.665
M3
G1 F100 S1000
G4 P0.2
G1 S0
G0
M3
G0 X88.539Y69.025
M3
G1 F100 S1000
G4 P0.25
G1 S0
G0
M3
G1 X88.469Y68.752S1000F2000
G1 X88.362Y68.55
G1 X88.201Y68.392
G1 X87.969Y68.253
G1 X88.116Y68.178
G1 X88.242Y68.085
G1 X88.346Y67.975
G1 X88.428Y67.848
G1 X88.491Y67.69
G1 X88.535Y67.489
G1 X88.562Y67.244
G1 Y66.956
G1 X88.574Y66.508
G1 Y66.37
G1 Y66.288
G1 X88.623Y66.122
G1 X88.699Y66.014
G1 X88.838Y65.956
G1 X89.066Y65.937
G1 X89.156
G1 Y65.484
G1 X88.994
G1 X88.751Y65.496
G1 X88.585Y65.53
G1 X88.417Y65.617
G1 X88.28Y65.745
G1 X88.18Y65.913
G1 X88.123Y66.121
G1 X88.107Y66.253
G1 X88.095Y66.421
G1 Y66.626
G1 X88.08Y67.106
G1 Y67.306
G1 X88.055Y67.465
G1 X88.035Y67.585
G1 X87.965Y67.762
G1 X87.849Y67.899
G1 X87.689Y67.986
G1 X87.488Y68.02
G1 Y68.489
G1 X87.689Y68.522
G1 X87.849Y68.609
G1 X87.965Y68.744
G1 X88.035Y68.921
G1 X88.055Y69.038
G1 X88.07Y69.191
G1 Y69.378
G1 X88.086Y69.821
G1 Y70
G1 Y70.138
G1 X88.101Y70.235
G1 X88.138Y70.453
G1 X88.198Y70.624
G1 X88.277Y70.756
G1 X88.372Y70.859
G1 X88.49Y70.936
G1 X88.637Y70.993
G1 X88.781Y71.014
G1 X88.994
G1 X89.156
G1 Y70.569
G1 X89.066
G1 X88.929
G1 X88.817Y70.542
G1 X88.73Y70.508
G1 X88.669Y70.461
G1 X88.626Y70.39
G1 X88.595Y70.286
G1 X88.577Y70.149
G1 Y69.979
G1 Y69.636
G1 X88.563Y69.363
G1 X88.553Y69.159
G1 X88.539Y69.025
M3
G1 F100 S1000
G4 P0.2
G1 S0
G0
M3
G0 X87.18Y68.489
M3
G1 F100 S1000
G4 P0.25
G1 S0
G0
M3
G1 Y68.02S1000F2000
G1 X86.978Y67.986
G1 X86.818Y67.899
G1 X86.702Y67.763
G1 X86.632Y67.586
G1 X86.612Y67.47
G1 X86.597Y67.318
G1 Y67.13
G1 X86.581Y66.687
G1 Y66.508
G1 Y66.371
G1 X86.566Y66.274
G1 X86.529Y66.054
G1 X86.47Y65.883
G1 X86.391Y65.752
G1 X86.295Y65.65
G1 X86.177Y65.573
G1 X86.03Y65.516
G1 X85.886Y65.492
G1 X85.673
G1 X85.512
G1 Y65.937
G1 X85.601
G1 X85.738
G1 X85.85Y65.964
G1 X85.937Y65.997
G1 X85.999Y66.045
G1 X86.041Y66.116
G1 X86.072Y66.22
G1 X86.09Y66.358
G1 Y66.53
G1 Y66.857
G1 X86.103Y67.119
G1 Y67.314
G1 X86.122Y67.443
G1 X86.192Y67.731
G1 X86.307Y67.955
G1 X86.474Y68.125
G1 X86.699Y68.253
G1 X86.545Y68.338
G1 X86.416Y68.437
G1 X86.312Y68.548
G1 X86.232Y68.672
G1 X86.173Y68.825
G1 X86.13Y69.022
G1 X86.105Y69.265
G1 Y69.552
G1 Y69.805
G1 X86.093Y70.001
G1 Y70.14
G1 X86.082Y70.223
G1 X86.044Y70.387
G1 X85.968Y70.493
G1 X85.83Y70.55
G1 X85.601Y70.569
G1 X85.512
G1 Y71.021
G1 X85.673
G1 X85.917Y71.01
G1 X86.082Y70.975
G1 X86.251Y70.89
G1 X86.388Y70.762
G1 X86.487Y70.593
G1 X86.545Y70.385
G1 X86.56Y70.253
G1 X86.572Y70.084
G1 Y69.88
G1 X86.588Y69.399
G1 Y69.2
G1 X86.612Y69.041
G1 X86.632Y68.923
G1 X86.702Y68.746
G1 X86.818Y68.61
G1 X86.978Y68.522
G1 X87.18Y68.489
M3
G1 F100 S1000
G4 P0.2
G1 S0
G0
M3
G0 X85.071Y68.567
M3
G1 F100 S1000
G4 P0.25
G1 S0
G0
M3
G1 X83.922S1000F2000
G1 Y67.409
G1 X83.432
G1 Y68.567
G1 X82.283
G1 Y69.051
G1 X83.432
G1 Y70.2
G1 X83.922
G1 Y69.051
G1 X85.071
G1 Y68.567
M3
G1 F100 S1000
G4 P0.2
G1 S0
G0
M3
G0 X81.998Y65.928
M3
G1 F100 S1000
G4 P0.25
G1 S0
G0
M3
G1 Y65.553S1000F2000
G1 X78.561
G1 Y65.928
G1 X81.998
M3
G1 F100 S1000
G4 P0.2
G1 S0
G0
M3
G0 X78.157Y66.752
M3
G1 F100 S1000
G4 P0.25
G1 S0
G0
M3
G1 X78Y66.4S1000F2000
G1 X77.826Y66.072
G1 X77.637Y65.767
G1 X77.432Y65.484
G1 X77.06
G1 X77.262Y65.83
G1 X77.437Y66.176
G1 X77.585Y66.522
G1 X77.707Y66.868
G1 X77.801Y67.214
G1 X77.868Y67.56
G1 X77.908Y67.906
G1 X77.922Y68.253
G1 X77.891Y68.792
G1 X77.798Y69.327
G1 X77.681Y69.751
G1 X77.524Y70.157
G1 X77.453Y70.308
G1 X77.352Y70.503
G1 X77.221Y70.741
G1 X77.06Y71.021
G1 X77.432
G1 X77.685Y70.659
G1 X77.903Y70.297
G1 X78.086Y69.934
G1 X78.233Y69.569
G1 X78.33Y69.252
G1 X78.399Y68.927
G1 X78.441Y68.595
G1 X78.455Y68.256
G1 X78.436Y67.87
G1 X78.38Y67.491
G1 X78.287Y67.118
G1 X78.157Y66.752
M3
G1 F100 S1000
G4 P0.2
G1 S0
G0
M3
G0 X75.983Y66.522
M3
G1 F100 S1000
G4 P0.25
G1 S0
G0
M3
G1 X76.131Y66.176S1000F2000
G1 X76.306Y65.83
G1 X76.508Y65.484
G1 X76.136
G1 X75.93Y65.767
G1 X75.74Y66.072
G1 X75.567Y66.4
G1 X75.41Y66.752
G1 X75.28Y67.118
G1 X75.188Y67.491
G1 X75.132Y67.87
G1 X75.113Y68.256
G1 X75.127Y68.595
G1 X75.169Y68.927
G1 X75.238Y69.252
G1 X75.335Y69.569
G1 X75.483Y69.934
G1 X75.665Y70.297
G1 X75.883Y70.659
G1 X76.136Y71.021
G1 X76.508
G1 X76.348Y70.743
G1 X76.218Y70.508
G1 X76.118Y70.315
G1 X76.047Y70.166
G1 X75.89Y69.76
G1 X75.77Y69.336
G1 X75.677Y68.796
G1 X75.646Y68.253
G1 X75.66Y67.906
G1 X75.7Y67.56
G1 X75.768Y67.214
G1 X75.862Y66.868
G1 X75.983Y66.522
M3
G1 F100 S1000
G4 P0.2
G1 S0
G0
M3
G0 X73.976Y69.224
M3
G1 F100 S1000
G4 P0.25
G1 S0
G0
M3
G1 X73.794Y69.492S1000F2000
G1 X73.582Y69.843
G1 X73.381Y69.485
G1 X73.207Y69.224
G1 X72.867Y69.469
G1 X73.022Y69.657
G1 X73.154Y69.811
G1 X73.262Y69.929
G1 X73.345Y70.013
G1 X72.983Y70.089
G1 X72.64Y70.174
G1 X72.772Y70.584
G1 X72.985Y70.506
G1 X73.168Y70.433
G1 X73.318Y70.366
G1 X73.438Y70.304
G1 X73.413Y70.544
G1 X73.396Y70.744
G1 X73.385Y70.903
G1 Y71.021
G1 X73.798
G1 X73.777Y70.7
G1 X73.731Y70.307
G1 X74.05Y70.451
G1 X74.411Y70.584
G1 X74.544Y70.174
G1 X74.182Y70.074
G1 X73.827Y70.013
G1 X73.923Y69.922
G1 X74.038Y69.801
G1 X74.171Y69.65
G1 X74.322Y69.469
G1 X73.976Y69.224
M3
G1 F100 S1000
G4 P0.2
G1 S0
G0
M3
G0 X70.762Y69.932
M3
G1 F100 S1000
G4 P0.25
G1 S0
G0
M3
G1 X70.787Y70.105S1000F2000
G1 Y70.208
G1 X70.753Y70.302
G1 X70.71Y70.385
G1 X70.65Y70.458
G1 X70.577Y70.518
G1 X70.496Y70.561
G1 X70.407Y70.586
G1 X70.308
G1 X70.208
G1 X70.116Y70.561
G1 X70.033Y70.519
G1 X69.958Y70.46
G1 X69.897Y70.388
G1 X69.854Y70.309
G1 X69.827Y70.222
G1 Y70.128
G1 Y70.028
G1 X69.869Y69.922
G1 X69.932Y69.811
G1 X70.02Y69.693
G1 X70.251Y69.425
G1 X70.405Y69.522
G1 X70.529Y69.612
G1 X70.623Y69.696
G1 X70.687Y69.774
G1 X70.762Y69.932
M3
G1 F100 S1000
G4 P0.2
G1 S0
G0
M3
G0 X70.029Y68.812
M3
G1 F100 S1000
G4 P0.25
G1 S0
G0
M3
G1 X69.836Y68.689S1000F2000
G1 X69.677Y68.57
G1 X69.552Y68.456
G1 X69.462Y68.346
G1 X69.351Y68.133
G1 X69.315Y67.922
G1 X69.327Y67.792
G1 X69.366Y67.66
G1 X69.43Y67.526
G1 X69.519Y67.389
G1 X69.632Y67.268
G1 X69.766Y67.181
G1 X69.922Y67.129
G1 X70.098Y67.112
G1 X70.336Y67.148
G1 X70.581Y67.258
G1 X70.805Y67.424
G1 X70.98Y67.633
G1 X70.029Y68.812
M3
G1 F100 S1000
G4 P0.2
G1 S0
G0
M3
G0 X69.761Y69.152
M3
G1 F100 S1000
G4 P0.25
G1 S0
G0
M3
G1 X69.63Y69.308S1000F2000
G1 X69.523Y69.449
G1 X69.44Y69.575
G1 X69.381Y69.685
G1 X69.31Y69.886
G1 X69.286Y70.079
G1 X69.304Y70.263
G1 X69.36Y70.435
G1 X69.453Y70.594
G1 X69.584Y70.741
G1 X69.743Y70.863
G1 X69.921Y70.951
G1 X70.118Y71.004
G1 X70.334Y71.021
G1 X70.541Y71.005
G1 X70.727Y70.955
G1 X70.894Y70.872
G1 X71.042Y70.756
G1 X71.162Y70.617
G1 X71.248Y70.465
G1 X71.3Y70.299
G1 X71.317Y70.12
G1 X71.304Y69.972
G1 X71.267Y69.83
G1 X71.205Y69.693
G1 X71.117Y69.562
G1 X71.005Y69.436
G1 X70.868Y69.315
G1 X70.706Y69.201
G1 X70.519Y69.091
G1 X71.276Y68.126
G1 X71.392Y68.4
G1 X71.478Y68.714
G1 X72.017Y68.599
G1 X71.942Y68.334
G1 X71.854Y68.094
G1 X71.754Y67.879
G1 X71.642Y67.688
G1 X71.953Y67.333
G1 X72.302Y67.04
G1 X71.953Y66.628
G1 X71.634Y66.878
G1 X71.305Y67.224
G1 X71.037Y66.975
G1 X70.746Y66.797
G1 X70.432Y66.69
G1 X70.092Y66.654
G1 X69.785Y66.681
G1 X69.511Y66.763
G1 X69.271Y66.9
G1 X69.064Y67.092
G1 X68.929Y67.276
G1 X68.833Y67.47
G1 X68.775Y67.675
G1 X68.756Y67.89
G1 X68.771Y68.081
G1 X68.819Y68.263
G1 X68.897Y68.435
G1 X69.008Y68.597
G1 X69.149Y68.75
G1 X69.322Y68.894
G1 X69.526Y69.027
G1 X69.761Y69.152
M3
G1 F100 S1000
G4 P0.2
G1 S0
G0
M3
G0 X68.578Y68.714
M3
G1 F100 S1000
G4 P0.25
G1 S0
G0
M3
G1 X68.057S1000F2000
G1 X67.345Y70.434
G1 X66.654Y68.714
G1 X66.121
G1 X67.138Y71.021
G1 X67.555
G1 X68.578Y68.714
M3
G1 F100 S1000
G4 P0.2
G1 S0
G0
M3
G0 X65.072Y68.182
M3
G1 F100 S1000
G4 P0.25
G1 S0
G0
M3
G1 X65.015Y68.28S1000F2000
G1 X64.946Y68.353
G1 X64.87Y68.404
G1 X64.785Y68.436
G1 X64.693
G1 X64.599
G1 X64.514Y68.404
G1 X64.437Y68.352
G1 X64.369Y68.279
G1 X64.312Y68.178
G1 X64.272Y68.042
G1 X64.248Y67.871
G1 Y67.665
G1 Y67.478
G1 X64.273Y67.321
G1 X64.313Y67.193
G1 X64.37Y67.095
G1 X64.439Y67.022
G1 X64.515Y66.969
G1 X64.598Y66.938
G1 X64.69Y66.928
G1 X64.785Y66.938
G1 X64.871Y66.969
G1 X64.948Y67.022
G1 X65.017Y67.095
G1 X65.073Y67.196
G1 X65.113Y67.331
G1 X65.137Y67.501
G1 Y67.705
G1 Y67.895
G1 X65.112Y68.054
G1 X65.072Y68.182
M3
G1 F100 S1000
G4 P0.2
G1 S0
G0
M3
G0 X65.532Y68.169
M3
G1 F100 S1000
G4 P0.25
G1 S0
G0
M3
G1 X65.581Y67.944S1000F2000
G1 X65.597Y67.685
G1 X65.581Y67.433
G1 X65.531Y67.211
G1 X65.449Y67.02
G1 X65.334Y66.86
G1 X65.194Y66.733
G1 X65.039Y66.643
G1 X64.868Y66.589
G1 X64.681Y66.57
G1 X64.498Y66.588
G1 X64.33Y66.642
G1 X64.178Y66.732
G1 X64.043Y66.857
G1 X63.931Y67.018
G1 X63.852Y67.215
G1 X63.804Y67.448
G1 X63.788Y67.717
G1 X63.802Y67.936
G1 X63.845Y68.137
G1 X63.916Y68.321
G1 X64.016Y68.488
G1 X64.142Y68.626
G1 X64.295Y68.724
G1 X64.474Y68.783
G1 X64.678Y68.803
G1 X64.868Y68.785
G1 X65.042Y68.732
G1 X65.198Y68.643
G1 X65.336Y68.519
G1 X65.451Y68.361
G1 X65.532Y68.169
M3
G1 F100 S1000
G4 P0.2
G1 S0
G0
M3
G0 X62.283Y69.313
M3
G1 F100 S1000
G4 P0.25
G1 S0
G0
M3
G1 X62.339Y69.414S1000F2000
G1 X62.379Y69.549
G1 X62.403Y69.719
G1 Y69.924
G1 Y70.113
G1 X62.379Y70.272
G1 X62.338Y70.4
G1 X62.281Y70.499
G1 X62.213Y70.571
G1 X62.136Y70.623
G1 X62.051Y70.654
G1 X61.959Y70.664
G1 X61.866Y70.654
G1 X61.782Y70.622
G1 X61.706Y70.57
G1 X61.637Y70.497
G1 X61.581Y70.396
G1 X61.541Y70.26
G1 X61.517Y70.089
G1 Y69.883
G1 Y69.695
G1 X61.542Y69.537
G1 X61.582Y69.409
G1 X61.639Y69.312
G1 X61.707Y69.239
G1 X61.784Y69.187
G1 X61.867Y69.156
G1 X61.959Y69.146
G1 X62.052Y69.156
G1 X62.138Y69.188
G1 X62.214Y69.24
G1 X62.283Y69.313
M3
G1 F100 S1000
G4 P0.2
G1 S0
G0
M3
G0 X62.715Y69.238
M3
G1 F100 S1000
G4 P0.25
G1 S0
G0
M3
G1 X62.6Y69.078S1000F2000
G1 X62.46Y68.952
G1 X62.305Y68.861
G1 X62.135Y68.807
G1 X61.95Y68.789
G1 X61.766Y68.807
G1 X61.599Y68.86
G1 X61.447Y68.949
G1 X61.312Y69.074
G1 X61.2Y69.235
G1 X61.121Y69.432
G1 X61.073Y69.665
G1 X61.057Y69.935
G1 X61.071Y70.153
G1 X61.114Y70.354
G1 X61.185Y70.538
G1 X61.285Y70.705
G1 X61.411Y70.843
G1 X61.563Y70.942
G1 X61.741Y71.002
G1 X61.944Y71.021
G1 X62.134Y71.004
G1 X62.308Y70.95
G1 X62.464Y70.862
G1 X62.603Y70.738
G1 X62.717Y70.579
G1 X62.798Y70.387
G1 X62.847Y70.162
G1 X62.863Y69.904
G1 X62.847Y69.651
G1 X62.797Y69.429
G1 X62.715Y69.238
M3
G1 F100 S1000
G4 P0.2
G1 S0
G0
M3
G0 X64.272Y71.021
M3
G1 F100 S1000
G4 P0.25
G1 S0
G0
M3
G1 X64.693S1000F2000
G1 X62.391Y66.57
G1 X61.962
G1 X64.272Y71.021
M3
G1 F100 S1000
G4 P0.2
G1 S0
G0
M3
G0 X58.879Y70.658
M3
G1 F100 S1000
G4 P0.25
G1 S0
G0
M3
G1 X58.736Y70.626S1000F2000
G1 X58.609Y70.575
G1 X58.498Y70.505
G1 X58.403Y70.416
G1 X58.326Y70.314
G1 X58.272Y70.203
G1 X58.239Y70.082
G1 X58.228Y69.953
G1 Y69.825
G1 X58.265Y69.709
G1 X58.312Y69.604
G1 X58.377Y69.509
G1 X58.464Y69.424
G1 X58.576Y69.348
G1 X58.715Y69.282
G1 X58.879Y69.224
G1 Y70.658
M3
G1 F100 S1000
G4 P0.2
G1 S0
G0
M3
G0 X56.971Y70.39
M3
G1 F100 S1000
G4 P0.25
G1 S0
G0
M3
G1 X57.058Y70.174S1000F2000
G1 X57.114Y69.93
G1 X56.598Y69.852
G1 X56.566Y70.015
G1 X56.512Y70.161
G1 X56.437Y70.288
G1 X56.34Y70.396
G1 X56.228Y70.483
G1 X56.104Y70.545
G1 X55.97Y70.583
G1 X55.826Y70.595
G1 X55.673Y70.582
G1 X55.533Y70.544
G1 X55.407Y70.479
G1 X55.294Y70.389
G1 X55.202Y70.281
G1 X55.136Y70.162
G1 X55.096Y70.032
G1 X55.083Y69.892
G1 Y69.72
G1 X55.124Y69.523
G1 X55.175Y69.302
G1 X55.247Y69.057
G1 X56.154
G1 Y68.63
G1 X55.336
G1 X55.377Y68.504
G1 X55.391Y68.377
G1 X55.361Y68.119
G1 X55.271Y67.847
G1 X55.113Y67.564
G1 X54.878Y67.276
G1 X55.096Y67.324
G1 X55.293Y67.34
G1 X55.547Y67.322
G1 X55.832Y67.268
G1 X56.059Y67.216
G1 X56.247Y67.179
G1 X56.395Y67.157
G1 X56.503
G1 X56.617
G1 X56.748Y67.19
G1 X56.894Y67.24
G1 X57.056Y67.311
G1 X57.223Y66.835
G1 X56.988Y66.743
G1 X56.813Y66.689
G1 X56.668Y66.663
G1 X56.523
G1 X56.401
G1 X56.278Y66.677
G1 X56.226Y66.689
G1 X56.146Y66.711
G1 X55.771Y66.823
G1 X55.58Y66.877
G1 X55.523Y66.89
G1 X55.388Y66.907
G1 X55.253
G1 X55.038Y66.895
G1 X54.81Y66.841
G1 X54.586Y66.756
G1 X54.383Y66.645
G1 X54.184Y67.144
G1 X54.317Y67.228
G1 X54.439Y67.329
G1 X54.552Y67.446
G1 X54.653Y67.58
G1 X54.738Y67.73
G1 X54.798Y67.895
G1 X54.834Y68.076
G1 X54.846Y68.273
G1 X54.834Y68.45
G1 X54.797Y68.63
G1 X54.233
G1 Y69.057
G1 X54.676
G1 X54.599Y69.336
G1 X54.555Y69.528
G1 X54.536Y69.674
G1 Y69.817
G1 X54.557Y70.1
G1 X54.64Y70.351
G1 X54.779Y70.569
G1 X54.973Y70.753
G1 X55.161Y70.871
G1 X55.368Y70.954
G1 X55.593Y71.005
G1 X55.837Y71.021
G1 X56.087Y71.003
G1 X56.313Y70.95
G1 X56.517Y70.86
G1 X56.697Y70.735
G1 X56.85Y70.577
G1 X56.971Y70.39
M3
G1 F100 S1000
G4 P0.2
G1 S0
G0
M3
G0 X53.8Y70.258
M3
G1 F100 S1000
G4 P0.25
G1 S0
G0
M3
G1 X53.662Y69.454S1000F2000
G1 X53.35
G1 X53.209Y70.258
G1 Y70.949
G1 X53.8
G1 Y70.258
M3
G1 F100 S1000
G4 P0.2
G1 S0
G0
M3
G0 X52.843Y70.258
M3
G1 F100 S1000
G4 P0.25
G1 S0
G0
M3
G1 X52.714Y69.454S1000F2000
G1 X52.397
G1 X52.253Y70.258
G1 Y70.949
G1 X52.843
G1 Y70.258
M3
G1 F100 S1000
G4 P0.2
G1 S0
G0
M3
G0 X51.479Y70.013
M3
G1 F100 S1000
G4 P0.25
G1 S0
G0
M3
G1 X51.33Y67.775S1000F2000
G1 X50.995
G1 X50.837Y70.013
G1 Y70.949
G1 X51.479
G1 Y70.013
M3
G1 F100 S1000
G4 P0.2
G1 S0
G0
M3
G0 X49.431Y69.677
M3
G1 F100 S1000
G4 P0.25
G1 S0
G0
M3
G1 X49.355Y69.979S1000F2000
G1 X49.249Y70.195
G1 X49.119Y70.345
G1 X48.975Y70.452
G1 X48.816Y70.516
G1 X48.642Y70.537
G1 X48.473Y70.519
G1 X48.321Y70.462
G1 X48.187Y70.367
G1 X48.072Y70.235
G1 X47.955Y70.001
G1 X47.871Y69.685
G1 X47.821Y69.288
G1 X47.804Y68.809
G1 X47.819Y68.332
G1 X47.865Y67.943
G1 X47.941Y67.64
G1 X48.047Y67.425
G1 X48.176Y67.274
G1 X48.319Y67.166
G1 X48.476Y67.102
G1 X48.648Y67.08
G1 X48.819Y67.102
G1 X48.977Y67.167
G1 X49.12Y67.275
G1 X49.249Y67.426
G1 X49.355Y67.642
G1 X49.431Y67.945
G1 X49.477Y68.334
G1 X49.492Y68.809
G1 X49.477Y69.287
G1 X49.431Y69.677
M3
G1 F100 S1000
G4 P0.2
G1 S0
G0
M3
G0 X49.93Y69.807
M3
G1 F100 S1000
G4 P0.25
G1 S0
G0
M3
G1 X49.971Y69.606S1000F2000
G1 X50.001Y69.372
G1 X50.019Y69.107
G1 Y68.809
G1 Y68.455
G1 X49.987Y68.137
G1 X49.939Y67.855
G1 X49.872Y67.609
G1 X49.786Y67.394
G1 X49.682Y67.204
G1 X49.558Y67.041
G1 X49.416Y66.903
G1 X49.254Y66.794
G1 X49.072Y66.716
G1 X48.87Y66.67
G1 X48.648Y66.654
G1 X48.359Y66.681
G1 X48.103Y66.763
G1 X47.879Y66.9
G1 X47.689Y67.092
G1 X47.506Y67.397
G1 X47.375Y67.785
G1 X47.297Y68.255
G1 X47.271Y68.809
G1 Y69.165
G1 X47.309Y69.485
G1 X47.358Y69.768
G1 X47.425Y70.015
G1 X47.511Y70.23
G1 X47.617Y70.419
G1 X47.74Y70.582
G1 X47.883Y70.719
G1 X48.045Y70.827
G1 X48.226Y70.905
G1 X48.427Y70.951
G1 X48.648Y70.967
G1 X48.813
G1 X48.967Y70.932
G1 X49.111Y70.89
G1 X49.244Y70.83
G1 X49.478Y70.663
G1 X49.668Y70.435
G1 X49.817Y70.149
G1 X49.93Y69.807
M3
G1 F100 S1000
G4 P0.2
G1 S0
G0
M3
G0 X46.153Y69.778
M3
G1 F100 S1000
G4 P0.25
G1 S0
G0
M3
G1 X46.108Y69.967S1000F2000
G1 X46.034Y70.133
G1 X45.93Y70.275
G1 X45.805Y70.39
G1 X45.668Y70.472
G1 X45.519Y70.521
G1 X45.358Y70.537
G1 X45.191Y70.52
G1 X45.035Y70.467
G1 X44.89Y70.379
G1 X44.756Y70.255
G1 X44.644Y70.103
G1 X44.564Y69.931
G1 X44.516Y69.738
G1 X44.5Y69.523
G1 X44.515Y69.331
G1 X44.561Y69.158
G1 X44.637Y69.003
G1 X44.743Y68.868
G1 X44.872Y68.758
G1 X45.015Y68.679
G1 X45.172Y68.632
G1 X45.344Y68.616
G1 X45.516Y68.632
G1 X45.672Y68.679
G1 X45.812Y68.758
G1 X45.936Y68.868
G1 X46.037Y69.006
G1 X46.11Y69.169
G1 X46.153Y69.355
G1 X46.168Y69.567
G1 X46.153Y69.778
M3
G1 F100 S1000
G4 P0.2
G1 S0
G0
M3
G0 X46.644Y69.884
M3
G1 F100 S1000
G4 P0.25
G1 S0
G0
M3
G1 X46.7Y69.61S1000F2000
G1 X46.733Y69.29
G1 X46.744Y68.924
G1 X46.733Y68.54
G1 X46.7Y68.197
G1 X46.645Y67.895
G1 X46.568Y67.635
G1 X46.47Y67.409
G1 X46.35Y67.213
G1 X46.208Y67.044
G1 X46.045Y66.905
G1 X45.864Y66.795
G1 X45.668Y66.717
G1 X45.457Y66.67
G1 X45.232Y66.654
G1 X44.995Y66.671
G1 X44.781Y66.723
G1 X44.59Y66.809
G1 X44.422Y66.929
G1 X44.281Y67.081
G1 X44.171Y67.26
G1 X44.092Y67.467
G1 X44.045Y67.703
G1 X44.543Y67.749
G1 X44.582Y67.585
G1 X44.635Y67.445
G1 X44.703Y67.33
G1 X44.785Y67.239
G1 X44.881Y67.169
G1 X44.989Y67.12
G1 X45.11Y67.09
G1 X45.243
G1 X45.467Y67.108
G1 X45.662Y67.19
G1 X45.826Y67.318
G1 X45.958Y67.482
G1 X46.063Y67.697
G1 X46.151Y67.976
G1 X46.209Y68.29
G1 X46.228Y68.61
G1 Y68.714
G1 X46.041Y68.489
G1 X45.8Y68.312
G1 X45.663Y68.244
G1 X45.52Y68.196
G1 X45.371Y68.167
G1 X45.217
G1 X44.965Y68.182
G1 X44.733Y68.253
G1 X44.521Y68.372
G1 X44.33Y68.538
G1 X44.171Y68.743
G1 X44.058Y68.979
G1 X43.989Y69.245
G1 X43.967Y69.541
G1 X43.99Y69.846
G1 X44.062Y70.12
G1 X44.18Y70.363
G1 X44.346Y70.575
G1 X44.547Y70.746
G1 X44.772Y70.869
G1 X45.022Y70.942
G1 X45.295Y70.967
G1 X45.496Y70.953
G1 X45.689Y70.911
G1 X45.873Y70.842
G1 X46.048Y70.745
G1 X46.209Y70.622
G1 X46.349Y70.476
G1 X46.468Y70.306
G1 X46.567Y70.112
G1 X46.644Y69.884
M3
G1 F100 S1000
G4 P0.2
G1 S0
G0
M3
G0 X42.734Y69.866
M3
G1 F100 S1000
G4 P0.25
G1 S0
G0
M3
G1 X42.722Y70.003S1000F2000
G1 X42.685Y70.129
G1 X42.623Y70.243
G1 X42.537Y70.346
G1 X42.432Y70.431
G1 X42.315Y70.492
G1 X42.186Y70.528
G1 X42.046Y70.54
G1 X41.904Y70.528
G1 X41.774Y70.493
G1 X41.657Y70.433
G1 X41.553Y70.35
G1 X41.467Y70.25
G1 X41.406Y70.141
G1 X41.369Y70.023
G1 X41.357Y69.895
G1 X41.369Y69.752
G1 X41.405Y69.623
G1 X41.466Y69.507
G1 X41.55Y69.405
G1 X41.654Y69.322
G1 X41.772Y69.263
G1 X41.904Y69.227
G1 X42.051Y69.215
G1 X42.194Y69.227
G1 X42.324Y69.262
G1 X42.44Y69.321
G1 X42.543Y69.404
G1 X42.626Y69.503
G1 X42.686Y69.614
G1 X42.722Y69.735
G1 X42.734Y69.866
M3
G1 F100 S1000
G4 P0.2
G1 S0
G0
M3
G0 X42.216Y68.776
M3
G1 F100 S1000
G4 P0.25
G1 S0
G0
M3
G1 X42.037Y68.792S1000F2000
G1 X41.862Y68.776
G1 X41.702Y68.731
G1 X41.559Y68.655
G1 X41.431Y68.55
G1 X41.325Y68.421
G1 X41.25Y68.277
G1 X41.205Y68.119
G1 X41.19Y67.945
G1 X41.216Y67.726
G1 X41.295Y67.515
G1 X41.426Y67.331
G1 X41.608Y67.194
G1 X41.823Y67.109
G1 X42.054Y67.08
G1 X42.232Y67.095
G1 X42.393Y67.14
G1 X42.539Y67.215
G1 X42.668Y67.319
G1 X42.774Y67.447
G1 X42.849Y67.591
G1 X42.895Y67.751
G1 X42.91Y67.927
G1 X42.894Y68.106
G1 X42.848Y68.269
G1 X42.77Y68.416
G1 X42.661Y68.547
G1 X42.528Y68.654
G1 X42.38Y68.73
G1 X42.216Y68.776
M3
G1 F100 S1000
G4 P0.2
G1 S0
G0
M3
G0 X42.645Y69.016
M3
G1 F100 S1000
G4 P0.25
G1 S0
G0
M3
G1 X42.828Y68.943S1000F2000
G1 X42.987Y68.851
G1 X43.124Y68.739
G1 X43.237Y68.607
G1 X43.326Y68.459
G1 X43.389Y68.298
G1 X43.427Y68.122
G1 X43.44Y67.933
G1 X43.416Y67.673
G1 X43.344Y67.435
G1 X43.224Y67.218
G1 X43.057Y67.023
G1 X42.85Y66.861
G1 X42.613Y66.746
G1 X42.346Y66.677
G1 X42.048Y66.654
G1 X41.751Y66.677
G1 X41.484Y66.747
G1 X41.247Y66.862
G1 X41.04Y67.024
G1 X40.873Y67.221
G1 X40.753Y67.44
G1 X40.681Y67.682
G1 X40.657Y67.947
G1 X40.67Y68.145
G1 X40.709Y68.326
G1 X40.774Y68.49
G1 X40.866Y68.637
G1 X40.981Y68.765
G1 X41.119Y68.871
G1 X41.279Y68.955
G1 X41.461Y69.016
G1 X41.31Y69.082
G1 X41.18Y69.16
G1 X41.071Y69.25
G1 X40.983Y69.353
G1 X40.914Y69.468
G1 X40.866Y69.594
G1 X40.837Y69.73
G1 X40.827Y69.878
G1 X40.848Y70.099
G1 X40.91Y70.302
G1 X41.013Y70.486
G1 X41.158Y70.653
G1 X41.338Y70.79
G1 X41.544Y70.888
G1 X41.778Y70.947
G1 X42.04Y70.967
G1 X42.303Y70.947
G1 X42.539Y70.886
G1 X42.748Y70.786
G1 X42.93Y70.645
G1 X43.077Y70.476
G1 X43.183Y70.289
G1 X43.246Y70.085
G1 X43.267Y69.863
G1 Y69.721
G1 X43.229Y69.589
G1 X43.18Y69.465
G1 X43.113Y69.352
G1 X43.026Y69.249
G1 X42.919Y69.159
G1 X42.792Y69.082
G1 X42.645Y69.016
M3
G1 F100 S1000
G4 P0.2
G1 S0
G0
M3
G0 X50.86Y67.317
M3
G1 F100 S1000
G4 P0.25
G1 S0
G0
M3
G1 X51.456S1000F2000
G1 Y66.726
G1 X50.86
G1 Y67.317
M3
G1 F100 S1000
G4 P0.2
G1 S0
G0
M3
G0 X59.185Y67.075
M3
G1 F100 S1000
G4 P0.25
G1 S0
G0
M3
G1 X59.329Y67.105S1000F2000
G1 X59.461Y67.159
G1 X59.579Y67.236
G1 X59.685Y67.337
G1 X59.771Y67.456
G1 X59.833Y67.588
G1 X59.87Y67.734
G1 X59.882Y67.893
G1 Y68.027
G1 X59.847Y68.147
G1 X59.803Y68.254
G1 X59.742Y68.346
G1 X59.655Y68.43
G1 X59.533Y68.509
G1 X59.376Y68.583
G1 X59.185Y68.653
G1 Y67.075
M3
G1 F100 S1000
G4 P0.2
G1 S0
G0
M3
G0 X58.879Y67.075
M3
G1 F100 S1000
G4 P0.25
G1 S0
G0
M3
G1 Y68.725S1000F2000
G1 X58.556Y68.818
G1 X58.225Y68.973
G1 X58.109Y69.049
G1 X58.006Y69.138
G1 X57.918Y69.24
G1 X57.844Y69.356
G1 X57.743Y69.618
G1 X57.71Y69.912
G1 X57.734Y70.176
G1 X57.808Y70.413
G1 X57.93Y70.624
G1 X58.101Y70.808
G1 X58.248Y70.912
G1 X58.427Y70.994
G1 X58.637Y71.053
G1 X58.879Y71.091
G1 Y71.338
G1 X59.185
G1 Y71.091
G1 X59.399Y71.058
G1 X59.59Y71.003
G1 X59.758Y70.925
G1 X59.902Y70.826
G1 X60.055Y70.671
G1 X60.174Y70.491
G1 X60.26Y70.284
G1 X60.311Y70.051
G1 X59.775Y69.97
G1 X59.704Y70.24
G1 X59.584Y70.438
G1 X59.411Y70.573
G1 X59.185Y70.653
G1 Y69.157
G1 X59.364Y69.111
G1 X59.51Y69.07
G1 X59.623Y69.035
G1 X59.703Y69.005
G1 X59.923Y68.887
G1 X60.098Y68.745
G1 X60.233Y68.578
G1 X60.333Y68.383
G1 X60.394Y68.164
G1 X60.415Y67.927
G1 X60.393Y67.669
G1 X60.329Y67.433
G1 X60.222Y67.22
G1 X60.072Y67.028
G1 X59.888Y66.869
G1 X59.679Y66.752
G1 X59.444Y66.676
G1 X59.185Y66.642
G1 Y66.118
G1 X58.879
G1 Y66.637
G1 X58.527Y66.705
G1 X58.247Y66.811
G1 X58.129Y66.883
G1 X58.02Y66.975
G1 X57.919Y67.086
G1 X57.826Y67.216
G1 X57.747Y67.363
G1 X57.686Y67.526
G1 X57.644Y67.705
G1 X57.62Y67.899
G1 X58.142Y67.996
G1 X58.178Y67.801
G1 X58.225Y67.634
G1 X58.284Y67.495
G1 X58.355Y67.383
G1 X58.47Y67.26
G1 X58.596Y67.167
G1 X58.732Y67.106
G1 X58.879Y67.075
M3
G1 F100 S1000
G4 P0.2
G1 S0
G0
M3
G0 X59.897Y81.79
M3
G1 F100 S1000
G4 P0.25
G1 S0
G0
M3
G1 X59.622Y81.81S1000F2000
G1 X59.374Y81.871
G1 X59.152Y81.971
G1 X58.956Y82.113
G1 X58.794Y82.287
G1 X58.67Y82.488
G1 X58.585Y82.715
G1 X58.54Y82.968
G1 X59.084Y83.014
G1 X59.125Y82.828
G1 X59.185Y82.666
G1 X59.265Y82.529
G1 X59.365Y82.417
G1 X59.481Y82.329
G1 X59.608Y82.266
G1 X59.747Y82.229
G1 X59.897Y82.216
G1 X60.077Y82.234
G1 X60.243Y82.287
G1 X60.394Y82.375
G1 X60.531Y82.499
G1 X60.644Y82.651
G1 X60.725Y82.827
G1 X60.774Y83.026
G1 X60.79Y83.248
G1 X60.774Y83.458
G1 X60.728Y83.645
G1 X60.65Y83.808
G1 X60.541Y83.948
G1 X60.406Y84.06
G1 X60.253Y84.14
G1 X60.08Y84.188
G1 X59.888Y84.204
G1 X59.65Y84.176
G1 X59.436Y84.09
G1 X59.256Y83.96
G1 X59.119Y83.795
G1 X58.632Y83.858
G1 X59.041Y86.028
G1 X61.141
G1 Y85.532
G1 X59.456
G1 X59.228Y84.397
G1 X59.421Y84.513
G1 X59.618Y84.596
G1 X59.82Y84.646
G1 X60.026Y84.662
G1 X60.292Y84.638
G1 X60.536Y84.566
G1 X60.759Y84.447
G1 X60.96Y84.279
G1 X61.126Y84.074
G1 X61.245Y83.841
G1 X61.316Y83.581
G1 X61.34Y83.294
G1 X61.319Y83.017
G1 X61.257Y82.759
G1 X61.152Y82.521
G1 X61.006Y82.303
G1 X60.784Y82.078
G1 X60.526Y81.918
G1 X60.23Y81.822
G1 X59.897Y81.79
M3
G1 F100 S1000
G4 P0.2
G1 S0
G0
M3
G0 X62.668Y82.502
M3
G1 F100 S1000
G4 P0.25
G1 S0
G0
M3
G1 X62.849Y82.345S1000F2000
G1 X63.059Y82.248
G1 X63.279Y82.216
G1 X63.437Y82.233
G1 X63.584Y82.283
G1 X63.719Y82.365
G1 X63.843Y82.481
G1 X63.947Y82.626
G1 X64.02Y82.794
G1 X64.065Y82.986
G1 X64.08Y83.202
G1 X64.065Y83.409
G1 X64.021Y83.593
G1 X63.948Y83.754
G1 X63.846Y83.892
G1 X63.722Y84.002
G1 X63.583Y84.081
G1 X63.428Y84.128
G1 X63.258Y84.144
G1 X63.089Y84.128
G1 X62.934Y84.081
G1 X62.791Y84.002
G1 X62.662Y83.892
G1 X62.555Y83.756
G1 X62.479Y83.6
G1 X62.433Y83.425
G1 X62.417Y83.23
G1 X62.446Y82.968
G1 X62.531Y82.718
G1 X62.668Y82.502
M3
G1 F100 S1000
G4 P0.2
G1 S0
G0
M3
G0 X62.23Y82.267
M3
G1 F100 S1000
G4 P0.25
G1 S0
G0
M3
G1 X62.051Y82.544S1000F2000
G1 X61.923Y82.898
G1 X61.847Y83.33
G1 X61.821Y83.838
G1 Y84.134
G1 X61.849Y84.409
G1 X61.885Y84.663
G1 X61.934Y84.896
G1 X61.998Y85.108
G1 X62.075Y85.299
G1 X62.167Y85.469
G1 X62.273Y85.619
G1 X62.488Y85.83
G1 X62.736Y85.982
G1 X63.019Y86.072
G1 X63.336Y86.103
G1 X63.574Y86.085
G1 X63.79Y86.033
G1 X63.983Y85.945
G1 X64.153Y85.823
G1 X64.296Y85.67
G1 X64.408Y85.49
G1 X64.487Y85.284
G1 X64.535Y85.051
G1 X64.019Y85.011
G1 X63.936Y85.274
G1 X63.823Y85.454
G1 X63.712Y85.552
G1 X63.588Y85.621
G1 X63.453Y85.662
G1 X63.305Y85.676
G1 X63.184
G1 X63.072Y85.642
G1 X62.967Y85.599
G1 X62.87Y85.538
G1 X62.754Y85.438
G1 X62.651Y85.318
G1 X62.561Y85.178
G1 X62.484Y85.017
G1 X62.421Y84.827
G1 X62.376Y84.601
G1 X62.348Y84.339
G1 X62.337Y84.04
G1 X62.435Y84.173
G1 X62.545Y84.288
G1 X62.664Y84.385
G1 X62.795Y84.463
G1 X63.072Y84.567
G1 X63.362Y84.602
G1 X63.612Y84.578
G1 X63.842Y84.506
G1 X64.053Y84.387
G1 X64.245Y84.22
G1 X64.405Y84.015
G1 X64.519Y83.782
G1 X64.587Y83.522
G1 X64.61Y83.233
G1 X64.599Y83.038
G1 X64.567Y82.85
G1 X64.513Y82.669
G1 X64.438Y82.494
G1 X64.345Y82.334
G1 X64.235Y82.193
G1 X64.109Y82.072
G1 X63.967Y81.971
G1 X63.812Y81.892
G1 X63.647Y81.835
G1 X63.472Y81.801
G1 X63.287Y81.79
G1 X62.978Y81.82
G1 X62.699Y81.909
G1 X62.45Y82.058
G1 X62.23Y82.267
M3
G1 F100 S1000
G4 P0.2
G1 S0
G0
M3
G0 X65.789Y82.124
M3
G1 F100 S1000
G4 P0.25
G1 S0
G0
M3
G1 X65.826Y82.412S1000F2000
G1 X65.887Y82.726
G1 X65.969Y83.066
G1 X66.073Y83.416
G1 X66.197Y83.759
G1 X66.342Y84.097
G1 X66.506Y84.427
G1 X66.684Y84.742
G1 X66.868Y85.031
G1 X67.057Y85.295
G1 X67.251Y85.532
G1 X65.183
G1 Y86.031
G1 X67.917
G1 Y85.627
G1 X67.715Y85.395
G1 X67.515Y85.128
G1 X67.316Y84.825
G1 X67.117Y84.487
G1 X66.93Y84.128
G1 X66.766Y83.765
G1 X66.624Y83.396
G1 X66.505Y83.023
G1 X66.377Y82.468
G1 X66.306Y81.862
G1 X65.773
G1 X65.789Y82.124
M3
G1 F100 S1000
G4 P0.2
G1 S0
G0
M3
G0 X69.084Y82.651
M3
G1 F100 S1000
G4 P0.25
G1 S0
G0
M3
G1 X69.215Y82.467S1000F2000
G1 X69.397Y82.33
G1 X69.612Y82.245
G1 X69.844Y82.216
G1 X70.021Y82.231
G1 X70.183Y82.276
G1 X70.328Y82.351
G1 X70.457Y82.455
G1 X70.563Y82.583
G1 X70.639Y82.727
G1 X70.684Y82.887
G1 X70.699Y83.063
G1 X70.684Y83.243
G1 X70.637Y83.405
G1 X70.559Y83.552
G1 X70.45Y83.683
G1 X70.318Y83.79
G1 X70.169Y83.866
G1 X70.006Y83.912
G1 X69.826Y83.928
G1 X69.651Y83.912
G1 X69.492Y83.867
G1 X69.348Y83.791
G1 X69.22Y83.686
G1 X69.115Y83.557
G1 X69.039Y83.413
G1 X68.994Y83.255
G1 X68.979Y83.081
G1 X69.006Y82.862
G1 X69.084Y82.651
M3
G1 F100 S1000
G4 P0.2
G1 S0
G0
M3
G0 X69.694Y84.363
M3
G1 F100 S1000
G4 P0.25
G1 S0
G0
M3
G1 X69.841Y84.351S1000F2000
G1 X69.984Y84.363
G1 X70.113Y84.398
G1 X70.229Y84.457
G1 X70.332Y84.54
G1 X70.416Y84.639
G1 X70.476Y84.75
G1 X70.511Y84.871
G1 X70.523Y85.002
G1 X70.511Y85.139
G1 X70.474Y85.265
G1 X70.412Y85.379
G1 X70.326Y85.482
G1 X70.221Y85.567
G1 X70.105Y85.628
G1 X69.976Y85.664
G1 X69.835Y85.676
G1 X69.693Y85.664
G1 X69.563Y85.629
G1 X69.447Y85.569
G1 X69.342Y85.486
G1 X69.257Y85.386
G1 X69.195Y85.277
G1 X69.159Y85.159
G1 X69.146Y85.031
G1 X69.158Y84.888
G1 X69.195Y84.759
G1 X69.255Y84.643
G1 X69.339Y84.541
G1 X69.443Y84.458
G1 X69.561Y84.399
G1 X69.694Y84.363
M3
G1 F100 S1000
G4 P0.2
G1 S0
G0
M3
G0 X69.25Y84.152
M3
G1 F100 S1000
G4 P0.25
G1 S0
G0
M3
G1 X69.099Y84.218S1000F2000
G1 X68.969Y84.296
G1 X68.86Y84.386
G1 X68.772Y84.489
G1 X68.704Y84.604
G1 X68.655Y84.73
G1 X68.626Y84.866
G1 Y85.014
G1 X68.637Y85.235
G1 X68.699Y85.438
G1 X68.803Y85.622
G1 X68.948Y85.789
G1 X69.127Y85.926
G1 X69.334Y86.024
G1 X69.568Y86.083
G1 X69.829Y86.103
G1 X70.092Y86.083
G1 X70.328Y86.022
G1 X70.537Y85.922
G1 X70.719Y85.781
G1 X70.867Y85.612
G1 X70.972Y85.425
G1 X71.035Y85.221
G1 X71.056Y84.999
G1 Y84.857
G1 X71.018Y84.725
G1 X70.97Y84.601
G1 X70.902Y84.488
G1 X70.815Y84.385
G1 X70.708Y84.295
G1 X70.581Y84.218
G1 X70.434Y84.152
G1 X70.617Y84.079
G1 X70.777Y83.987
G1 X70.913Y83.875
G1 X71.026Y83.743
G1 X71.115Y83.595
G1 X71.178Y83.434
G1 X71.217Y83.258
G1 X71.229Y83.069
G1 X71.205Y82.809
G1 X71.133Y82.571
G1 X71.014Y82.354
G1 X70.846Y82.159
G1 X70.639Y81.997
G1 X70.402Y81.882
G1 X70.135Y81.813
G1 X69.838Y81.79
G1 X69.54Y81.813
G1 X69.273Y81.883
G1 X69.036Y81.998
G1 X68.829Y82.16
G1 X68.662Y82.357
G1 X68.542Y82.576
G1 X68.47Y82.818
G1 X68.446Y83.084
G1 X68.459Y83.281
G1 X68.499Y83.462
G1 X68.564Y83.626
G1 X68.655Y83.773
G1 X68.771Y83.901
G1 X68.908Y84.007
G1 X69.068Y84.091
G1 X69.25Y84.152
M3
G1 F100 S1000
G4 P0.2
G1 S0
G0
M3
G0 X72.304Y84.467
M3
G1 F100 S1000
G4 P0.25
G1 S0
G0
M3
G1 X72.35Y84.294S1000F2000
G1 X72.426Y84.139
G1 X72.532Y84.004
G1 X72.661Y83.894
G1 X72.804Y83.815
G1 X72.962Y83.768
G1 X73.133Y83.752
G1 X73.305Y83.768
G1 X73.461Y83.815
G1 X73.601Y83.894
G1 X73.725Y84.004
G1 X73.827Y84.142
G1 X73.899Y84.305
G1 X73.943Y84.491
G1 X73.957Y84.703
G1 X73.942Y84.914
G1 X73.898Y85.103
G1 X73.823Y85.269
G1 X73.719Y85.411
G1 X73.595Y85.526
G1 X73.458Y85.608
G1 X73.309Y85.657
G1 X73.148Y85.673
G1 X72.98Y85.656
G1 X72.824Y85.603
G1 X72.679Y85.515
G1 X72.545Y85.391
G1 X72.433Y85.24
G1 X72.353Y85.067
G1 X72.305Y84.874
G1 X72.289Y84.659
G1 X72.304Y84.467
M3
G1 F100 S1000
G4 P0.2
G1 S0
G0
M3
G0 X71.779Y84.381
M3
G1 F100 S1000
G4 P0.25
G1 S0
G0
M3
G1 X71.756Y84.677S1000F2000
G1 X71.78Y84.982
G1 X71.851Y85.256
G1 X71.969Y85.499
G1 X72.135Y85.711
G1 X72.336Y85.882
G1 X72.562Y86.005
G1 X72.811Y86.078
G1 X73.084Y86.103
G1 X73.286Y86.089
G1 X73.478Y86.047
G1 X73.662Y85.978
G1 X73.838Y85.881
G1 X73.998Y85.758
G1 X74.138Y85.612
G1 X74.257Y85.442
G1 X74.356Y85.248
G1 X74.434Y85.02
G1 X74.489Y84.746
G1 X74.522Y84.426
G1 X74.533Y84.06
G1 X74.522Y83.676
G1 X74.489Y83.333
G1 X74.434Y83.031
G1 X74.358Y82.771
G1 X74.259Y82.545
G1 X74.139Y82.349
G1 X73.997Y82.18
G1 X73.835Y82.041
G1 X73.654Y81.931
G1 X73.458Y81.853
G1 X73.247Y81.806
G1 X73.021Y81.79
G1 X72.784Y81.807
G1 X72.571Y81.859
G1 X72.38Y81.945
G1 X72.211Y82.065
G1 X72.07Y82.217
G1 X71.96Y82.396
G1 X71.881Y82.603
G1 X71.834Y82.839
G1 X72.332Y82.885
G1 X72.371Y82.721
G1 X72.424Y82.582
G1 X72.492Y82.466
G1 X72.574Y82.375
G1 X72.67Y82.305
G1 X72.778Y82.256
G1 X72.899Y82.226
G1 X73.032
G1 X73.257Y82.244
G1 X73.451Y82.326
G1 X73.615Y82.454
G1 X73.747Y82.618
G1 X73.853Y82.833
G1 X73.94Y83.112
G1 X73.998Y83.426
G1 X74.018Y83.746
G1 Y83.85
G1 X73.831Y83.625
G1 X73.59Y83.448
G1 X73.452Y83.381
G1 X73.309Y83.332
G1 X73.161Y83.303
G1 X73.006
G1 X72.754Y83.318
G1 X72.522Y83.389
G1 X72.311Y83.508
G1 X72.119Y83.674
G1 X71.96Y83.879
G1 X71.847Y84.115
G1 X71.779Y84.381
M3
G1 F100 S1000
G4 P0.2
G1 S0
G0
M3
G0 X75.61Y84.424
M3
G1 F100 S1000
G4 P0.25
G1 S0
G0
M3
G1 X75.593Y83.945S1000F2000
G1 X75.608Y83.468
G1 X75.654Y83.079
G1 X75.73Y82.776
G1 X75.837Y82.561
G1 X75.965Y82.41
G1 X76.108Y82.302
G1 X76.266Y82.238
G1 X76.437Y82.216
G1 X76.609Y82.238
G1 X76.766Y82.303
G1 X76.909Y82.411
G1 X77.038Y82.562
G1 X77.144Y82.778
G1 X77.22Y83.081
G1 X77.266Y83.47
G1 X77.281Y83.945
G1 X77.266Y84.423
G1 X77.22Y84.813
G1 X77.144Y85.115
G1 X77.038Y85.331
G1 X76.909Y85.481
G1 X76.765Y85.588
G1 X76.605Y85.652
G1 X76.431Y85.673
G1 X76.262Y85.655
G1 X76.11Y85.598
G1 X75.977Y85.503
G1 X75.861Y85.371
G1 X75.744Y85.137
G1 X75.66Y84.821
G1 X75.61Y84.424
M3
G1 F100 S1000
G4 P0.2
G1 S0
G0
M3
G0 X75.07Y84.301
M3
G1 F100 S1000
G4 P0.25
G1 S0
G0
M3
G1 X75.099Y84.621S1000F2000
G1 X75.147Y84.904
G1 X75.214Y85.151
G1 X75.301Y85.366
G1 X75.406Y85.555
G1 X75.53Y85.718
G1 X75.672Y85.855
G1 X75.834Y85.963
G1 X76.015Y86.041
G1 X76.217Y86.087
G1 X76.437Y86.103
G1 X76.602
G1 X76.756Y86.068
G1 X76.9Y86.026
G1 X77.034Y85.966
G1 X77.268Y85.799
G1 X77.457Y85.571
G1 X77.606Y85.285
G1 X77.719Y84.943
G1 X77.761Y84.742
G1 X77.79Y84.508
G1 X77.808Y84.243
G1 Y83.945
G1 Y83.591
G1 X77.776Y83.273
G1 X77.728Y82.991
G1 X77.662Y82.745
G1 X77.576Y82.53
G1 X77.471Y82.34
G1 X77.347Y82.177
G1 X77.205Y82.039
G1 X77.043Y81.93
G1 X76.861Y81.852
G1 X76.659Y81.806
G1 X76.437Y81.79
G1 X76.148Y81.817
G1 X75.892Y81.899
G1 X75.669Y82.036
G1 X75.478Y82.228
G1 X75.295Y82.533
G1 X75.165Y82.921
G1 X75.086Y83.391
G1 X75.06Y83.945
G1 Y84.301
M3
G1 F100 S1000
G4 P0.2
G1 S0
G0
M3
G0 X78.626Y85.149
M3
G1 F100 S1000
G4 P0.25
G1 S0
G0
M3
G1 Y86.085S1000F2000
G1 X79.269
G1 Y85.149
G1 X79.119Y82.911
G1 X78.785
G1 X78.626Y85.149
M3
G1 F100 S1000
G4 P0.2
G1 S0
G0
M3
G0 X80.042Y85.394
M3
G1 F100 S1000
G4 P0.25
G1 S0
G0
M3
G1 Y86.085S1000F2000
G1 X80.633
G1 Y85.394
G1 X80.503Y84.59
G1 X80.186
G1 X80.042Y85.394
M3
G1 F100 S1000
G4 P0.2
G1 S0
G0
M3
G0 X80.999Y85.394
M3
G1 F100 S1000
G4 P0.25
G1 S0
G0
M3
G1 Y86.085S1000F2000
G1 X81.589
G1 Y85.394
G1 X81.451Y84.59
G1 X81.14
G1 X80.999Y85.394
M3
G1 F100 S1000
G4 P0.2
G1 S0
G0
M3
G0 X82.347Y85.236
M3
G1 F100 S1000
G4 P0.25
G1 S0
G0
M3
G1 X82.43Y85.487S1000F2000
G1 X82.568Y85.705
G1 X82.762Y85.889
G1 X82.95Y86.007
G1 X83.157Y86.09
G1 X83.383Y86.141
G1 X83.627Y86.157
G1 X83.876Y86.14
G1 X84.102Y86.086
G1 X84.306Y85.996
G1 X84.487Y85.871
G1 X84.64Y85.713
G1 X84.76Y85.526
G1 X84.848Y85.31
G1 X84.903Y85.066
G1 X84.387Y84.988
G1 X84.355Y85.151
G1 X84.301Y85.297
G1 X84.226Y85.424
G1 X84.129Y85.532
G1 X84.017Y85.619
G1 X83.894Y85.681
G1 X83.76Y85.719
G1 X83.615Y85.731
G1 X83.462Y85.718
G1 X83.322Y85.68
G1 X83.196Y85.615
G1 X83.084Y85.525
G1 X82.991Y85.417
G1 X82.925Y85.298
G1 X82.885Y85.168
G1 X82.872Y85.028
G1 X82.882Y84.856
G1 X82.913Y84.659
G1 X82.964Y84.438
G1 X83.036Y84.193
G1 X83.944
G1 Y83.766
G1 X83.125
G1 X83.167Y83.64
G1 X83.18Y83.513
G1 X83.15Y83.255
G1 X83.061Y82.983
G1 X82.903Y82.7
G1 X82.667Y82.412
G1 X82.885Y82.46
G1 X83.082Y82.476
G1 X83.336Y82.458
G1 X83.621Y82.404
G1 X83.849Y82.352
G1 X84.037Y82.315
G1 X84.184Y82.293
G1 X84.292
G1 X84.407
G1 X84.537Y82.326
G1 X84.683Y82.376
G1 X84.845Y82.447
G1 X85.012Y81.971
G1 X84.777Y81.879
G1 X84.602Y81.825
G1 X84.457Y81.799
G1 X84.312
G1 X84.191
G1 X84.067Y81.813
G1 X84.015Y81.825
G1 X83.935Y81.847
G1 X83.56Y81.959
G1 X83.369Y82.013
G1 X83.313Y82.026
G1 X83.177Y82.044
G1 X83.042
G1 X82.828Y82.031
G1 X82.6Y81.977
G1 X82.375Y81.892
G1 X82.172Y81.781
G1 X81.973Y82.28
G1 X82.106Y82.364
G1 X82.229Y82.465
G1 X82.341Y82.583
G1 X82.443Y82.716
G1 X82.527Y82.866
G1 X82.587Y83.031
G1 X82.624Y83.212
G1 X82.636Y83.409
G1 X82.623Y83.586
G1 X82.587Y83.766
G1 X82.022
G1 Y84.193
G1 X82.466
G1 X82.388Y84.472
G1 X82.345Y84.664
G1 X82.325Y84.81
G1 Y84.953
G1 X82.347Y85.236
M3
G1 F100 S1000
G4 P0.2
G1 S0
G0
M3
G0 X86.018Y85.089
M3
G1 F100 S1000
G4 P0.25
G1 S0
G0
M3
G1 Y84.961S1000F2000
G1 X86.055Y84.845
G1 X86.101Y84.74
G1 X86.166Y84.645
G1 X86.253Y84.56
G1 X86.366Y84.484
G1 X86.504Y84.418
G1 X86.669Y84.36
G1 Y85.794
G1 X86.525Y85.762
G1 X86.398Y85.711
G1 X86.287Y85.641
G1 X86.192Y85.552
G1 X86.116Y85.45
G1 X86.061Y85.339
G1 X86.028Y85.218
G1 X86.018Y85.089
M3
G1 F100 S1000
G4 P0.2
G1 S0
G0
M3
G0 X86.974Y83.789
M3
G1 F100 S1000
G4 P0.25
G1 S0
G0
M3
G1 Y82.211S1000F2000
G1 X87.119Y82.241
G1 X87.25Y82.295
G1 X87.369Y82.372
G1 X87.474Y82.473
G1 X87.56Y82.592
G1 X87.622Y82.724
G1 X87.659Y82.87
G1 X87.671Y83.029
G1 Y83.163
G1 X87.636Y83.283
G1 X87.593Y83.39
G1 X87.531Y83.483
G1 X87.444Y83.566
G1 X87.322Y83.645
G1 X87.165Y83.719
G1 X86.974Y83.789
M3
G1 F100 S1000
G4 P0.2
G1 S0
G0
M3
G0 X86.669Y83.861
M3
G1 F100 S1000
G4 P0.25
G1 S0
G0
M3
G1 X86.345Y83.954S1000F2000
G1 X86.015Y84.109
G1 X85.898Y84.185
G1 X85.795Y84.274
G1 X85.707Y84.376
G1 X85.633Y84.492
G1 X85.532Y84.754
G1 X85.499Y85.048
G1 X85.523Y85.312
G1 X85.597Y85.549
G1 X85.719Y85.76
G1 X85.891Y85.944
G1 X86.038Y86.048
G1 X86.216Y86.13
G1 X86.427Y86.189
G1 X86.669Y86.227
G1 Y86.474
G1 X86.974
G1 Y86.227
G1 X87.188Y86.194
G1 X87.379Y86.139
G1 X87.547Y86.061
G1 X87.691Y85.962
G1 X87.844Y85.807
G1 X87.964Y85.627
G1 X88.049Y85.42
G1 X88.1Y85.187
G1 X87.565Y85.106
G1 X87.494Y85.376
G1 X87.373Y85.574
G1 X87.2Y85.709
G1 X86.974Y85.789
G1 Y84.293
G1 X87.153Y84.247
G1 X87.3Y84.206
G1 X87.413Y84.171
G1 X87.493Y84.141
G1 X87.712Y84.023
G1 X87.887Y83.882
G1 X88.022Y83.714
G1 X88.122Y83.519
G1 X88.184Y83.3
G1 X88.204Y83.063
G1 X88.183Y82.805
G1 X88.118Y82.569
G1 X88.011Y82.356
G1 X87.861Y82.165
G1 X87.677Y82.005
G1 X87.468Y81.888
G1 X87.234Y81.812
G1 X86.974Y81.778
G1 Y81.254
G1 X86.669
G1 Y81.773
G1 X86.316Y81.841
G1 X86.036Y81.947
G1 X85.919Y82.019
G1 X85.809Y82.111
G1 X85.708Y82.222
G1 X85.616Y82.352
G1 X85.536Y82.499
G1 X85.476Y82.662
G1 X85.433Y82.841
G1 X85.41Y83.035
G1 X85.931Y83.132
G1 X85.967Y82.937
G1 X86.015Y82.77
G1 X86.074Y82.631
G1 X86.144Y82.519
G1 X86.259Y82.396
G1 X86.385Y82.304
G1 X86.521Y82.242
G1 X86.669Y82.211
G1 Y83.861
M3
G1 F100 S1000
G4 P0.2
G1 S0
G0
M3
G0 X89.371Y84.545
M3
G1 F100 S1000
G4 P0.25
G1 S0
G0
M3
G1 X89.428Y84.448S1000F2000
G1 X89.497Y84.375
G1 X89.573Y84.323
G1 X89.657Y84.292
G1 X89.748Y84.282
G1 X89.842Y84.292
G1 X89.927Y84.324
G1 X90.004Y84.376
G1 X90.072Y84.449
G1 X90.128Y84.55
G1 X90.168Y84.685
G1 X90.192Y84.855
G1 Y85.06
G1 Y85.249
G1 X90.168Y85.408
G1 X90.127Y85.536
G1 X90.071Y85.635
G1 X90.002Y85.707
G1 X89.925Y85.759
G1 X89.84Y85.79
G1 X89.748Y85.8
G1 X89.655Y85.79
G1 X89.571Y85.758
G1 X89.495Y85.706
G1 X89.427Y85.633
G1 X89.371Y85.532
G1 X89.331Y85.396
G1 X89.307Y85.225
G1 Y85.019
G1 Y84.831
G1 X89.331Y84.673
G1 X89.371Y84.545
M3
G1 F100 S1000
G4 P0.2
G1 S0
G0
M3
G0 X88.91Y84.568
M3
G1 F100 S1000
G4 P0.25
G1 S0
G0
M3
G1 X88.862Y84.801S1000F2000
G1 X88.846Y85.071
G1 X88.86Y85.289
G1 X88.903Y85.49
G1 X88.974Y85.674
G1 X89.074Y85.841
G1 X89.2Y85.979
G1 X89.353Y86.078
G1 X89.53Y86.138
G1 X89.734Y86.157
G1 X89.924Y86.14
G1 X90.097Y86.086
G1 X90.253Y85.998
G1 X90.392Y85.874
G1 X90.506Y85.715
G1 X90.587Y85.523
G1 X90.636Y85.298
G1 X90.653Y85.04
G1 X90.636Y84.787
G1 X90.587Y84.565
G1 X90.504Y84.374
G1 X90.389Y84.214
G1 X90.249Y84.088
G1 X90.095Y83.997
G1 X89.925Y83.943
G1 X89.739Y83.925
G1 X89.556Y83.943
G1 X89.388Y83.996
G1 X89.237Y84.085
G1 X89.101Y84.21
G1 X88.99Y84.371
G1 X88.91Y84.568
M3
G1 F100 S1000
G4 P0.2
G1 S0
G0
M3
G0 X92.158Y83.415
M3
G1 F100 S1000
G4 P0.25
G1 S0
G0
M3
G1 X92.102Y83.314S1000F2000
G1 X92.062Y83.178
G1 X92.038Y83.007
G1 Y82.801
G1 Y82.614
G1 X92.062Y82.457
G1 X92.102Y82.329
G1 X92.159Y82.231
G1 X92.228Y82.158
G1 X92.304Y82.105
G1 X92.388Y82.074
G1 X92.479Y82.064
G1 X92.574Y82.074
G1 X92.66Y82.105
G1 X92.737Y82.158
G1 X92.806Y82.231
G1 X92.862Y82.332
G1 X92.902Y82.467
G1 X92.926Y82.637
G1 Y82.842
G1 Y83.031
G1 X92.902Y83.19
G1 X92.861Y83.318
G1 X92.805Y83.416
G1 X92.736Y83.489
G1 X92.659Y83.54
G1 X92.574Y83.572
G1 X92.482
G1 X92.388
G1 X92.303Y83.54
G1 X92.226Y83.488
G1 X92.158Y83.415
M3
G1 F100 S1000
G4 P0.2
G1 S0
G0
M3
G0 X91.705Y83.457
M3
G1 F100 S1000
G4 P0.25
G1 S0
G0
M3
G1 X91.805Y83.624S1000F2000
G1 X91.932Y83.762
G1 X92.084Y83.86
G1 X92.263Y83.919
G1 X92.467Y83.939
G1 X92.658Y83.921
G1 X92.831Y83.868
G1 X92.987Y83.78
G1 X93.126Y83.655
G1 X93.24Y83.497
G1 X93.321Y83.305
G1 X93.37Y83.08
G1 X93.386Y82.821
G1 X93.37Y82.569
G1 X93.321Y82.347
G1 X93.238Y82.156
G1 X93.123Y81.996
G1 X92.983Y81.869
G1 X92.828Y81.779
G1 X92.657Y81.725
G1 X92.47Y81.706
G1 X92.287Y81.724
G1 X92.119Y81.778
G1 X91.968Y81.868
G1 X91.832Y81.993
G1 X91.721Y82.154
G1 X91.641Y82.351
G1 X91.593Y82.584
G1 X91.577Y82.853
G1 X91.592Y83.072
G1 X91.634Y83.273
G1 X91.705Y83.457
M3
G1 F100 S1000
G4 P0.2
G1 S0
G0
M3
G0 X93.91Y83.85
M3
G1 F100 S1000
G4 P0.25
G1 S0
G0
M3
G1 X94.927Y86.157S1000F2000
G1 X95.345
G1 X96.367Y83.85
G1 X95.846
G1 X95.134Y85.57
G1 X94.443Y83.85
G1 X93.91
M3
G1 F100 S1000
G4 P0.2
G1 S0
G0
M3
G0 X97.141Y83.269
M3
G1 F100 S1000
G4 P0.25
G1 S0
G0
M3
G1 X97.104Y83.058S1000F2000
G1 X97.117Y82.928
G1 X97.155Y82.796
G1 X97.219Y82.662
G1 X97.308Y82.525
G1 X97.421Y82.404
G1 X97.555Y82.317
G1 X97.711Y82.265
G1 X97.887Y82.248
G1 X98.125Y82.284
G1 X98.37Y82.394
G1 X98.594Y82.56
G1 X98.769Y82.769
G1 X97.818Y83.948
G1 X97.625Y83.825
G1 X97.466Y83.706
G1 X97.341Y83.592
G1 X97.251Y83.483
G1 X97.141Y83.269
M3
G1 F100 S1000
G4 P0.2
G1 S0
G0
M3
G0 X98.04Y84.561
M3
G1 F100 S1000
G4 P0.25
G1 S0
G0
M3
G1 X98.194Y84.658S1000F2000
G1 X98.318Y84.748
G1 X98.412Y84.832
G1 X98.477Y84.91
G1 X98.551Y85.068
G1 X98.576Y85.241
G1 Y85.344
G1 X98.542Y85.438
G1 X98.499Y85.521
G1 X98.439Y85.594
G1 X98.366Y85.654
G1 X98.285Y85.697
G1 X98.196Y85.722
G1 X98.098
G1 X97.997
G1 X97.905Y85.697
G1 X97.822Y85.655
G1 X97.748Y85.596
G1 X97.687Y85.524
G1 X97.643Y85.445
G1 X97.617Y85.359
G1 Y85.264
G1 Y85.164
G1 X97.658Y85.058
G1 X97.721Y84.947
G1 X97.81Y84.829
G1 X98.04Y84.561
M3
G1 F100 S1000
G4 P0.2
G1 S0
G0
M3
G0 X98.495Y84.337
M3
G1 F100 S1000
G4 P0.25
G1 S0
G0
M3
G1 X98.308Y84.227S1000F2000
G1 X99.066Y83.262
G1 X99.181Y83.536
G1 X99.267Y83.85
G1 X99.806Y83.735
G1 X99.731Y83.47
G1 X99.643Y83.23
G1 X99.544Y83.015
G1 X99.432Y82.824
G1 X99.742Y82.469
G1 X100.091Y82.176
G1 X99.743Y81.764
G1 X99.424Y82.014
G1 X99.095Y82.36
G1 X98.827Y82.111
G1 X98.536Y81.933
G1 X98.221Y81.826
G1 X97.882Y81.79
G1 X97.574Y81.817
G1 X97.3Y81.899
G1 X97.06Y82.036
G1 X96.853Y82.228
G1 X96.718Y82.412
G1 X96.622Y82.606
G1 X96.564Y82.811
G1 X96.545Y83.026
G1 X96.561Y83.217
G1 X96.608Y83.399
G1 X96.687Y83.571
G1 X96.797Y83.733
G1 X96.939Y83.886
G1 X97.111Y84.03
G1 X97.315Y84.163
G1 X97.55Y84.288
G1 X97.42Y84.444
G1 X97.313Y84.585
G1 X97.23Y84.711
G1 X97.17Y84.821
G1 X97.099Y85.022
G1 X97.075Y85.215
G1 X97.094Y85.399
G1 X97.15Y85.571
G1 X97.243Y85.73
G1 X97.373Y85.877
G1 X97.532Y85.999
G1 X97.71Y86.087
G1 X97.907Y86.14
G1 X98.124Y86.157
G1 X98.33Y86.141
G1 X98.517Y86.091
G1 X98.684Y86.008
G1 X98.831Y85.892
G1 X98.951Y85.753
G1 X99.037Y85.601
G1 X99.089Y85.435
G1 X99.106Y85.256
G1 X99.094Y85.108
G1 X99.056Y84.966
G1 X98.994Y84.829
G1 X98.907Y84.698
G1 X98.794Y84.572
G1 X98.657Y84.451
G1 X98.495Y84.337
M3
G1 F100 S1000
G4 P0.2
G1 S0
G0
M3
G0 X100.656Y84.605
M3
G1 F100 S1000
G4 P0.25
G1 S0
G0
M3
G1 X100.812Y84.793S1000F2000
G1 X100.943Y84.947
G1 X101.051Y85.065
G1 X101.135Y85.149
G1 X100.772Y85.225
G1 X100.429Y85.31
G1 X100.561Y85.72
G1 X100.775Y85.642
G1 X100.957Y85.569
G1 X101.107Y85.502
G1 X101.227Y85.44
G1 X101.203Y85.68
G1 X101.185Y85.88
G1 X101.174Y86.039
G1 Y86.157
G1 X101.587
G1 X101.566Y85.836
G1 X101.521Y85.443
G1 X101.839Y85.587
G1 X102.201Y85.72
G1 X102.333Y85.31
G1 X101.971Y85.21
G1 X101.616Y85.149
G1 X101.713Y85.058
G1 X101.828Y84.937
G1 X101.96Y84.786
G1 X102.111Y84.605
G1 X101.766Y84.36
G1 X101.583Y84.628
G1 X101.371Y84.979
G1 X101.171Y84.621
G1 X100.996Y84.36
G1 X100.656Y84.605
M3
G1 F100 S1000
G4 P0.2
G1 S0
G0
M3
G0 X103.028Y84.388
M3
G1 F100 S1000
G4 P0.25
G1 S0
G0
M3
G1 X103.125Y84.705S1000F2000
G1 X103.272Y85.07
G1 X103.454Y85.433
G1 X103.672Y85.796
G1 X103.925Y86.157
G1 X104.297
G1 X104.138Y85.879
G1 X104.008Y85.644
G1 X103.907Y85.451
G1 X103.836Y85.302
G1 X103.679Y84.896
G1 X103.56Y84.472
G1 X103.467Y83.932
G1 X103.436Y83.389
G1 X103.449Y83.043
G1 X103.49Y82.696
G1 X103.557Y82.35
G1 X103.651Y82.004
G1 X103.772Y81.658
G1 X103.92Y81.312
G1 X104.095Y80.966
G1 X104.297Y80.62
G1 X103.925
G1 X103.719Y80.903
G1 X103.529Y81.208
G1 X103.356Y81.536
G1 X103.199Y81.888
G1 X103.07Y82.254
G1 X102.977Y82.627
G1 X102.921Y83.006
G1 X102.903Y83.392
G1 X102.917Y83.731
G1 X102.958Y84.063
G1 X103.028Y84.388
M3
G1 F100 S1000
G4 P0.2
G1 S0
G0
M3
G0 X105.47Y84.887
M3
G1 F100 S1000
G4 P0.25
G1 S0
G0
M3
G1 X105.314Y85.293S1000F2000
G1 X105.242Y85.444
G1 X105.141Y85.639
